/* XPM */
static char *bitcoin32[] = {
/* columns rows colors chars-per-pixel */
"32 32 127 2 ",
"   c #1C740612344E",
".  c #1EAC08A035F0",
"X  c #1E890723390D",
"o  c #1F3107EA395C",
"O  c #214509683CBF",
"+  c #26C210FF3DAA",
"@  c #24200AE44365",
"#  c #28530F4C4431",
"$  c #27100CBB492A",
"%  c #29030DFC4CEE",
"&  c #2ACF13614527",
"*  c #2DC114034B96",
"=  c #316316D74CB8",
"-  c #32D819D94D98",
";  c #2B120EE551E4",
":  c #2D0110A15444",
">  c #2F4111E7592B",
",  c #3109158A54E8",
"<  c #35801A035418",
"1  c #37F41BD25700",
"2  c #31AB13A05CE9",
"3  c #367B19275C12",
"4  c #39AA1CAE5AD5",
"5  c #39852192542B",
"6  c #3E5A296154A8",
"7  c #3EEB239A5D98",
"8  c #34DD15636434",
"9  c #379319116424",
"0  c #3C3F1D9763DD",
"q  c #36EF168368CE",
"w  c #37E517456A46",
"e  c #377817A067F4",
"r  c #3AA919996D2A",
"t  c #3D1B1A7774C9",
"y  c #3F481BD57908",
"u  c #3EB321356347",
"i  c #3E8920EC6A0C",
"p  c #411B22D95FA3",
"a  c #423427CE5D75",
"s  c #45B430F05C32",
"d  c #40471DDB7503",
"f  c #40951CC87AFE",
"g  c #41D022AC6576",
"h  c #434223576AC1",
"j  c #4652292668A7",
"k  c #491828716C42",
"l  c #4F1B3AED64C7",
"z  c #4CF034076DF3",
"x  c #514A3BA76AA5",
"c  c #44FC23C5736E",
"v  c #4864267A74FE",
"b  c #4CA52A8F73C2",
"n  c #450121047D68",
"m  c #48E0259A7AF0",
"M  c #4C7029917C23",
"N  c #52BB2F0D7C38",
"B  c #4D3E335C7008",
"V  c #5522327C774A",
"C  c #576434227A9E",
"Z  c #5A31364C7E0B",
"A  c #559C392979F2",
"S  c #583C40967601",
"D  c #5D3945037D37",
"F  c #5EF8492079A4",
"G  c #60E14CFD768D",
"H  c #60D54B927925",
"J  c #43F81EBC825C",
"K  c #4623208E84A3",
"L  c #4AC22569854E",
"P  c #4D1328A0818E",
"I  c #478A20F9895A",
"U  c #495D22438C49",
"Y  c #4EEB28CC8945",
"T  c #51822C9F82EA",
"R  c #52DE2C9D8BA7",
"E  c #5A00355081EF",
"W  c #5DAB39C385DC",
"Q  c #56B2301C8B30",
"!  c #5B50351A89A8",
"~  c #5E9C38248B3B",
"^  c #4C6224249242",
"/  c #54A12CB19385",
"(  c #50D226AF9BF3",
")  c #533B29BB9A1F",
"_  c #58432EC99B25",
"`  c #5B003312936F",
"'  c #5BE832A19BA7",
"]  c #624B3CD186C8",
"[  c #63E23D7B8B82",
"{  c #62BD3B3490F4",
"}  c #66643D0C9A4D",
"|  c #68B13F429AFF",
" . c #5DC33337A222",
".. c #636A4B2A8435",
"X. c #67A340948F29",
"o. c #62A748538876",
"O. c #68FE4EB48F13",
"+. c #6954416D9389",
"@. c #6C0A42E499FA",
"#. c #6D9151BE97A9",
"$. c #6F6353099AE0",
"%. c #77E15D3C9FCA",
"&. c #75E262F98AEA",
"*. c #781865328D3B",
"=. c #7ED669AE99DC",
"-. c #81A66B9C9EFB",
";. c #8A8678419F49",
":. c #84296D50A3A4",
">. c #8D107B2EA10F",
",. c #8BD97262B226",
"<. c #95848173AF55",
"1. c #9B5589E4AF23",
"2. c #9D07853BC05F",
"3. c #A9E1944EC8A0",
"4. c #BBB2AB7ECE8C",
"5. c #BD0AAC9CD084",
"6. c #C431B1F9DC78",
"7. c #CC1EBC8CDE78",
"8. c #CF57BF32E349",
"9. c #D4D4C4D2E8CB",
"0. c #DBD5CCA7EE37",
"q. c #DF87D0B1F14D",
"w. c #E557D69EF735",
"e. c #E6DBD845F87E",
"r. c #E71DD893F8A9",
"t. c #E92CDAC5FA81",
"y. c None",
/* pixels */
"y.y.y.y.y.y.y.y.y.y.y.y.y.y.y.y.y.y.y.y.y.y.y.y.y.y.y.y.y.y.y.y.",
"y.y.y.y.y.y.y.y.y.y.y.[ V k j h v b N W { y.y.y.y.y.y.y.y.y.y.y.",
"y.y.y.y.y.y.y.y.y.] h - = 1 g c M M m h 0 k Z y.y.y.y.y.y.y.y.y.",
"y.y.y.y.y.y.y.@.N d g < * * 2 r f J L n v g < p X.y.y.y.y.y.y.y.",
"y.y.y.y.y.y.| / R m , O o % 8 t J ^ J J r 2 1 1 4 W y.y.y.y.y.y.",
"y.y.y.y.y.} '  .L q ; @ o % 8 t U ( ^ J r > @ $ h c ~ y.y.y.y.y.",
"y.y.y.y.{ R  .U y 8 ; o o % 8 t J ^ J f q ; @ o % m m [ y.y.y.y.",
"y.y.y.+.m R n t q > $ o o @ > q t f f r 2 $ o   @ , M m @.y.y.y.",
"y.y.y.k h d 8 8 2 % O     . @ ; > 8 8 > * O     o @ 4 v M y.y.y.",
"y.y.Z < 0 ; ; % $ O       O x =.=.D > % @         O @ 0 0 W y.y.",
"y.y.g 4 , ; > ; % @     + >.0.t.t.q.<., @ X       O $ 2 h v y.y.",
"y.X.1 h 2 q w q 2 % @   &.w.t.e.r.r.w.:.; @     O $ 2 8 P v @.y.",
"y.Z 4 r r f J f r 2 $ & 4.t.w.e.r.e.t.6.i % o . @ > w t Y R { y.",
"y.b h r y U ^ U f 8 ; 5 7.t.e.e.r.r.e.9.M ; @ o $ 2 t J ) ' ` y.",
"y.j h r f ^ ( ^ f q ; * 4.t.e.e.e.w.t.8.c > @ o % 8 t U )  .` y.",
"y.g g 8 t J U I y 8 ; o *.w.t.e.e.w.q.,.8 > O o @ 2 r J U ' R y.",
"y.p 0 2 8 t y t e > @   & 4.t.e.e.t.8.y > $ X   @ ; 8 t y R P y.",
"y.a 1 : > 8 8 8 > $ O   + 4.t.e.e.r.6.9 % @ X   X @ : > q m b y.",
"y.k - # $ % ; % $ O     - 7.t.w.w.t.8.7 o X       o $ % , i B y.",
"y.V - , % > > > * @     s 9.t.e.e.e.0.z @         o $ : 0 h ! y.",
"y.[ 1 h 8 8 r q 2 ; @   l q.t.e.e.e.q.o.; @ X   O $ 2 8 P m +.y.",
"y.y.b c y y J y r 8 $   G w.e.e.e.e.e.%.2 : o X @ > 8 n / R y.y.",
"y.y.W c R U ( J y q ; X &.t.w.w.e.e.t.,.q > O X $ 2 t / _ @.y.y.",
"y.y.y.T R ( ( ^ y q ; o ;.t.e.w.e.e.t.2.q > @ X $ 8 n ' ' y.y.y.",
"y.y.y.@.M / ^ K t 8 % O 1.w.w.w.w.w.e.3.w ; O   $ 8 T R @.y.y.y.",
"y.y.y.y.[ L R f 8 2 $ O a H ..O.#.$.#.W 2 $ O   & h d [ y.y.y.y.",
"y.y.y.y.y.! c b 9 $ O O +   * 3 > 8 8 9 : O   & 1 3 Z y.y.y.y.y.",
"y.y.y.y.y.y.W 0 7 < O 6 G O G S , B , H - O - - = C y.y.y.y.y.y.",
"y.y.y.y.y.y.y.[ h 1 1 a 5 @ 7 g , h 9 A h 1 = p ] y.y.y.y.y.y.y.",
"y.y.y.y.y.y.y.y.y.W g - - 5 g c P P P c 0 j C y.y.y.y.y.y.y.y.y.",
"y.y.y.y.y.y.y.y.y.y.y.[ V b b M T Q ! ~ +.y.y.y.y.y.y.y.y.y.y.y.",
"y.y.y.y.y.y.y.y.y.y.y.y.y.y.y.y.y.y.y.y.y.y.y.y.y.y.y.y.y.y.y.y."
};
