/* XPM */
static char *bitcoin256[] = {
/* columns rows colors chars-per-pixel */
"256 256 218 2 ",
"   c #1C57062233BF",
".  c #1E7A08093621",
"X  c #1E74074A386F",
"o  c #1F1707DE3925",
"O  c #211D092D3CF6",
"+  c #1FE20928384B",
"@  c #26F511373DDF",
"#  c #247A0B3543CE",
"$  c #28010EFE437A",
"%  c #270B0CC64900",
"&  c #290F0E0C4CEB",
"*  c #2A5712204476",
"=  c #2CBB127C4BC1",
"-  c #2E5A18CD4546",
";  c #311C16514D61",
":  c #33001B484C28",
">  c #305C1ABD4754",
",  c #2AFE0F3650E0",
"<  c #2DC40F8E59AB",
"1  c #2D08108854BD",
"2  c #2F1A11C958F5",
"3  c #3197156A5507",
"4  c #35191A8D531D",
"5  c #390C1DA45619",
"6  c #312C131C5CE6",
"7  c #365F19875B83",
"8  c #3A281CEB5CAA",
"9  c #3A7C242E53D7",
"0  c #3D2221585C77",
"q  c #3ED32A0E54F0",
"w  c #380422AF4EBA",
"e  c #349E153A63D4",
"r  c #374B18806344",
"t  c #3AA71BBA63E6",
"y  c #373016CB6900",
"u  c #381B175A6ADE",
"i  c #39AC18726D84",
"p  c #3CAD1A3973CA",
"a  c #3F3B1BC778F9",
"s  c #39D5174D70F7",
"d  c #3EB62162633C",
"f  c #3F84208B6AD3",
"g  c #40D0230D5EB9",
"h  c #41B72C0659DE",
"j  c #460B314E5CAB",
"k  c #40DE1EAC7415",
"l  c #413D1D147CCB",
"z  c #402E1F536D6B",
"x  c #42DB243164D0",
"c  c #453A2A1364AD",
"v  c #442F24026C52",
"b  c #4AD72AD16CEE",
"n  c #481C289E687F",
"m  c #4A5A34996380",
"M  c #4D0735C069F6",
"N  c #50F23BC16945",
"B  c #44AE22FE73A3",
"V  c #4CAA2B2E7375",
"C  c #458D22057B90",
"Z  c #49B626327D10",
"A  c #4D102A507B80",
"S  c #486E279773C4",
"D  c #508C2EA4745D",
"F  c #51B52E1D7CB2",
"G  c #53283209754C",
"H  c #550B32747B49",
"J  c #594435737D93",
"K  c #57533A277AD6",
"L  c #4FB736D67117",
"P  c #5B40458B7528",
"I  c #55EA41B66C14",
"U  c #61B34DA47837",
"Y  c #665552D47BA3",
"T  c #440B1ECA8275",
"R  c #46151F9B886A",
"E  c #461C2024864C",
"W  c #49F0247C84B4",
"Q  c #4DDD29ED8310",
"!  c #474B20CE88E9",
"~  c #496022288CCC",
"^  c #4F4D28AA8C01",
"/  c #523E2D4D83F1",
"(  c #529B2C188C48",
")  c #557331DB8368",
"_  c #5A8335BF8459",
"`  c #5D623A3E8361",
"'  c #569F32CB8A57",
"]  c #5AF334BD8B87",
"[  c #5DB23B4A8B9B",
"{  c #578A3BB1809C",
"}  c #4CCF243F93C4",
"|  c #4F6425D39903",
" . c #54032BC5949A",
".. c #50FC26D69C10",
"X. c #530F287C9E91",
"o. c #532129BF9977",
"O. c #5C4E34929440",
"+. c #5CAD331C9C59",
"@. c #5AFD33CF9303",
"#. c #61543C0386B2",
"$. c #63203CF38BC8",
"%. c #63AC3C359424",
"&. c #64653BD09BA7",
"*. c #638D3A179BF4",
"=. c #542128CFA234",
"-. c #59482E29A268",
";. c #5E343386A31F",
":. c #64BF3A9DA2C9",
">. c #66903B5DA861",
",. c #5F2341568D4E",
"<. c #5F8C40AA907C",
"1. c #662941A58C91",
"2. c #68CF42628EBA",
"3. c #65344C6F8706",
"4. c #6C0A56818649",
"5. c #70F65D558716",
"6. c #639A41539353",
"7. c #6C0F444F9462",
"8. c #6CA1441A9B35",
"9. c #6C1B48EC969D",
"0. c #703F479297C0",
"q. c #708048D8975A",
"w. c #708547719A33",
"e. c #756D4BC89D98",
"r. c #734D565D9BBC",
"t. c #6FC8573E917B",
"y. c #77E3646E8DB4",
"u. c #79A663F09433",
"i. c #7F016BDB944A",
"p. c #7A3063319837",
"a. c #6CA442B9A481",
"s. c #6D244191AC5E",
"d. c #75434C03A31D",
"f. c #79004EC6A1C0",
"g. c #75674ACEAB32",
"h. c #78B44E56AB69",
"j. c #70E14672A8D9",
"k. c #7BC851D6A54F",
"l. c #7D975353ABA2",
"z. c #77375A47A4B7",
"x. c #78104B89B469",
"c. c #7E865218B653",
"v. c #6D7A40D6B10F",
"b. c #7F7262F4AC42",
"n. c #814F6CA79A6F",
"m. c #86AC744F9BAE",
"M. c #81195669AC09",
"N. c #83935962ADC9",
"B. c #81D1567AB2DF",
"V. c #85FF5AC0B3B2",
"C. c #89725DCCB5BE",
"Z. c #869D5993BBDE",
"A. c #8A805DC7BBEE",
"S. c #82CF5572BBE1",
"D. c #83AE6A48A94C",
"F. c #8C6077D2A642",
"G. c #91B77E34A8D5",
"H. c #8E4661B0BCB6",
"J. c #8BC06041B722",
"K. c #919F64EDBE65",
"L. c #92FA7AE7B5F5",
"P. c #8D407359B4AF",
"I. c #8A4F5BC1C3B0",
"U. c #8F126140C244",
"Y. c #8F5A6016C88F",
"T. c #93336567C3AC",
"R. c #96EC68D9C634",
"E. c #990E6AE9C748",
"W. c #946E652DCA57",
"Q. c #978068AEC99C",
"!. c #9BAE6C7ECCB1",
"~. c #9FA07051CEA4",
"^. c #9DB96D6BD233",
"/. c #9718667CD116",
"(. c #9FEA7027D0AE",
"). c #A05A6F9CD505",
"_. c #A3ED7379D518",
"`. c #A69F7543D9EB",
"'. c #A8D97761DB35",
"]. c #AC2A7A5ADDE0",
"[. c #A8367765D830",
"{. c #A0B97143CFB3",
"}. c #AF417CDBE183",
"|. c #B1B77EFFE3C4",
" X c #968F8440ABD2",
".X c #9C2F87F3B58E",
"XX c #A25F8F27B9AB",
"oX c #A5FB92D1BD1B",
"OX c #A6AF9570BA86",
"+X c #A2E68C49C3BE",
"@X c #AB9E97E6C53E",
"#X c #B13A9DCECA10",
"$X c #B5B7A38ECB78",
"%X c #B69CA5F4CA33",
"&X c #BDCFABF6D3EB",
"*X c #BA90A680D6C6",
"=X c #B345804AE573",
"-X c #9BE38369C0C5",
";X c #C14EAEFAD813",
":X c #C61AB4C4DB6D",
">X c #CB54BB11DE6B",
",X c #C707B5C4DB4F",
"<X c #CCE7BB61E2C2",
"1X c #C8A4B603E239",
"2X c #D154BFA3E6D4",
"3X c #D31DC2C4E69E",
"4X c #D583C4D8EA45",
"5X c #DA60CA42EE59",
"6X c #DE26CDD5F1E1",
"7X c #DFD0D09AF268",
"8X c #E6D2D83EF86C",
"9X c #E6E3D85FF867",
"0X c #E727D6AFFA95",
"qX c #E8E6D802FCC6",
"wX c #E6F8D86FF883",
"eX c #E96DDADAFAEF",
"rX c #E0CBCF92F51C",
"tX c None",
/* pixels */
"tXtXtXtXtXtXtXtXtXtXtXtXtXtXtXtXtXtXtXtXtXtXtXtXtXtXtXtXtXtXtXtXtXtXtXtXtXtXtXtXtXtXtXtXtXtXtXtXtXtXtXtXtXtXtXtXtXtXtXtXtXtXtXtXtXtXtXtXtXtXtXtXtXtXtXtXtXtXtXtXtXtXtXtXtXtXtXtXtXtXtXtXtXtXtXtXtXtXtXtXtXtXtXtXtXtXtXtXtXtXtXtXtXtXtXtXtXtXtXtXtXtXtXtXtXtXtXtXtXtXtXtXtXtXtXtXtXtXtXtXtXtXtXtXtXtXtXtXtXtXtXtXtXtXtXtXtXtXtXtXtXtXtXtXtXtXtXtXtXtXtXtXtXtXtXtXtXtXtXtXtXtXtXtXtXtXtXtXtXtXtXtXtXtXtXtXtXtXtXtXtXtXtXtXtXtXtXtXtXtXtXtXtXtXtXtXtXtXtXtXtXtXtXtXtXtXtXtXtXtXtXtXtXtXtXtXtXtXtXtXtXtXtXtXtXtXtXtXtXtXtXtXtXtXtXtX",
"tXtXtXtXtXtXtXtXtXtXtXtXtXtXtXtXtXtXtXtXtXtXtXtXtXtXtXtXtXtXtXtXtXtXtXtXtXtXtXtXtXtXtXtXtXtXtXtXtXtXtXtXtXtXtXtXtXtXtXtXtXtXtXtXtXtXtXtXtXtXtXtXtXtXtXtXtXtXtXtXtXtXtXtXtXtXtXtXtXtXtXtXtXtXtXtXtXtXtXtXtXtXtXtXtXtXtXtXtXtXtXtXtXtXtXtXtXtXtXtXtXtXtXtXtXtXtXtXtXtXtXtXtXtXtXtXtXtXtXtXtXtXtXtXtXtXtXtXtXtXtXtXtXtXtXtXtXtXtXtXtXtXtXtXtXtXtXtXtXtXtXtXtXtXtXtXtXtXtXtXtXtXtXtXtXtXtXtXtXtXtXtXtXtXtXtXtXtXtXtXtXtXtXtXtXtXtXtXtXtXtXtXtXtXtXtXtXtXtXtXtXtXtXtXtXtXtXtXtXtXtXtXtXtXtXtXtXtXtXtXtXtXtXtXtXtXtXtXtXtXtXtXtXtXtXtX",
"tXtXtXtXtXtXtXtXtXtXtXtXtXtXtXtXtXtXtXtXtXtXtXtXtXtXtXtXtXtXtXtXtXtXtXtXtXtXtXtXtXtXtXtXtXtXtXtXtXtXtXtXtXtXtXtXtXtXtXtXtXtXtXtXtXtXtXtXtXtXtXtXtXtXtXtXtXtXtXtXtXtXtXtXtXtXtXtXtXtXtXtXtXtXtXtXtXtXtXtXtXtXtXtXtXtXtXtXtXtXtXtXtXtXtXtXtXtXtXtXtXtXtXtXtXtXtXtXtXtXtXtXtXtXtXtXtXtXtXtXtXtXtXtXtXtXtXtXtXtXtXtXtXtXtXtXtXtXtXtXtXtXtXtXtXtXtXtXtXtXtXtXtXtXtXtXtXtXtXtXtXtXtXtXtXtXtXtXtXtXtXtXtXtXtXtXtXtXtXtXtXtXtXtXtXtXtXtXtXtXtXtXtXtXtXtXtXtXtXtXtXtXtXtXtXtXtXtXtXtXtXtXtXtXtXtXtXtXtXtXtXtXtXtXtXtXtXtXtXtXtXtXtXtXtXtX",
"tXtXtXtXtXtXtXtXtXtXtXtXtXtXtXtXtXtXtXtXtXtXtXtXtXtXtXtXtXtXtXtXtXtXtXtXtXtXtXtXtXtXtXtXtXtXtXtXtXtXtXtXtXtXtXtXtXtXtXtXtXtXtXtXtXtXtXtXtXtXtXtXtXtXtXtXtXtXtXtXtXtXtXtXtXtXtXtXtXtXtXtXtXtXtXtXtXtXtXtXtXtXtXtXtXtXtXtXtXtXtXtXtXtXtXtXtXtXtXtXtXtXtXtXtXtXtXtXtXtXtXtXtXtXtXtXtXtXtXtXtXtXtXtXtXtXtXtXtXtXtXtXtXtXtXtXtXtXtXtXtXtXtXtXtXtXtXtXtXtXtXtXtXtXtXtXtXtXtXtXtXtXtXtXtXtXtXtXtXtXtXtXtXtXtXtXtXtXtXtXtXtXtXtXtXtXtXtXtXtXtXtXtXtXtXtXtXtXtXtXtXtXtXtXtXtXtXtXtXtXtXtXtXtXtXtXtXtXtXtXtXtXtXtXtXtXtXtXtXtXtXtXtXtXtXtX",
"tXtXtXtXtXtXtXtXtXtXtXtXtXtXtXtXtXtXtXtXtXtXtXtXtXtXtXtXtXtXtXtXtXtXtXtXtXtXtXtXtXtXtXtXtXtXtXtXtXtXtXtXtXtXtXtXtXtXtXtXtXtXtXtXtXtXtXtXtXtXtXtXtXtXtXtXtXtXtXtXtXtXtXtXtXtXtXtXtXtXtXtXtXtXtXtXtXtXtXtXtXtXtXtXtXtXtXtXtXtXtXtXtXtXtXtXtXtXtXtXtXtXtXtXtXtXtXtXtXtXtXtXtXtXtXtXtXtXtXtXtXtXtXtXtXtXtXtXtXtXtXtXtXtXtXtXtXtXtXtXtXtXtXtXtXtXtXtXtXtXtXtXtXtXtXtXtXtXtXtXtXtXtXtXtXtXtXtXtXtXtXtXtXtXtXtXtXtXtXtXtXtXtXtXtXtXtXtXtXtXtXtXtXtXtXtXtXtXtXtXtXtXtXtXtXtXtXtXtXtXtXtXtXtXtXtXtXtXtXtXtXtXtXtXtXtXtXtXtXtXtXtXtXtXtXtX",
"tXtXtXtXtXtXtXtXtXtXtXtXtXtXtXtXtXtXtXtXtXtXtXtXtXtXtXtXtXtXtXtXtXtXtXtXtXtXtXtXtXtXtXtXtXtXtXtXtXtXtXtXtXtXtXtXtXtXtXtXtXtXtXtXtXtXtXtXtXtXtXtXtXtXtXtXtXtXtXtXtXtXtXtXtXtXtXtXtXtXtXtXtXtXtXtXtXtXtXtXtXtXtXtXtXtXtXtXtXtXtXtXtXtXtXtXtXtXtXtXtXtXtXtXtXtXtXtXtXtXtXtXtXtXtXtXtXtXtXtXtXtXtXtXtXtXtXtXtXtXtXtXtXtXtXtXtXtXtXtXtXtXtXtXtXtXtXtXtXtXtXtXtXtXtXtXtXtXtXtXtXtXtXtXtXtXtXtXtXtXtXtXtXtXtXtXtXtXtXtXtXtXtXtXtXtXtXtXtXtXtXtXtXtXtXtXtXtXtXtXtXtXtXtXtXtXtXtXtXtXtXtXtXtXtXtXtXtXtXtXtXtXtXtXtXtXtXtXtXtXtXtXtXtXtXtX",
"tXtXtXtXtXtXtXtXtXtXtXtXtXtXtXtXtXtXtXtXtXtXtXtXtXtXtXtXtXtXtXtXtXtXtXtXtXtXtXtXtXtXtXtXtXtXtXtXtXtXtXtXtXtXtXtXtXtXtXtXtXtXtXtXtXtXtXtXtXtXtXtXtXtXtXtXtXtXtXtXtXtXtXtXtXtXtXtXtXtXtXtXtXtXtXtXtXtXtXtXtXtXtXtXtXtXtXtXtXtXtXtXtXC.M.f.e.e.e.e.e.e.w.e.e.e.e.e.e.e.e.w.e.e.w.e.0.e.e.e.f.M.C.C.tXtXtXtXtXtXtXtXtXtXtXtXtXtXtXtXtXtXtXtXtXtXtXtXtXtXtXtXtXtXtXtXtXtXtXtXtXtXtXtXtXtXtXtXtXtXtXtXtXtXtXtXtXtXtXtXtXtXtXtXtXtXtXtXtXtXtXtXtXtXtXtXtXtXtXtXtXtXtXtXtXtXtXtXtXtXtXtXtXtXtXtXtXtXtXtXtXtXtXtXtXtXtXtXtXtXtXtXtXtXtXtX",
"tXtXtXtXtXtXtXtXtXtXtXtXtXtXtXtXtXtXtXtXtXtXtXtXtXtXtXtXtXtXtXtXtXtXtXtXtXtXtXtXtXtXtXtXtXtXtXtXtXtXtXtXtXtXtXtXtXtXtXtXtXtXtXtXtXtXtXtXtXtXtXtXtXtXtXtXtXtXtXtXtXtXtXtXtXtXtXtXtXtXtXtXtXtXtXtXtXtXtXtXtXtXtXtXtXtXV.e.e.0.e.e.e.e.e.e.e.e.e.e.e.e.e.e.e.e.e.e.e.e.e.e.e.e.e.e.e.e.e.e.e.e.e.e.e.w.w.w.e.N.tXtXtXtXtXtXtXtXtXtXtXtXtXtXtXtXtXtXtXtXtXtXtXtXtXtXtXtXtXtXtXtXtXtXtXtXtXtXtXtXtXtXtXtXtXtXtXtXtXtXtXtXtXtXtXtXtXtXtXtXtXtXtXtXtXtXtXtXtXtXtXtXtXtXtXtXtXtXtXtXtXtXtXtXtXtXtXtXtXtXtXtXtXtXtXtXtXtXtXtXtXtXtXtXtXtX",
"tXtXtXtXtXtXtXtXtXtXtXtXtXtXtXtXtXtXtXtXtXtXtXtXtXtXtXtXtXtXtXtXtXtXtXtXtXtXtXtXtXtXtXtXtXtXtXtXtXtXtXtXtXtXtXtXtXtXtXtXtXtXtXtXtXtXtXtXtXtXtXtXtXtXtXtXtXtXtXtXtXtXtXtXtXtXtXtXtXtXtXtXtXtXtXtXtXtXtXtXtXM.0.0.e.e.e.e.e.e.e.e.e.e.e.e.e.e.e.e.e.e.e.e.e.e.e.e.e.e.e.e.e.e.e.e.e.e.e.e.e.e.e.e.e.e.e.e.e.e.e.w.w.q.f.tXtXtXtXtXtXtXtXtXtXtXtXtXtXtXtXtXtXtXtXtXtXtXtXtXtXtXtXtXtXtXtXtXtXtXtXtXtXtXtXtXtXtXtXtXtXtXtXtXtXtXtXtXtXtXtXtXtXtXtXtXtXtXtXtXtXtXtXtXtXtXtXtXtXtXtXtXtXtXtXtXtXtXtXtXtXtXtXtXtXtXtXtXtXtXtXtXtXtXtXtX",
"tXtXtXtXtXtXtXtXtXtXtXtXtXtXtXtXtXtXtXtXtXtXtXtXtXtXtXtXtXtXtXtXtXtXtXtXtXtXtXtXtXtXtXtXtXtXtXtXtXtXtXtXtXtXtXtXtXtXtXtXtXtXtXtXtXtXtXtXtXtXtXtXtXtXtXtXtXtXtXtXtXtXtXtXtXtXtXtXtXtXtXtXtXtXtXtXtX0.0.0.e.e.e.e.e.e.e.e.e.e.e.e.e.e.e.e.e.e.e.e.e.f.e.e.e.d.e.e.e.e.f.e.e.e.e.f.e.e.e.e.e.e.e.e.e.e.e.e.e.e.e.e.e.e.e.e.e.7.7.tXtXtXtXtXtXtXtXtXtXtXtXtXtXtXtXtXtXtXtXtXtXtXtXtXtXtXtXtXtXtXtXtXtXtXtXtXtXtXtXtXtXtXtXtXtXtXtXtXtXtXtXtXtXtXtXtXtXtXtXtXtXtXtXtXtXtXtXtXtXtXtXtXtXtXtXtXtXtXtXtXtXtXtXtXtXtXtXtXtXtXtXtXtXtXtXtX",
"tXtXtXtXtXtXtXtXtXtXtXtXtXtXtXtXtXtXtXtXtXtXtXtXtXtXtXtXtXtXtXtXtXtXtXtXtXtXtXtXtXtXtXtXtXtXtXtXtXtXtXtXtXtXtXtXtXtXtXtXtXtXtXtXtXtXtXtXtXtXtXtXtXtXtXtXtXtXtXtXtXtXtXtXtXtXtXtXtXtXtXtXtX7.7.e.e.e.e.e.e.e.e.e.e.e.e.e.e.e.e.e.e.e.e.e.e.7.2.#._ J J J ` J _ J J _ _ ` _ ` _ _ #.7.0.e.e.e.e.d.e.e.e.e.e.e.e.e.e.e.e.e.e.e.e.e.e.7.7.tXtXtXtXtXtXtXtXtXtXtXtXtXtXtXtXtXtXtXtXtXtXtXtXtXtXtXtXtXtXtXtXtXtXtXtXtXtXtXtXtXtXtXtXtXtXtXtXtXtXtXtXtXtXtXtXtXtXtXtXtXtXtXtXtXtXtXtXtXtXtXtXtXtXtXtXtXtXtXtXtXtXtXtXtXtXtXtXtXtXtXtXtX",
"tXtXtXtXtXtXtXtXtXtXtXtXtXtXtXtXtXtXtXtXtXtXtXtXtXtXtXtXtXtXtXtXtXtXtXtXtXtXtXtXtXtXtXtXtXtXtXtXtXtXtXtXtXtXtXtXtXtXtXtXtXtXtXtXtXtXtXtXtXtXtXtXtXtXtXtXtXtXtXtXtXtXtXtXtXtXtXtXtXtX$.e.f.e.e.e.e.e.e.e.e.e.e.e.e.e.e.e.e.7.#.#.J J V v 8 5 ; & % $ % & # & % % & & & & , & 1 , 2 7 t v D F _ #.$.$.7.0.e.e.e.e.e.e.e.e.e.e.e.e.e.e.e.f.e.2.tXtXtXtXtXtXtXtXtXtXtXtXtXtXtXtXtXtXtXtXtXtXtXtXtXtXtXtXtXtXtXtXtXtXtXtXtXtXtXtXtXtXtXtXtXtXtXtXtXtXtXtXtXtXtXtXtXtXtXtXtXtXtXtXtXtXtXtXtXtXtXtXtXtXtXtXtXtXtXtXtXtXtXtXtXtXtXtXtXtX",
"tXtXtXtXtXtXtXtXtXtXtXtXtXtXtXtXtXtXtXtXtXtXtXtXtXtXtXtXtXtXtXtXtXtXtXtXtXtXtXtXtXtXtXtXtXtXtXtXtXtXtXtXtXtXtXtXtXtXtXtXtXtXtXtXtXtXtXtXtXtXtXtXtXtXtXtXtXtXtXtXtXtXtXtXtXtXtX2.f.f.e.e.e.e.e.e.e.e.e.e.e.e.e.0.2.#.J b 5 * + + X X O o O O # # % % % % & & & & , , , 1 1 1 , 1 , 2 < , < , , 3 3 1 7 B H #.7.7.w.e.e.e.e.e.e.e.e.e.e.e.e.e.e.k.7.tXtXtXtXtXtXtXtXtXtXtXtXtXtXtXtXtXtXtXtXtXtXtXtXtXtXtXtXtXtXtXtXtXtXtXtXtXtXtXtXtXtXtXtXtXtXtXtXtXtXtXtXtXtXtXtXtXtXtXtXtXtXtXtXtXtXtXtXtXtXtXtXtXtXtXtXtXtXtXtXtXtXtXtXtXtXtX",
"tXtXtXtXtXtXtXtXtXtXtXtXtXtXtXtXtXtXtXtXtXtXtXtXtXtXtXtXtXtXtXtXtXtXtXtXtXtXtXtXtXtXtXtXtXtXtXtXtXtXtXtXtXtXtXtXtXtXtXtXtXtXtXtXtXtXtXtXtXtXtXtXtXtXtXtXtXtXtXtXtXtXtXtXtXk.f.e.e.e.e.e.e.e.e.e.e.f.e.0.7.J b : O + +       + + + O # O % # # % % % % & & & 1 1 , 1 1 1 1 2 6 1 3 < 6 < 6 6 6 6 6 < < 3 < < < 3 t D $.7.e.e.e.e.e.e.e.e.e.e.e.e.e.e.k.0.tXtXtXtXtXtXtXtXtXtXtXtXtXtXtXtXtXtXtXtXtXtXtXtXtXtXtXtXtXtXtXtXtXtXtXtXtXtXtXtXtXtXtXtXtXtXtXtXtXtXtXtXtXtXtXtXtXtXtXtXtXtXtXtXtXtXtXtXtXtXtXtXtXtXtXtXtXtXtXtXtXtXtXtX",
"tXtXtXtXtXtXtXtXtXtXtXtXtXtXtXtXtXtXtXtXtXtXtXtXtXtXtXtXtXtXtXtXtXtXtXtXtXtXtXtXtXtXtXtXtXtXtXtXtXtXtXtXtXtXtXtXtXtXtXtXtXtXtXtXtXtXtXtXtXtXtXtXtXtXtXtXtXtXtXtXtXtXk.f.e.e.e.e.e.e.e.e.e.e.e.w.0.J g $ +       +         X + O O # O # # % % % & & & & , 1 1 1 1 , 1 1 6 1 6 6 6 6 6 < 6 6 6 6 6 6 6 6 1 6 < < < , 3 6 7 v #.7.w.f.e.e.e.e.e.e.e.e.e.e.e.M.tXtXtXtXtXtXtXtXtXtXtXtXtXtXtXtXtXtXtXtXtXtXtXtXtXtXtXtXtXtXtXtXtXtXtXtXtXtXtXtXtXtXtXtXtXtXtXtXtXtXtXtXtXtXtXtXtXtXtXtXtXtXtXtXtXtXtXtXtXtXtXtXtXtXtXtXtXtXtXtXtXtX",
"tXtXtXtXtXtXtXtXtXtXtXtXtXtXtXtXtXtXtXtXtXtXtXtXtXtXtXtXtXtXtXtXtXtXtXtXtXtXtXtXtXtXtXtXtXtXtXtXtXtXtXtXtXtXtXtXtXtXtXtXtXtXtXtXtXtXtXtXtXtXtXtXtXtXtXtXtXtXtXtXk.e.e.e.e.e.e.e.e.e.e.f.e.1.b - @ +                     X X O O O O # # # % % & & & , , 1 1 1 1 6 6 6 6 6 6 6 6 6 6 6 e 6 6 6 6 6 6 6 6 6 6 6 3 6 6 1 < , , < 7 7 b 2.e.f.e.e.e.e.e.e.e.e.e.e.f.M.tXtXtXtXtXtXtXtXtXtXtXtXtXtXtXtXtXtXtXtXtXtXtXtXtXtXtXtXtXtXtXtXtXtXtXtXtXtXtXtXtXtXtXtXtXtXtXtXtXtXtXtXtXtXtXtXtXtXtXtXtXtXtXtXtXtXtXtXtXtXtXtXtXtXtXtXtXtXtX",
"tXtXtXtXtXtXtXtXtXtXtXtXtXtXtXtXtXtXtXtXtXtXtXtXtXtXtXtXtXtXtXtXtXtXtXtXtXtXtXtXtXtXtXtXtXtXtXtXtXtXtXtXtXtXtXtXtXtXtXtXtXtXtXtXtXtXtXtXtXtXtXtXtXtXtXtXtXN.e.e.e.e.e.e.e.e.e.e.e.q.J 5 -                               + + O # O # # % % % % & , , , 1 1 2 1 2 2 2 2 6 6 6 6 e e 6 e e e e e e e 6 e 6 6 6 6 6 6 6 2 2 1 < 1 , , , 3 8 x _ w.e.e.e.e.e.e.e.e.e.e.e.M.tXtXtXtXtXtXtXtXtXtXtXtXtXtXtXtXtXtXtXtXtXtXtXtXtXtXtXtXtXtXtXtXtXtXtXtXtXtXtXtXtXtXtXtXtXtXtXtXtXtXtXtXtXtXtXtXtXtXtXtXtXtXtXtXtXtXtXtXtXtXtXtXtXtXtXtXtX",
"tXtXtXtXtXtXtXtXtXtXtXtXtXtXtXtXtXtXtXtXtXtXtXtXtXtXtXtXtXtXtXtXtXtXtXtXtXtXtXtXtXtXtXtXtXtXtXtXtXtXtXtXtXtXtXtXtXtXtXtXtXtXtXtXtXtXtXtXtXtXtXtXtXtXtXM.w.e.e.e.e.e.e.e.e.f.e.#.c : @                               X X + O O O # # % % % % & , , , 1 1 1 2 2 6 e 2 e 6 e 6 e 6 e e e e e e e e e e e e e e e 6 6 6 6 6 6 2 1 1 1 , , & & 1 8 v #.e.e.e.e.e.e.e.e.e.e.e.e.tXtXtXtXtXtXtXtXtXtXtXtXtXtXtXtXtXtXtXtXtXtXtXtXtXtXtXtXtXtXtXtXtXtXtXtXtXtXtXtXtXtXtXtXtXtXtXtXtXtXtXtXtXtXtXtXtXtXtXtXtXtXtXtXtXtXtXtXtXtXtXtXtXtXtX",
"tXtXtXtXtXtXtXtXtXtXtXtXtXtXtXtXtXtXtXtXtXtXtXtXtXtXtXtXtXtXtXtXtXtXtXtXtXtXtXtXtXtXtXtXtXtXtXtXtXtXtXtXtXtXtXtXtXtXtXtXtXtXtXtXtXtXtXtXtXtXtXtXtXe.0.e.e.w.e.e.e.e.e.e.$.D 8 # +                                 X + + O O # # # % # % % & & & , , 1 1 2 6 e e e e e 6 e e e e e e e e e e e y e e e e e e e e e 6 6 6 6 6 6 1 1 1 1 , & & & % = x V $.w.f.e.e.e.e.e.e.e.e.q.tXtXtXtXtXtXtXtXtXtXtXtXtXtXtXtXtXtXtXtXtXtXtXtXtXtXtXtXtXtXtXtXtXtXtXtXtXtXtXtXtXtXtXtXtXtXtXtXtXtXtXtXtXtXtXtXtXtXtXtXtXtXtXtXtXtXtXtXtXtXtXtXtX",
"tXtXtXtXtXtXtXtXtXtXtXtXtXtXtXtXtXtXtXtXtXtXtXtXtXtXtXtXtXtXtXtXtXtXtXtXtXtXtXtXtXtXtXtXtXtXtXtXtXtXtXtXtXtXtXtXtXtXtXtXtXtXtXtXtXtXtXtXtXtXtX0.e.e.e.e.e.e.e.e.e.w.#.b 3 O X X +                               X + + O O O O # # & 1 8 v V ) $.9.d.l.V.B.C.C.A.H.J.A.C.V.c.h.j.8.O.] A Z p i i y y y e y e e e e e e 6 6 6 6 6 6 1 1 , , , & & % # # 3 b J w.e.e.e.e.e.e.e.e.e.7.tXtXtXtXtXtXtXtXtXtXtXtXtXtXtXtXtXtXtXtXtXtXtXtXtXtXtXtXtXtXtXtXtXtXtXtXtXtXtXtXtXtXtXtXtXtXtXtXtXtXtXtXtXtXtXtXtXtXtXtXtXtXtXtXtXtXtXtXtXtXtX",
"tXtXtXtXtXtXtXtXtXtXtXtXtXtXtXtXtXtXtXtXtXtXtXtXtXtXtXtXtXtXtXtXtXtXtXtXtXtXtXtXtXtXtXtXtXtXtXtXtXtXtXtXtXtXtXtXtXtXtXtXtXtXtXtXtXtXtXtXtX%.e.f.e.e.e.e.e.e.w.0.#.n % # O O O +   +                                 + O ; g F $.k.J.!._.].|.|.|.}.].'._._._.(.(.^.(._._.`.'.].}.}.|.}.}.'.^.T.B.j.%.( B i u e e e e e e 6 6 6 6 6 1 1 1 1 , , & % % # # # % g J $.e.e.e.e.e.e.e.e.e.7.tXtXtXtXtXtXtXtXtXtXtXtXtXtXtXtXtXtXtXtXtXtXtXtXtXtXtXtXtXtXtXtXtXtXtXtXtXtXtXtXtXtXtXtXtXtXtXtXtXtXtXtXtXtXtXtXtXtXtXtXtXtXtXtXtXtXtXtXtX",
"tXtXtXtXtXtXtXtXtXtXtXtXtXtXtXtXtXtXtXtXtXtXtXtXtXtXtXtXtXtXtXtXtXtXtXtXtXtXtXtXtXtXtXtXtXtXtXtXtXtXtXtXtXtXtXtXtXtXtXtXtXtXtXtXtXtXtXtXe.e.e.e.e.e.e.e.e.7.#.t % # # # # O O + +                             + 0 J e.C.{.].|.|.'.!.H.l.w.%.] H V B v i i f i t i f p C B Z Q / ] %.a.h.V.T.^.'.|.|.|._.Q.B.8./ B e e e e 6 e 6 6 6 6 1 1 1 , , & & & # # # O O ; G 2.e.e.e.e.e.e.e.e.f.0.tXtXtXtXtXtXtXtXtXtXtXtXtXtXtXtXtXtXtXtXtXtXtXtXtXtXtXtXtXtXtXtXtXtXtXtXtXtXtXtXtXtXtXtXtXtXtXtXtXtXtXtXtXtXtXtXtXtXtXtXtXtXtXtXtXtXtX",
"tXtXtXtXtXtXtXtXtXtXtXtXtXtXtXtXtXtXtXtXtXtXtXtXtXtXtXtXtXtXtXtXtXtXtXtXtXtXtXtXtXtXtXtXtXtXtXtXtXtXtXtXtXtXtXtXtXtXtXtXtXtXtXtXtXtXM.e.e.e.e.e.e.e.e.0._ 7 , & & % # # # # O O +                   + @ g K k.E.].|.'.E.V.0._ B 8 6 1 , , , , < 1 6 6 6 e e e e y y y y u u u i i i u i i p l Z ( &.g.C.!.].|.|._.I.d./ k e 6 6 6 6 6 2 1 1 , , & & & % % # O O O + % D 7.e.e.e.e.e.e.e.e.f.tXtXtXtXtXtXtXtXtXtXtXtXtXtXtXtXtXtXtXtXtXtXtXtXtXtXtXtXtXtXtXtXtXtXtXtXtXtXtXtXtXtXtXtXtXtXtXtXtXtXtXtXtXtXtXtXtXtXtXtXtXtXtXtXtXtX",
"tXtXtXtXtXtXtXtXtXtXtXtXtXtXtXtXtXtXtXtXtXtXtXtXtXtXtXtXtXtXtXtXtXtXtXtXtXtXtXtXtXtXtXtXtXtXtXtXtXtXtXtXtXtXtXtXtXtXtXtXtXtXtXtXe.e.e.e.e.e.e.e.e.w._ 7 3 , , , & & % % # # # O O + +         + > D r.E.}.=X{.J.7.D 8 ; # # # % % = , , 1 1 2 2 6 6 e 6 e y y y y y i i i p s p s s s a p p p i p i i p l A O.g.U._.}.|._.Z.7.Z e 6 < 6 < 3 , , , & & % % # # # O + + + O b 0.e.e.e.e.e.e.e.e.M.tXtXtXtXtXtXtXtXtXtXtXtXtXtXtXtXtXtXtXtXtXtXtXtXtXtXtXtXtXtXtXtXtXtXtXtXtXtXtXtXtXtXtXtXtXtXtXtXtXtXtXtXtXtXtXtXtXtXtXtXtXtXtXtX",
"tXtXtXtXtXtXtXtXtXtXtXtXtXtXtXtXtXtXtXtXtXtXtXtXtXtXtXtXtXtXtXtXtXtXtXtXtXtXtXtXtXtXtXtXtXtXtXtXtXtXtXtXtXtXtXtXtXtXtXtXtXtXtXe.e.e.e.e.e.e.d.w.] t 6 3 2 , , , & & % % # # # # O o o . o 4 K V.[.}.[.J.$.c ; + + + # # # % % % & & 1 1 1 2 6 6 6 e 6 e y y y y y i i p i p p p p a p p a p a a p p p p p s i i i C ' d.I._.=X].T.w.A e 2 1 < , , , & & % # % O # O O + X   # n 0.e.e.e.e.e.e.e.e.k.tXtXtXtXtXtXtXtXtXtXtXtXtXtXtXtXtXtXtXtXtXtXtXtXtXtXtXtXtXtXtXtXtXtXtXtXtXtXtXtXtXtXtXtXtXtXtXtXtXtXtXtXtXtXtXtXtXtXtXtXtXtX",
"tXtXtXtXtXtXtXtXtXtXtXtXtXtXtXtXtXtXtXtXtXtXtXtXtXtXtXtXtXtXtXtXtXtXtXtXtXtXtXtXtXtXtXtXtXtXtXtXtXtXtXtXtXtXtXtXtXtXtXtXtXk.e.e.e.e.e.e.e.e.#.z e 6 6 6 3 2 2 , , & & % % # # O o o 4 K J.'.=X~.M.D : .     + + O O O # # % % % & 1 1 1 1 2 6 6 6 e e e y y y u i s p p p p p p a a a a l p a a p a a a a s a i s i i y u Z [ B.{.|.}.T.9.S 6 < , , & & % % % # # O O + X     + * b e.e.e.e.e.e.e.e.f.tXtXtXtXtXtXtXtXtXtXtXtXtXtXtXtXtXtXtXtXtXtXtXtXtXtXtXtXtXtXtXtXtXtXtXtXtXtXtXtXtXtXtXtXtXtXtXtXtXtXtXtXtXtXtXtXtXtXtXtXtX",
"tXtXtXtXtXtXtXtXtXtXtXtXtXtXtXtXtXtXtXtXtXtXtXtXtXtXtXtXtXtXtXtXtXtXtXtXtXtXtXtXtXtXtXtXtXtXtXtXtXtXtXtXtXtXtXtXtXtXtXk.e.e.e.e.e.e.e.e.%.S z e e 6 6 6 < < 2 , 1 & & % # # # = L l._.=X~.e.b *           + + O O O # # % % % & , 1 1 1 2 6 6 e e e e y u u i i p i p p a a a a a l a l l l l l l l p l p p p p p p i i i y y e i ' l._.|.].C.$.t , & & % % % # # # + O + +         : J e.e.e.e.e.e.e.w.k.tXtXtXtXtXtXtXtXtXtXtXtXtXtXtXtXtXtXtXtXtXtXtXtXtXtXtXtXtXtXtXtXtXtXtXtXtXtXtXtXtXtXtXtXtXtXtXtXtXtXtXtXtXtXtXtXtXtXtX",
"tXtXtXtXtXtXtXtXtXtXtXtXtXtXtXtXtXtXtXtXtXtXtXtXtXtXtXtXtXtXtXtXtXtXtXtXtXtXtXtXtXtXtXtXtXtXtXtXtXtXtXtXtXtXtXtXtXtXw.e.e.e.e.e.e.e.0./ k u e y e e 6 6 6 6 2 , 1 & & & & g %.R.=X'.l.H - X             + + + O # # # # % % , , 1 1 1 1 2 6 6 6 e e y y u i i i p p p p p a a C l l l l l l l l l l l l l l a a p p p p i i u u e e e i ' B._.|.{.d.S , % % % % # O O O + +           + g $.e.e.e.e.e.e.e.w.tXtXtXtXtXtXtXtXtXtXtXtXtXtXtXtXtXtXtXtXtXtXtXtXtXtXtXtXtXtXtXtXtXtXtXtXtXtXtXtXtXtXtXtXtXtXtXtXtXtXtXtXtXtXtXtXtXtX",
"tXtXtXtXtXtXtXtXtXtXtXtXtXtXtXtXtXtXtXtXtXtXtXtXtXtXtXtXtXtXtXtXtXtXtXtXtXtXtXtXtXtXtXtXtXtXtXtXtXtXtXtXtXtXtXtXtXe.e.e.e.e.e.e.w.$.Z s i u u e e e e 6 6 6 2 2 2 & 1 D M._.|.E.<.0 o X X                   + O O # # % % % , , 1 1 1 2 6 6 6 e e e y y i i p p p p a a a a l T l l T T l T l T l l l l l l l a a a a s s i i u y e e e 6 e v %.T.|.].V.D 3 # % # O # O + X               * D 7.e.e.e.e.e.e.e.e.tXtXtXtXtXtXtXtXtXtXtXtXtXtXtXtXtXtXtXtXtXtXtXtXtXtXtXtXtXtXtXtXtXtXtXtXtXtXtXtXtXtXtXtXtXtXtXtXtXtXtXtXtXtXtXtX",
"tXtXtXtXtXtXtXtXtXtXtXtXtXtXtXtXtXtXtXtXtXtXtXtXtXtXtXtXtXtXtXtXtXtXtXtXtXtXtXtXtXtXtXtXtXtXtXtXtXtXtXtXtXtXtX0.e.e.e.e.e.e.e.7.' a p s i i u u y e e e 6 6 2 , 6 H C.].].V.F ; # O O o X .               + O O O # # % % & , , 1 1 2 2 6 e e e e y y i i s p p p a a a a T a T T T T T E T E T E T T T l l l l a a p a p s i i y y e e e 6 6 2 e D B.'.|.K.) 3 # # # O O X X           X   + d #.e.e.e.e.e.e.e.0.tXtXtXtXtXtXtXtXtXtXtXtXtXtXtXtXtXtXtXtXtXtXtXtXtXtXtXtXtXtXtXtXtXtXtXtXtXtXtXtXtXtXtXtXtXtXtXtXtXtXtXtXtXtXtX",
"tXtXtXtXtXtXtXtXtXtXtXtXtXtXtXtXtXtXtXtXtXtXtXtXtXtXtXtXtXtXtXtXtXtXtXtXtXtXtXtXtXtXtXtXtXtXtXtXtXtXtXtXtXtXe.e.e.e.e.e.e.w.%.W p p a s s s i u u y e 6 6 6 r ) H.|._.h.S = # # # O O o X .             + + + O # # # % % & , , 1 1 2 6 6 e e e y y i i s p p p a a a T T a E T T E E E E E E E E T E T T T l l a a p k p p i i u y y e e 6 6 6 < < < v e._.|.T.) ; # O O O +             X X X * H 7.e.e.e.e.e.e.e.tXtXtXtXtXtXtXtXtXtXtXtXtXtXtXtXtXtXtXtXtXtXtXtXtXtXtXtXtXtXtXtXtXtXtXtXtXtXtXtXtXtXtXtXtXtXtXtXtXtXtXtXtXtX",
"tXtXtXtXtXtXtXtXtXtXtXtXtXtXtXtXtXtXtXtXtXtXtXtXtXtXtXtXtXtXtXtXtXtXtXtXtXtXtXtXtXtXtXtXtXtXtXtXtXtXtXtXtXe.e.e.e.e.e.e.w.' l l l k a k p p i u u e e e y ] H.|._.f.v , & % % # % O # o X X             + + + # # # # % & , , , 1 1 6 6 6 e e e y y i i p p p p a a l a T T T E E E E E ! E ! E E E E E T T T l l a l p p p p s i u y e e e 6 6 2 3 < & & t 7.(.|.T.J % X O +             X X O # O 8 7.e.e.e.e.e.e.f.0.tXtXtXtXtXtXtXtXtXtXtXtXtXtXtXtXtXtXtXtXtXtXtXtXtXtXtXtXtXtXtXtXtXtXtXtXtXtXtXtXtXtXtXtXtXtXtXtXtXtXtXtX",
"tXtXtXtXtXtXtXtXtXtXtXtXtXtXtXtXtXtXtXtXtXtXtXtXtXtXtXtXtXtXtXtXtXtXtXtXtXtXtXtXtXtXtXtXtXtXtXtXtXtXtXe.f.e.e.e.e.e.e.8.W T T l a a a a p p i i f e e ' H.=X`.d.f 2 , , , & % % # # O O o o             X O O # # % % % & & 1 1 1 < 6 6 6 e e e y i i p p p a a l l T T T E E E E ! ! ~ ~ ~ ! ~ ! ! ! ! E R T T l l a a a p s i i s u y e e 6 6 2 2 1 1 1 & & 7 6.~.=XK.L O . .         X X . O O # # ; J w.e.e.e.e.e.e.e.tXtXtXtXtXtXtXtXtXtXtXtXtXtXtXtXtXtXtXtXtXtXtXtXtXtXtXtXtXtXtXtXtXtXtXtXtXtXtXtXtXtXtXtXtXtXtXtXtXtXtX",
"tXtXtXtXtXtXtXtXtXtXtXtXtXtXtXtXtXtXtXtXtXtXtXtXtXtXtXtXtXtXtXtXtXtXtXtXtXtXtXtXtXtXtXtXtXtXtXtXtXtXf.e.e.e.e.e.e.e.O.! T T T l T a a a p p p i u W c.=X].l.f 6 2 2 2 , , & % % # # # o o o X         X o O O O # % % & & 1 & 1 2 6 6 6 e e y y y i i p p a a l T l a E E E E ! ! ~ ~ ~ ~ ~ ~ ~ ~ ~ ! ! E E T T T l l l a a p s i i y y e e e 6 e 2 2 1 1 & & & % 3 6._.|.N.g +         X . + O O # % # & v w.e.e.e.e.e.e.k.tXtXtXtXtXtXtXtXtXtXtXtXtXtXtXtXtXtXtXtXtXtXtXtXtXtXtXtXtXtXtXtXtXtXtXtXtXtXtXtXtXtXtXtXtXtXtXtXtXtX",
"tXtXtXtXtXtXtXtXtXtXtXtXtXtXtXtXtXtXtXtXtXtXtXtXtXtXtXtXtXtXtXtXtXtXtXtXtXtXtXtXtXtXtXtXtXtXtXtXtXf.e.e.e.e.e.e.w.( R R ! R T T l l l a a p i a j.`.=Xc.Q 6 6 6 2 , 2 , , & % % # # # O O o .       X X o O # # # % % & & 1 , 1 2 2 6 e e e y y i i i p p a a l a T E E ! ! ! ! ~ ~ ~ ~ } ~ } ~ ~ ~ ~ ! ! ! E R T T l l a a a p p i u y y e e e 2 2 2 2 1 , & & % % # d e.'.'.q.-       X o + # # # # & & & 7 $.f.e.e.e.e.e.e.tXtXtXtXtXtXtXtXtXtXtXtXtXtXtXtXtXtXtXtXtXtXtXtXtXtXtXtXtXtXtXtXtXtXtXtXtXtXtXtXtXtXtXtXtXtXtXtXtX",
"tXtXtXtXtXtXtXtXtXtXtXtXtXtXtXtXtXtXtXtXtXtXtXtXtXtXtXtXtXtXtXtXtXtXtXtXtXtXtXtXtXtXtXtXtXtXtXtXe.e.e.e.e.e.e.%. .} ~ ~ ~ R T T T T l a p a <./.=XQ.' d e e 6 6 6 2 , , , & & % % # # O O o o X     X o o O O # # # % & & & 1 2 2 6 6 6 e e y y i i i p a a a l T l E E ! ! ~ ~ ~ } } } } } } } } ~ } ~ ~ ! ! E T T T l a a p p p i i u y e e 6 e 2 2 2 1 1 & & % % # O # x N.=X!.G +   o + O O O # # % & & , 7 J e.e.e.e.e.e.e.tXtXtXtXtXtXtXtXtXtXtXtXtXtXtXtXtXtXtXtXtXtXtXtXtXtXtXtXtXtXtXtXtXtXtXtXtXtXtXtXtXtXtXtXtXtXtXtX",
"tXtXtXtXtXtXtXtXtXtXtXtXtXtXtXtXtXtXtXtXtXtXtXtXtXtXtXtXtXtXtXtXtXtXtXtXtXtXtXtXtXtXtXtXtXtXtXe.e.e.e.e.e.e.O.| } ~ ~ ~ ~ ~ T T T l l a Q c.=X=Xa.f y e e e e 6 6 2 2 1 , & & % % # O O O o X         X o O # # % % % % & 1 1 1 2 6 6 e e y y y i i p a a a l l T E E ! ! ~ ~ } } } } | } } } } } } ~ ~ ~ ~ ! ! E T T l l a a p p i i u u y e e e 6 2 2 1 , , & & % % O # o % H E.=XM.5   + O O # # % % & & 1 , 6 V 0.e.e.e.e.e.e.e.tXtXtXtXtXtXtXtXtXtXtXtXtXtXtXtXtXtXtXtXtXtXtXtXtXtXtXtXtXtXtXtXtXtXtXtXtXtXtXtXtXtXtXtXtXtX",
"tXtXtXtXtXtXtXtXtXtXtXtXtXtXtXtXtXtXtXtXtXtXtXtXtXtXtXtXtXtXtXtXtXtXtXtXtXtXtXtXtXtXtXtXtXtXe.e.e.e.e.e.8.*...} } } } ~ ~ T ~ R T T T :.).=Xc.Q i i y y y e e 6 2 2 2 , , , & % % # # O O o X       X X O O O # # % % & & 1 2 2 2 6 6 e e e y i i p p p a a l T a E E ! ! ~ ~ ~ } } } | } | | | | } } } } ~ ! ! E E T T l a a a p p i u y y e 6 6 2 2 2 1 , , & % % O % O o X o - q.]._.J $ O O # # % % & & , 3 1 6 B 7.e.e.e.e.e.e.e.tXtXtXtXtXtXtXtXtXtXtXtXtXtXtXtXtXtXtXtXtXtXtXtXtXtXtXtXtXtXtXtXtXtXtXtXtXtXtXtXtXtXtXtXtX",
"tXtXtXtXtXtXtXtXtXtXtXtXtXtXtXtXtXtXtXtXtXtXtXtXtXtXtXtXtXtXtXtXtXtXtXtXtXtXtXtXtXtXtXtXe.e.e.e.e.e.e.8.+...| | | } } ~ ~ ~ ! T R ^ b.=X).a.a s p i i y e e 6 6 6 2 2 , , & & % % # # # O o X .     X X O O @ # % % & , & 1 1 2 2 6 e e y y y y i p p a a l l l E E E ! ~ ~ } } } | | | | | | | | | | } } ~ ~ ~ E E T l l a a a p i i i y y e e e 2 2 2 1 , , & % % % % % o O o X X c K.=XN.0 O # # % % & & , 1 2 < 6 z $.e.e.e.e.e.e.w.tXtXtXtXtXtXtXtXtXtXtXtXtXtXtXtXtXtXtXtXtXtXtXtXtXtXtXtXtXtXtXtXtXtXtXtXtXtXtXtXtXtXtXtX",
"tXtXtXtXtXtXtXtXtXtXtXtXtXtXtXtXtXtXtXtXtXtXtXtXtXtXtXtXtXtXtXtXtXtXtXtXtXtXtXtXtXtXtX0.e.e.e.e.e.e.8.+.......| | } } } ~ ~ ! ~ >.).=XZ.^ p a p p i i y y e e 6 6 2 2 1 , , & & % # # # O o X .     X X o O # # % % % & & 1 2 2 2 6 6 e r r i i i i p a a a T T E E E ! ~ } } } } | | | =.| =.| | | } } } ~ ~ ! ! E T T T l a a p p i i u y e e e 6 2 2 1 1 1 & % % % O % O O o X     $ q.].{.J % # % % & , , , < 3 6 6 i $.e.e.e.e.e.e.w.tXtXtXtXtXtXtXtXtXtXtXtXtXtXtXtXtXtXtXtXtXtXtXtXtXtXtXtXtXtXtXtXtXtXtXtXtXtXtXtXtXtXtX",
"tXtXtXtXtXtXtXtXtXtXtXtXtXtXtXtXtXtXtXtXtXtXtXtXtXtXtXtXtXtXtXtXtXtXtXtXtXtXtXtXtXtXw.e.e.e.e.e.e.:.=.=.=.........} } } ~ R } c.=X`.a.T l a p p s i i y y e e e 6 2 2 , 1 , & & $ # # # O O o X     X o + O O % % % % & 1 1 1 2 6 6 6 e e y i i i p p a a a l E T E E ~ ~ } } } | | | =.=...=.| ..| | | } ~ } ! E E E l E l a a p p i i u u e e e 2 2 2 2 1 1 & & % % # O O O o X .     . b R.=Xe.3 % % & & , 1 3 < 6 6 e y #.e.e.e.e.e.e.e.tXtXtXtXtXtXtXtXtXtXtXtXtXtXtXtXtXtXtXtXtXtXtXtXtXtXtXtXtXtXtXtXtXtXtXtXtXtXtXtXtXtX",
"tXtXtXtXtXtXtXtXtXtXtXtXtXtXtXtXtXtXtXtXtXtXtXtXtXtXtXtXtXtXtXtXtXtXtXtXtXtXtXtXtXe.e.e.e.e.e.e.&.=.=.=.=.=.=.....| } } } +.Y.|.W.@.l l l a a p p s i y y e 6 6 6 6 2 2 , , & & % # # # O O o X     X o O @ O # # % & & & 1 1 2 6 6 6 e e y y i p p a a a a l T T R ~ ~ ~ } } } | | ....=.=.=.=.X...| | } } ~ ~ ~ E E E l l a a p p p i u u e e e 6 6 2 2 1 1 & & % % # % O O o X     . X X 4 l.|.K.n & & & < 1 1 < 6 e e e y ] e.e.e.e.e.e.e.tXtXtXtXtXtXtXtXtXtXtXtXtXtXtXtXtXtXtXtXtXtXtXtXtXtXtXtXtXtXtXtXtXtXtXtXtXtXtXtXtX",
"tXtXtXtXtXtXtXtXtXtXtXtXtXtXtXtXtXtXtXtXtXtXtXtXtXtXtXtXtXtXtXtXtXtXtXtXtXtXtXtXk.e.e.e.e.e.e.&.X.=.=.=.=.=.=.....| } } >._.|.S.~ T T l l a p p p i i y y e e 6 6 2 2 , , , & & % # # o O o X X   X X + O # # # % % & & 1 1 1 2 6 6 e e e y i i i p p a a l T T E ! ! ~ ~ } } | | | =.=.=.=.=.=.X.| | } } } ~ ~ E E E l l l a a p p p i u u y e e e 2 2 1 1 , & & % % # O O O o X   . . . o o & $.'._._ = & , 1 < 6 6 e e e y u ) e.e.e.e.e.e.f.tXtXtXtXtXtXtXtXtXtXtXtXtXtXtXtXtXtXtXtXtXtXtXtXtXtXtXtXtXtXtXtXtXtXtXtXtXtXtXtX",
"tXtXtXtXtXtXtXtXtXtXtXtXtXtXtXtXtXtXtXtXtXtXtXtXtXtXtXtXtXtXtXtXtXtXtXtXtXtXtXe.e.e.e.e.e.e.&.o.X.X.=.=.=.=.=.....} o.x.|.].>.R E E T T l a a p p i i y y e e e 6 6 2 1 , & & & % # # # O o X X     X . O O O % % % & , , 1 2 2 6 6 e e e y y i i p p a l l l E T E ~ ~ ~ } } | | X.=.=.=.=.=.=.X...| | } } ~ ~ ~ E E E E l a a p p i i u y e e 6 2 2 2 1 1 1 & % % % # # O O o X   . X o o O # # b E.|.w.6 , 1 3 < 6 6 6 e e u i ) e.e.e.e.e.e.f.tXtXtXtXtXtXtXtXtXtXtXtXtXtXtXtXtXtXtXtXtXtXtXtXtXtXtXtXtXtXtXtXtXtXtXtXtXtXtX",
"tXtXtXtXtXtXtXtXtXtXtXtXtXtXtXtXtXtXtXtXtXtXtXtXtXtXtXtXtXtXtXtXtXtXtXtXtXtXf.e.e.e.e.e.e.*.| | X.X.=.=.=.=.=.....=.I.|.^.:.R R E E T l l a a p s i i y r e e 6 6 6 2 1 , , & & % # # # o o . X     X o O O # # # % & & , 1 < 2 2 6 6 e y y i i i p a a a l l T E ! ! ~ ~ } } } | | | =.=.=.=.=.X.| | | } } ~ ~ ~ E E E l l a a p p p u u y e e e 2 2 2 1 1 1 & % % % # # O O o X     . o O O O # % 8 C.=XV.t , < 3 < e 6 e y y u p / e.e.e.e.e.e.e.tXtXtXtXtXtXtXtXtXtXtXtXtXtXtXtXtXtXtXtXtXtXtXtXtXtXtXtXtXtXtXtXtXtXtXtXtXtX",
"tXtXtXtXtXtXtXtXtXtXtXtXtXtXtXtXtXtXtXtXtXtXtXtXtXtXtXtXtXtXtXtXtXtXtXtXtXtXe.e.e.e.e.e.*.} | | ....X.X.=.=...| -.Y.|.Y.o.R R R E T l l l a p p p i i y y e e 6 6 2 2 1 , , & & % % # O # o . X     X X O O # # % % & & , 1 1 2 6 6 e e e y y i i p p a l a T T T ! ! ~ ~ } } | | | X.=.=.=.=.=.| | | | } } ~ ~ E E E l E l a a p p i i u y e e e e 6 2 1 1 1 & , % % # # # O o X     . o o O # # # # 1 d.=XT.v < 3 6 6 e e y y u i p / e.e.e.e.e.e.e.tXtXtXtXtXtXtXtXtXtXtXtXtXtXtXtXtXtXtXtXtXtXtXtXtXtXtXtXtXtXtXtXtXtXtXtXtX",
"tXtXtXtXtXtXtXtXtXtXtXtXtXtXtXtXtXtXtXtXtXtXtXtXtXtXtXtXtXtXtXtXtXtXtXtXtXe.e.e.e.e.e.*.~ } } | } ....X.....| :.^.|.I.} ~ ~ R ~ E T T l l a p p p i i y y e e e 6 2 2 1 , , & & % % # # o o . X     X X O O O % % % & & , , 1 2 6 6 e e e y y i i p p a a l l T T E ! ~ ~ ~ } } | | =.| | =.| | | | | } } ~ ~ ~ E E E l l l a a p p p u u y e e 6 6 2 2 1 1 , & % % % # O O o o X       o O o O # # % % = %.].!.F < 6 e e e y y u i s k ' e.e.e.e.e.e.f.tXtXtXtXtXtXtXtXtXtXtXtXtXtXtXtXtXtXtXtXtXtXtXtXtXtXtXtXtXtXtXtXtXtXtXtX",
"tXtXtXtXtXtXtXtXtXtXtXtXtXtXtXtXtXtXtXtXtXtXtXtXtXtXtXtXtXtXtXtXtXtXtXtXe.e.e.e.e.e.%.^ ~ } } | ..........| >.`.|.x.} ~ } ~ ! R E T l l a a p p p i y y e e 6 6 6 2 2 , , , & & # # # O # . o .     X O O O O # # % & & , 1 1 2 2 6 6 e e y y i i p p a a l l T T T ! ! ~ ~ } } | | | | | | X.| | | | } } ~ ~ ~ E E T E l a a p p p i i u e e e e 6 2 1 1 1 1 & % % # # # # o X .     X o o O % # % % % & = _ '.[.) 6 6 6 e y u u i s s k ] e.e.e.e.e.e.tXtXtXtXtXtXtXtXtXtXtXtXtXtXtXtXtXtXtXtXtXtXtXtXtXtXtXtXtXtXtXtXtXtXtXtX",
"tXtXtXtXtXtXtXtXtXtXtXtXtXtXtXtXtXtXtXtXtXtXtXtXtXtXtXtXtXtXtXtXtXtXtXe.e.e.e.e.e.%.! ~ ~ ~ } } } } ......>.}.}.>...} ~ ~ R ~ T T T l l a a p p i i y y e e 6 6 6 2 1 1 1 & & % % # # # O o X       X o O O # # # % & & , , 1 2 2 6 e e e e y i i s p a a a a T T E E ! ~ ~ ~ } | } | | | | | | } } } ~ } ~ ~ E E T l l l a a a p p i i y y e e 6 2 2 2 2 1 , & & % % O # # o o       . X X O O O # # % & & , A _.'.$.e 6 e e y u i i p p p ] e.e.e.e.e.e.tXtXtXtXtXtXtXtXtXtXtXtXtXtXtXtXtXtXtXtXtXtXtXtXtXtXtXtXtXtXtXtXtXtXtX",
"tXtXtXtXtXtXtXtXtXtXtXtXtXtXtXtXtXtXtXtXtXtXtXtXtXtXtXtXtXtXtXtXtXtXe.e.e.e.e.e.8.^ ! ~ ~ } ~ } } } } } >.}.`.>.} } ~ } R ~ R T T T l a a a p p i i y y e e e 6 2 2 < 1 & & & % % % O O O X X X     X X O O O # # % % & , , 1 2 2 6 6 e e e y i i s p p a a l l T T E ! ! ~ ~ } ~ } } } | } | } } } } } ~ ~ ! ! E E E l l a a p p i i i y e e 6 e 6 2 2 1 1 , & & % # # o O o o .       X o O O # # % % & , , , S !.].6.e e e e y i s p p p l %.e.e.e.e.e.e.tXtXtXtXtXtXtXtXtXtXtXtXtXtXtXtXtXtXtXtXtXtXtXtXtXtXtXtXtXtXtXtXtXtX",
"tXtXtXtXtXtXtXtXtXtXtXtXtXtXtXtXtXtXtXtXtXtXtXtXtXtXtXtXtXtXtXtXtXe.e.e.e.e.e.8.W T ! ! ~ ~ ~ } } } } >.]._.>.} } R } R ~ ! R T T l l a a a p p i i y y e e e 6 2 2 < , 1 & & % # # # O o o X         o o O O O # % % & , , 1 1 2 6 6 e e e y y i i p p a a l l T T T E E ~ ~ ~ } } } } } | } } } } ~ ~ ~ ~ ! E E E E l l a a p p i i u y e e e 6 6 2 2 1 , & & % % # % # O o o .       X X o # # # # % & & & 1 1 v Q.}.&.e e y y i i s p p l C %.e.e.e.e.e.e.tXtXtXtXtXtXtXtXtXtXtXtXtXtXtXtXtXtXtXtXtXtXtXtXtXtXtXtXtXtXtXtXtX",
"tXtXtXtXtXtXtXtXtXtXtXtXtXtXtXtXtXtXtXtXtXtXtXtXtXtXtXtXtXtXtXtXe.e.e.e.e.e.8.W T T T R ! ~ ~ ~ ~ } >.}.`.>.R } R } R R T ! T T T l l a a p i i i i y r e e 6 6 2 2 1 1 & & % % # # O @ O o X         X o O # # # % % & & , 1 1 2 2 6 6 e e y y i i i p a a a a l T T E E E ! ~ ~ ~ ~ ~ ~ ~ ~ } ~ ~ ~ ~ ! E E R l E l l a a a p i i i y y e e 6 2 2 2 2 1 , & & % % # O # O o o         X X o O # # % % % & & 1 1 1 v Q.].8.e e y i i s p p p l C 7.e.e.e.e.e.e.tXtXtXtXtXtXtXtXtXtXtXtXtXtXtXtXtXtXtXtXtXtXtXtXtXtXtXtXtXtXtXtX",
"tXtXtXtXtXtXtXtXtXtXtXtXtXtXtXtXtXtXtXtXtXtXtXtXtXtXtXtXtXtXtXtXe.e.e.e.e.w.Q T T T T T ! ! ! ~ R >.}.`.:.R ~ ~ ~ ~ ~ R ! T T T T a a a p p s i i y y e e e 6 6 2 2 1 , & & & % % # # O O o           X X o O # # # % & & , 1 1 2 2 6 e e e e y y i i p p a a a a l T T T E ~ ! ~ ~ ~ ~ ~ ~ ~ ~ ~ ~ ~ ! E E T T C l a a a p p p i i i y y e e 6 6 2 2 1 1 & & & % % # % o O o o         X o o O O # # # & & & 1 1 2 1 B E.}.8.e y y i i i p p l l W 8.e.e.e.e.e.f.tXtXtXtXtXtXtXtXtXtXtXtXtXtXtXtXtXtXtXtXtXtXtXtXtXtXtXtXtXtXtX",
"tXtXtXtXtXtXtXtXtXtXtXtXtXtXtXtXtXtXtXtXtXtXtXtXtXtXtXtXtXtXtXe.e.e.e.e.e./ l l l T T T T R ! ! :.].`.:.R R ~ R ~ R T T T T T l l a a a p p s i i y y e e 6 6 6 2 1 1 , & & % % # O O O o X X         X o o O # # # % % & , , 1 1 2 6 6 e e e y y i i p p p a a l T a T T E R E ! ~ ! ~ ~ ~ ~ ~ ! ~ E E E R T T E a l a p p p p i i y y e e e 6 2 2 2 1 1 & & & % % # O O o o o         X o o O O # # # % & & 1 , 1 2 2 B E.].%.e y u i s p p p a l / w.e.e.e.e.e.tXtXtXtXtXtXtXtXtXtXtXtXtXtXtXtXtXtXtXtXtXtXtXtXtXtXtXtXtXtXtX",
"tXtXtXtXtXtXtXtXtXtXtXtXtXtXtXtXtXtXtXtXtXtXtXtXtXtXtXtXtXtXe.e.e.e.e.e.] a a a l l T T T T T *.`.'.:.R R R R R T R W T T T l l a a a p p s i i y y e e 6 6 6 2 2 1 , , & & % % # # O O O X           X o O O # # # # & & , , 1 1 2 6 6 6 e e r y y i s p p p a a l T T T T T E E E E ! ~ E E E E E E E T T T l E a a a p p p i i i y e e e 6 6 2 2 1 1 = & & % # # # O O o o .         . X o O O # # % % % & & 1 1 2 2 2 B !.].[ y u u i p p p p a l ) e.e.e.e.e.e.tXtXtXtXtXtXtXtXtXtXtXtXtXtXtXtXtXtXtXtXtXtXtXtXtXtXtXtXtXtX",
"tXtXtXtXtXtXtXtXtXtXtXtXtXtXtXtXtXtXtXtXtXtXtXtXtXtXtXtXtXe.e.e.e.e.f.$.k p a a l l l T T T  .).].:.T T R R R R T T T T l l l l a a p p p i i i y e e e e 6 2 2 1 1 , , & % % # # # O O o               o o O O # # % % % & , , 1 2 2 6 6 6 e e y y i i i p p a a a a l a T T T T E E E E E E E E E E T T T T l a a a a p p p i i y e e e e e 2 2 2 1 1 , & % % % # # # O o . X           X o o O # # # % % & 1 , 1 2 2 6 2 A (.'.) y u i i s p p a a l ] f.e.e.e.e.e.tXtXtXtXtXtXtXtXtXtXtXtXtXtXtXtXtXtXtXtXtXtXtXtXtXtXtXtXtX",
"tXtXtXtXtXtXtXtXtXtXtXtXtXtXtXtXtXtXtXtXtXtXtXtXtXtXtXtXtXe.e.e.e.e.%.C i p k p k l l l l ^ /.].>.T T T T T T T T T T l l l l p a p p p i i i y y e e e e 6 2 2 1 1 , & & % % # # O O o X X             X o O O # # % % % & & & 1 1 2 2 6 e e e e y y i i s p p a a a a T a E T T T E T E T E E T T T T a E a a a a p p p p u i y y e e e 6 6 2 2 2 1 1 & & & % # % O o o o X .           . . X X # # # % % & = , , 1 2 2 6 2 / _._.A e i i s p p p a a C %.e.e.e.e.e.e.tXtXtXtXtXtXtXtXtXtXtXtXtXtXtXtXtXtXtXtXtXtXtXtXtXtXtXtX",
"tXtXtXtXtXtXtXtXtXtXtXtXtXtXtXtXtXtXtXtXtXtXtXtXtXtXtXtXe.e.e.e.e.w.A i i k p p p a a a W I.|.g.l T T T T T T T T T l l l l l p p p p i i i y y e e 6 e 6 2 2 2 1 , , & % % # # # O O O X                 X O O @ # # % % & & 1 1 1 2 2 6 6 6 e e e y i i i i p a a a a a a a T a E E a T T l T T l l l E a a a a a p p i p i y y y e e e 6 6 2 2 1 1 & & & % % # O % O o X X .           . . X o o # # # % & & , , 1 1 2 6 6 6 ] ].Q.C y i i s i p p a l Q 0.e.e.e.e.e.tXtXtXtXtXtXtXtXtXtXtXtXtXtXtXtXtXtXtXtXtXtXtXtXtXtXtXtX",
"tXtXtXtXtXtXtXtXtXtXtXtXtXtXtXtXtXtXtXtXtXtXtXtXtXtXtXe.e.e.e.e.e.) u u i s s a p a a l B.|.c.T l l l T l l l l l l l l l l p p p p s i i y y y e e 6 6 2 2 2 1 , , & & & # # # # O O X                   o o O O # # # % & & & , 1 1 2 2 6 6 e e y y y i i i p p p a a a a a C a E a T l T l l T l l l a a a p p p p p i i y y y e e e e 2 2 2 1 1 1 & & & % # % O o o X X                   . o # # # # % % & & , 1 1 1 2 6 6 e 8.|.A.i y i i p i p a a p ( w.e.e.e.e.e.tXtXtXtXtXtXtXtXtXtXtXtXtXtXtXtXtXtXtXtXtXtXtXtXtXtXtX",
"tXtXtXtXtXtXtXtXtXtXtXtXtXtXtXtXtXtXtXtXtXtXtXtXtXtXe.e.e.e.e.e.$.u y u i i i s p p p j.|.I.C l l l l l l l l l l l k k p p p p p s i i y y r e e e e 6 2 2 1 1 , , & & % % # # O O o X X                 X o O O O # # % & & & , , 1 2 2 6 6 e e e r y y y i s i p s s a a a a a a a a l l l C a a l a a a a p p p p i i i y y e e e 6 6 6 2 1 1 1 1 & & % % # O % O O X .                     o o O # # # % % & , , 1 1 2 6 6 6 e h.|.l.u y i i p i p s a a #.e.e.e.e.e.e.tXtXtXtXtXtXtXtXtXtXtXtXtXtXtXtXtXtXtXtXtXtXtXtXtXtX",
"tXtXtXtXtXtXtXtXtXtXtXtXtXtXtXtXtXtXtXtXtXtXtXtXtXtXe.e.e.e.e.0.z e y y u u i i s s O.]./.W p k l l a a l a a a p l p k p p s p i i i y y e e e e 6 6 2 2 1 1 , & & & % % # # # @ O X X                   X X o O O # # # % % & , , 1 1 2 2 6 6 6 e e e y y i i i p p p p p p p a a a a a a a a a a a a p p p p p i i i y y y e e e e 2 6 2 1 1 1 & & & & % % # % o O o o o                     o # o # # # # & & & & 1 1 2 2 6 6 6 u C.|.&.e u u i i p p p a l 7.e.e.e.e.e.tXtXtXtXtXtXtXtXtXtXtXtXtXtXtXtXtXtXtXtXtXtXtXtXtXtX",
"tXtXtXtXtXtXtXtXtXtXtXtXtXtXtXtXtXtXtXtXtXtXtXtXtXe.e.e.e.e.e.S 6 e e e u u u i i / _._.( p p p p k a p k k p a p p p p s s s i i i y y e e e e 6 6 6 2 < 1 1 , & & & % # # O @ O o X                       X o O O O # # % % & & , , 1 1 2 6 6 6 e e e e y y y u u i p i p p p a p p p a a p p a a p p p p p p p u i y y y e e e 6 e 6 2 2 1 1 1 , & & % % # # # O o o X X                     o o o # # # # % & & & 1 1 1 1 2 6 6 6 B !.]./ y u u i i i p p i Z e.e.e.e.e.e.tXtXtXtXtXtXtXtXtXtXtXtXtXtXtXtXtXtXtXtXtXtXtXtXtX",
"tXtXtXtXtXtXtXtXtXtXtXtXtXtXtXtXtXtXtXtXtXtXtXtXtXe.e.e.e.f._ 6 6 e e e e y u u k A.|.&.i p p p p a p p p p p p p p p p p i i i i y y e e e 6 e 6 6 2 2 1 1 1 & & & % % # # # O o o                           X O O O # # # % % & & , 1 1 1 2 2 6 6 e e e e y r u u i s i p p p s p p p p p p p a s p p p i p u y i y y y e e e e e 2 2 2 2 1 1 & , & & % % # # O O o o .                       X o o # O # # % % & & & 1 1 1 2 2 6 6 6 / [.!.k e u u u i i i s p ) e.e.e.e.e.f.tXtXtXtXtXtXtXtXtXtXtXtXtXtXtXtXtXtXtXtXtXtXtXtX",
"tXtXtXtXtXtXtXtXtXtXtXtXtXtXtXtXtXtXtXtXtXtXtXtXe.e.e.e.e.7.t 6 6 6 e e e e y y d.=Xh.i i i p i i p s s p s p p s s i i u i u u y y e e e e e 6 6 2 2 2 1 1 , & & & % # # # O O X                             X X O O O # # % % & & & , 1 1 2 2 2 6 6 6 e e e r y y u u i i i i p p i p p p p p s s p u u p y u y y y y e e e e 2 6 2 2 2 1 1 1 & & & % # # o # O o o o .                       X X o o # # # # # % & & & 1 1 2 < 2 6 6 6 7.|.V.u e u u u i i i p k %.e.e.e.e.e.tXtXtXtXtXtXtXtXtXtXtXtXtXtXtXtXtXtXtXtXtXtXtXtX",
"tXtXtXtXtXtXtXtXtXtXtXtXtXtXtXtXtXtXtXtXtXtXtXe.e.e.e.e.e.S < 6 6 6 e e e e e ] ].T.p u u i i i i i i i s i i s i i i i u y y y e e e e 6 e 2 6 2 2 2 1 1 , & & & % % # # o O o o o                                     # # % % % & & & 1 1 1 2 2 2 2 6 e e e e e y y y i y i i i i s i i i s s s u u u u u f u u e r e e e 6 6 6 2 2 2 1 , , , & & % % # # # o                                   X o o O # # # # # & & & 1 1 1 1 2 2 2 2 y c.=X8.e e y y u i i i u Z 9.d.e.e.e.e.tXtXtXtXtXtXtXtXtXtXtXtXtXtXtXtXtXtXtXtXtXtXtX",
"tXtXtXtXtXtXtXtXtXtXtXtXtXtXtXtXtXtXtXtXtXtXtXe.e.e.e.e._ 3 1 1 2 2 2 6 e 6 B !._.A e e u u u u i i i i i i u i u i y y y y e e e e e e 6 6 2 2 2 2 , , , , & & % # # # # # O o o o                                     O O # # % % & & & 1 1 1 2 2 2 6 6 6 e e e e e y y y y i i y i i i i i i u u u y u y y e e e e e 6 e 6 6 2 2 2 1 1 , , & & % % # # # # #                                   X o o O O # # % % % % & , 1 & 1 1 2 2 2 2 f Q.`.A e e e y y y y y u ' e.e.e.e.e.tXtXtXtXtXtXtXtXtXtXtXtXtXtXtXtXtXtXtXtXtXtXtX",
"tXtXtXtXtXtXtXtXtXtXtXtXtXtXtXtXtXtXtXtXtXtXe.e.e.e.e.7.t , , 3 2 2 2 6 2 e c.=X%.e y e y y y y y u u u y y u u y y y e y e e e e e 6 6 6 2 2 2 2 , , , , & % % % # # # O o o o X                               . . . @ O # # # # % % & & & & 1 1 2 2 2 2 6 6 e e e e e e e y e y y y y u y u y u u y y y y e e e e e e 6 6 6 2 2 2 1 1 , , & & % % % # # o o O                                     X o O O o # # # % % % & & , 1 1 1 2 2 2 2 ) ].U.i e e e y e y y y f 7.e.e.e.e.e.tXtXtXtXtXtXtXtXtXtXtXtXtXtXtXtXtXtXtXtXtXtX",
"tXtXtXtXtXtXtXtXtXtXtXtXtXtXtXtXtXtXtXtXtXtXe.e.e.e.e.D & , , < 2 2 2 2 2 [ |.B.y e e e e e e e e y y e y y y y e y e e e e e e e 6 6 6 2 2 2 2 2 , , = & & % % # # # o # o o .                                         O O O # # % % % & & & 1 1 1 1 2 2 6 6 6 6 e e e e e e e y e y y r y r e u e y e y e e e e e 6 6 6 6 2 2 2 1 1 , , & & % % % # # O # # o                                       X o o O # O # # % % & & & , 1 1 1 2 2 6 6 w.=Xw.e e e e e e y e e A e.e.e.e.e.e.tXtXtXtXtXtXtXtXtXtXtXtXtXtXtXtXtXtXtXtXtX",
"tXtXtXtXtXtXtXtXtXtXtXtXtXtXtXtXtXtXtXtXtXe.e.e.e.e.$.= & & , , 1 1 1 1 f (.^.B 6 6 6 e e e e e e e e e e e e e e e e e e e 6 e 6 6 6 2 2 1 1 1 1 & & & & % % # % # # o o o X                                     . . . . @ O # # # % % & & & & 1 1 1 1 2 2 2 2 6 6 e 6 6 e e e e e e e e e e e e e e e e e 6 e 6 6 6 6 2 2 2 1 1 1 , , & & % % # # # # O o o o                                         . . O O O # # # % % & & & 1 , 1 1 1 2 2 y T.'.A 2 e e e e e e e e $.e.e.e.e.e.tXtXtXtXtXtXtXtXtXtXtXtXtXtXtXtXtXtXtXtXtX",
"tXtXtXtXtXtXtXtXtXtXtXtXtXtXtXtXtXtXtXtXe.e.e.e.e.e.x % % & & , , 1 1 2 l.}.[ 2 6 6 6 6 6 6 e e e e e e 7 e e e e e 6 6 6 6 6 6 6 2 2 1 2 1 1 1 1 & & & % % # # # O O # O o X                                       . . . . O O # # # # & % & & & 1 1 1 1 2 2 2 2 2 6 6 e 6 6 e e e e e e e e e e e e 6 e 6 6 6 6 6 2 6 2 1 1 1 , , , & & % % % # # # o # O o .                                         X o o O O O # # # % % & & , , , 1 1 1 2 1 F ].H.u 2 6 e 6 e 6 e e v 9.e.e.e.e.e.tXtXtXtXtXtXtXtXtXtXtXtXtXtXtXtXtXtXtXtX",
"tXtXtXtXtXtXtXtXtXtXtXtXtXtXtXtXtXtXtXtXe.e.e.e.e._ & % % & & & , , , ) }.B.2 2 6 6 6 6 6 6 6 6 6 6 e 6 6 e 6 e e 6 e 6 2 2 2 2 2 2 1 1 1 1 1 & & & & % % # # # # # o o o X                                             . + + @ O # # # # % & & & & & 1 1 1 1 2 2 2 6 2 6 6 6 6 e 6 6 6 6 e e 6 e 6 6 6 2 6 6 2 2 2 2 2 2 1 1 1 & & & & % % # # # # # o o o .                                             X . o O # # # # # % % % & & , 1 , 1 1 1 2 d.=X7.2 2 6 6 6 6 e 6 6 ) f.e.e.e.e.tXtXtXtXtXtXtXtXtXtXtXtXtXtXtXtXtXtXtXtX",
"tXtXtXtXtXtXtXtXtXtXtXtXtXtXtXtXtXtXtXf.e.e.e.e.w.5 O % % % & & & & 7 R._.v , 2 1 1 2 6 6 6 6 6 6 6 6 6 6 6 6 2 6 2 2 6 2 2 2 2 1 1 1 1 & 1 & & & & % % # # # O o o o o o X                                             . . + + O O # # # % % % & & & & 1 & 1 1 1 1 2 2 2 6 2 6 2 6 6 6 6 6 6 6 6 6 6 6 2 6 2 2 2 2 1 1 1 1 & & & & & & % % # # # O # o . . .                                               X o o o O # # # % # % & & & & , , 1 1 1 r R._.B 2 2 6 6 6 6 6 6 i 7.e.e.e.e.e.tXtXtXtXtXtXtXtXtXtXtXtXtXtXtXtXtXtXtX",
"tXtXtXtXtXtXtXtXtXtXtXtXtXtXtXtXtXtXtXe.e.e.e.e.D # # # # % % % & % 7.=X6.1 , 1 1 1 1 1 2 2 2 2 2 2 2 2 2 6 2 2 2 2 2 2 1 2 1 1 1 1 & 1 = , & & % % # # # # O #                                                                 O O O # # # # % % % & & & & 1 1 1 1 1 2 1 2 2 2 6 2 6 6 2 6 6 2 6 1 6 1 2 6 1 1 1 1 1 1 1 & & & & & % % # # # # . + + + . .                                                     o O O # # # # # % % % % % & , , 1 1 1 ) }.l.2 1 6 < 3 < 6 6 2 D e.e.e.e.e.tXtXtXtXtXtXtXtXtXtXtXtXtXtXtXtXtXtXtX",
"tXtXtXtXtXtXtXtXtXtXtXtXtXtXtXtXtXtXe.e.e.e.e.0.; O O # # # # % % d _.U.3 = , , 1 1 1 1 1 1 2 1 2 2 2 2 1 1 2 2 2 1 2 1 1 1 1 , 1 1 & & & & % % % % # # # # o O                                                                 + O O O # # # # % % % % & & & , , 1 1 1 1 1 2 1 1 2 1 2 1 1 2 1 6 1 6 1 1 1 1 , 1 1 & & & & & & % $ % # # # # o     + . . .                                                     o o o o o # # # # % % % % & & = & & 1 1 B.].H 1 3 < 6 1 1 2 1 e 7.e.e.e.e.e.tXtXtXtXtXtXtXtXtXtXtXtXtXtXtXtXtXtX",
"tXtXtXtXtXtXtXtXtXtXtXtXtXtXtXtXtXtXe.e.e.e.e.D O O O # # # # % & k.}.D % & & = & 1 1 1 1 1 1 1 1 1 1 1 1 1 1 1 1 1 1 1 , 1 , , 1 & & & & % % # # # # # # O o o                                                                 + o O O # O # # % % % % % & % & & & , , , , 1 , 1 1 1 1 1 1 1 1 , 1 1 1 1 , , , 1 & & & & & % % % # # # # # O o                                                                 X X . o O O O # % # # % % % & & & & = , v '.H.6 1 1 , < 1 1 1 < V e.e.e.e.e.tXtXtXtXtXtXtXtXtXtXtXtXtXtXtXtXtXtX",
"tXtXtXtXtXtXtXtXtXtXtXtXtXtXtXtXtXe.e.e.e.e.%.- + + O O O O # O b ].l.& % & & & & & , & , , , 1 , 1 1 1 1 1 1 1 = 1 & 1 , , & & % & % % % % # # # # O # O O o o                                                                 X X + O O O O O O O # % & 4 7 d d 7 7 1 , & & & & 1 , 1 1 1 1 1 , 1 , , , , , , & & & & & % % % % # # # O o # O                                                                   X X . o O o O o # # # # % % % % & & & & e.=X[ & , , , , 1 , , 6 2.e.e.e.e.e.tXtXtXtXtXtXtXtXtXtXtXtXtXtXtXtXtX",
"tXtXtXtXtXtXtXtXtXtXtXtXtXtXtXtXtXe.e.e.e.e.D   X X X O O O # % C.'.x # % % % % % & & & & , & , , & 1 , & 1 1 & , & & , & & % & % % % # % # # # # O # o o o o X                                                                     + + + X @ * d U i.OX%X&X&X3X<X>X&X%XOX X4.f 3 & & & & , & 1 , , , & & & & & % % % % % % # # # # O # o # . .                                                                     X X o o o O # # o # # # # % % % % % & 8 ~.Q.7 & , , & , , , & V e.e.e.e.e.tXtXtXtXtXtXtXtXtXtXtXtXtXtXtXtXtX",
"tXtXtXtXtXtXtXtXtXtXtXtXtXtXtXtXe.e.e.e.e.7.-     X X X X O + b }.e.% # # # % % % % % & & & & & & & & & & & & & & & & & & % % % % % % # # # # # # o o # o o X                                                                           # I i.%X3X8XeXeXeXeXwXeXeXeXeXeXeXeX9X5X&X X3.3 & & & & & & & & & & & % % % % % # # # # O # O O O o o .                                                                         o o o o o # # # o # # % % % % % % % $.=X$.% & & & & & & & 3 7.e.e.e.e.e.tXtXtXtXtXtXtXtXtXtXtXtXtXtXtXtX",
"tXtXtXtXtXtXtXtXtXtXtXtXtXtXtXtXe.e.e.e.e.D         X X + + # C._.0 o # O # # % % % % % % % % % & & % % % & % % % & % % % % % % # # # # # O O O o o o o X X                                                                         w 5.#X5XeXeX9X9X9X8X9X9X9X9X9X9X9X9X9X9X9XwXeXeX7X&Xi.f % # % % % & % % % % % # # # # # O # O O O o . X . X                                                                           X o o o o o # # # o % # # % % # % 3 E.!.7 % % & % & % & % V e.e.e.e.e.tXtXtXtXtXtXtXtXtXtXtXtXtXtXtXtX",
"tXtXtXtXtXtXtXtXtXtXtXtXtXtXtXtXe.e.e.e.0.;           X + + D |.9.o % o # % # # % % % % % % & & & % & & & % & & & % % % % % % # # % # # # # # O # o o o o X                                                                     > y.&XwXwX9X9X9X8X8X8X9X9X9X9X9X9X9X9X9X9X9X9X9XwXwXwXeXeX3X Xf % & % % % % % % % # % # # # # O # O O o o X X X                                                                           . o o o o # o o # # # # # % # % % % _ =X7.% & & & & & & % 3 7.e.e.e.e.e.tXtXtXtXtXtXtXtXtXtXtXtXtXtXtX",
"tXtXtXtXtXtXtXtXtXtXtXtXtXtXtXe.e.e.e.e.J +         X + O # A._.8 o % # # % % % % % & % & & & & & & & & & & & & & & & & & & % % % % % % # # # O # o O o o o o o                                                             . Y &XwXeXwX9X9X9X9XwXwXwXwX9X9X9X9X9X9X9X9X9X9X9X9X9X9X9X9XwXwXeX<Xi.7 % & & & & % % % % % % # # # # O O O O o o o X                                                                       . o o o O # o # # # # % % % % % % & % 6 E.!.7 & & & & & & & & F e.e.e.e.e.tXtXtXtXtXtXtXtXtXtXtXtXtXtXtX",
"tXtXtXtXtXtXtXtXtXtXtXtXtXtXtXe.e.e.e.e.7       + + X X X S |.q.O # % % % % % % & & & & , & , & 1 , , , 1 , 1 , , , & , & = & % % % % % % # % # # # # o o o o o                                                           q OX7XeXwXwX0X9X9X9X9XwXwXwXwX9X9X9X9X9X9X9X9XwX9X9X9X9X9X9X9X9X9XwXeXwX%XP , , & & & & & % % % % % # # # # # O O O o . X                                                                   o o o o # o # # # # # # % % % % & & & & , #.|.%., 1 & 1 & , , & 8 w.e.e.e.e.tXtXtXtXtXtXtXtXtXtXtXtXtXtXtX",
"tXtXtXtXtXtXtXtXtXtXtXtXtXtXe.e.e.e.e.$.+     + + + O # # V.[.0 # % % % % % & & & & 1 & , , , 1 1 1 1 1 1 1 1 1 , 1 , , , , = & & % & % % % % # # # o # # o o o .                                                       U >X9X9XwXwX9X9X9X9X9X9XwXwXwXwX9X9X9X9XwX9X9X9X9X9XwX9XwX9XwX9XwXwXwXwXwXeX4Xu.2 & & , & & & & & % % % % # # O O O O o o o o X                                                           X o o o o O o # # # # # % % % & & & & = , , , t E.E.8 1 1 < 1 3 < , 1 #.e.e.e.e.e.tXtXtXtXtXtXtXtXtXtXtXtXtXtX",
"tXtXtXtXtXtXtXtXtXtXtXtXtXtXe.e.e.e.e.c   X + + + O O O n |.f.# % % % % % & & 1 = 1 1 1 1 1 1 2 1 1 1 1 1 1 2 2 1 1 1 1 1 , 1 1 , , & & % % % % % # # # # # o o .                                                   @ Y 7X9X9X9XwXwX9X9X9X9X9X9XwXwXwX0X9X9X9X9XwX9X9X9XwX9XwX9X9XwX9XwXwXwXwXwX9X9XeX9X.Xr , , 1 , , & & & % % % % # % # # # O o o o X                                                         o o o o O # # # # # % % % % & & & & , , , , , 1 , 7.|.[ , 1 1 1 < , < , v e.e.e.e.e.tXtXtXtXtXtXtXtXtXtXtXtXtXtX",
"tXtXtXtXtXtXtXtXtXtXtXtXtXtXe.e.e.e.$.* + + + + O O # # f.].n % % & & & 1 & = 1 1 1 2 2 1 2 2 2 1 2 2 2 2 2 2 2 2 2 2 1 1 1 1 1 1 & , & & & & % % % # # # o # o + + o . .                                         @  X7X9X9X9X9XwXwXwXwX9X9X9X9XwXwXwXwX9X9X9X9XwX9XwXwXwXwX9X9XwX9X9X9XwXwXwXwX9X9X9X9X9X@Xd 1 1 1 1 & & & & & % % % # # # # O O O O o                                                         o o o o # o # # # # % % & & & 1 1 = 1 1 1 1 1 1 < t _.T.7 < 2 < 3 6 < 1 7 $.d.e.e.e.e.tXtXtXtXtXtXtXtXtXtXtXtXtX",
"tXtXtXtXtXtXtXtXtXtXtXtXtXe.e.e.e.e.D + + + O O O # O 8 [.V.& % % & & 1 & 1 1 1 1 1 2 2 2 2 2 2 2 2 2 2 6 2 2 2 2 2 2 2 2 2 1 1 1 1 1 1 , & & & % % % % # # O # O + o o .                                       @  X9X9X9X9X9X9XwXwXwXwX9X9X9X9XwXwXwX9X9X9X9X9XwXwX9X9XwX9X9X9X9X9X9X9XwXwX9XwX9X9X9X9X9XeX%Xd , 1 1 & 1 1 & & & & & % % # # O # O O o X .                                                     o o # O # # # # % % & & & & & , 1 1 1 1 1 2 2 2 2 2 h.}.F < 6 6 6 < 3 6 6 D e.e.e.e.e.tXtXtXtXtXtXtXtXtXtXtXtXtX",
"tXtXtXtXtXtXtXtXtXtXtXtXtXe.e.e.e.e.5 + + + O O # # # 2.|.F % & & 1 1 1 1 1 1 2 2 2 2 2 2 6 6 6 e 2 e 2 2 6 6 2 6 2 2 2 2 2 2 2 2 1 1 1 , , , , & % % % # # % o # + O o . .                                   @  X9X9X9X9X9X9X9XwXwXwXwX9X9X9X9X9X9X9X9X9X9X9X9X9X9XwX9X9X9X9X9X9X9X9X9X9X9X9X9X9X9X9X9X9X9X9X#Xf 1 1 1 1 1 & & & & & & % % # # # O O o o o .                                                   o # # O # # % % % & & & & , 1 1 1 1 1 2 2 6 2 2 2 2 A ].B.6 6 6 6 6 6 6 6 i w.e.e.e.e.tXtXtXtXtXtXtXtXtXtXtXtXtX",
"tXtXtXtXtXtXtXtXtXtXtXtXe.e.e.e.e.$.@ + + + O # # # 3 E.E.3 & & & & 1 1 1 1 2 2 2 2 2 6 2 6 e 6 6 6 e e e 6 e e e 6 e 6 6 6 6 2 2 1 1 1 1 1 , , = % % % % % # # O # O o o .                                 . i.7X9X9X9X9X9X9X9XwXwXwXwX9X9X9X9X9X9X9X9X9X9X9X0X9XwX9X9X9X9X9X9X9X9X9X9X9X9X9X9X9X9X9X9X9X9X9X9XXXe 2 2 2 1 1 1 & & & & % % % # # # # O O o .                                                   o O O # # # % % & & & & 1 1 1 1 1 2 2 2 6 6 6 6 6 e e C.'.B 6 e e 6 e 6 6 e #.e.e.e.e.e.tXtXtXtXtXtXtXtXtXtXtXtX",
"tXtXtXtXtXtXtXtXtXtXtXtXe.e.e.e.e.b X o O O O # # # H |.7.% , , 1 1 1 2 2 2 2 6 6 2 6 2 6 e 6 e e e e e e e e e e 6 e 6 6 6 6 6 2 2 2 2 2 1 1 1 , & & & % % % # % o o # o o . .                             U 5XeX9X9X9X9X9X9X9XwXwXwXwXwXwXwXwX9X9X9X9X9X9X9X9X8X8X8X8X9X9X9X9X9X9X9X9X9X9X9X9X9X9X9X9X9X9X9X9X9Xb.6 2 2 2 , 2 2 , , , & % % % # # O O O o o o                                         . o o O # O # # # % & & & , , , 1 1 2 2 2 2 2 6 6 6 6 e e e e ] |.8.e e e e e e e 6 F e.e.e.e.e.tXtXtXtXtXtXtXtXtXtXtXtX",
"tXtXtXtXtXtXtXtXtXtXtXtXe.e.e.e.q.3 X O O O # % # % M.'.x & , , 1 1 1 2 2 2 2 6 6 e e e e e e e e e e e e e e e e e e e e e e 6 e 6 2 2 2 2 1 1 , , , & & % % % # % # o o o o .                           w >XeX8X9X9X9X9X9X9X9XwXwXwXwXwXwXwXwX9X9X9X9X9X9X9X9XwX8XwX8X9X9X9X9X9X9X9X9X9X9X9X9X9X9X9X9X9X9X9X9XeX5X3.6 6 2 2 2 , , , , & & & % % % % O # O O o X X                                     o o O O # # # % % % & & 1 = , , 2 2 2 2 2 e 2 e e 6 e e e e e k ^.R.i e y e e e e e t 7.e.e.e.e.tXtXtXtXtXtXtXtXtXtXtXtX",
"tXtXtXtXtXtXtXtXtXtXtXe.e.e.e.f.#.O O O # # # % % t _.V.1 , , < 1 2 2 2 6 6 6 e e e e e e y y y y y y y y y y y y e y y y e e 6 6 2 e 2 2 2 2 1 1 1 1 & & & % % % # # o # o o o                         . OXeX9X8X8X9X9X9X9X9X9XwXwXwXwXwXwXwXwX9X9X9X9X9X9X9X9XwX8X8XwX9X8X9X9X9X9X9X9X9X9X9X9X9X9X9X9X9X9X9X9X9XeX&Xf 2 6 2 2 2 2 , , , & & & % % # # # O O o . X .                                   o O O O % # % % % & & , , , 2 2 2 2 2 e 2 2 e e e e e y e e y e h.}.) y y e y e e e e ] f.e.e.e.e.tXtXtXtXtXtXtXtXtXtXtX",
"tXtXtXtXtXtXtXtXtXtXtXe.e.e.e.e.b + O O O # # % # #.|._ , , 1 1 2 2 6 2 e 6 e e e e y e y y y y y u y u y u u y y y y y y e e e e e 6 e e 2 2 2 1 1 1 1 , & & % % % % # # o O o                         Y 7X9X9X8X8X9X9X9X9X9X9XwXwXwXwXwXwXwXwX9X9X9X9X9X9X9X9X8XwXwX9X9X9X9XwX9X9X9X9X9X9X9X9X9X9X9X9X9X9X9X9X9X9XwXP.6 6 2 < 2 2 2 , , , , & % % # # # # O O o X                                     o O # # # # # # & & , , 1 1 1 2 2 2 2 2 e e e e e e y y y y y y ( }.l.y u u u u y y y A e.e.e.e.e.tXtXtXtXtXtXtXtXtXtXtX",
"tXtXtXtXtXtXtXtXtXtXtXe.e.e.e.w.4 O O # # # % % 1 J.{.t , 1 1 2 2 6 6 6 6 e e y y y y y y y i y i u i y i u u i i y u y y y y y e e e e e 2 e 2 2 2 2 1 1 & & & % # # % O O O o                       - &XeX9X9X9X9X9X9X9XwX9X9XwX9X9X9XwXwX9XwX9X9XwX9XwXwX9X9XwXwXwX9X9XwX9X9X9X9XwX9X9X9XwXwX9X9X9X9X9X9X9X9X9X9X9X3X{ e e < 6 2 , 2 , , , , & % % # # O O O o . . X                           . o o O O # # % % % & & & , 1 1 2 2 2 e 2 2 e e e e e y y y y y i i i p Q.^.C i i u i u u u p 7.e.e.e.e.tXtXtXtXtXtXtXtXtXtXtX",
"tXtXtXtXtXtXtXtXtXtXe.e.e.e.e.#.O O O # # # % % x '.l.1 < 1 2 2 2 6 e e e e e y y y y y i i i p i i p p s p p s i i i i y y y y e e e e e 2 e 2 2 2 2 1 1 1 & & # % % % # # O O                       y.eX9X9X9X9X9X9X9X9X9XwXwXwX9XwX9XwXwXwXwXwX9XwXwXwXwX0X9XwXwXwXwXwXwXwXwXwXwXwXwX9XwXwX9X9X9X9X9X9X9X9X9X9X9XeXeX.X6 2 e 6 6 2 2 2 , , , & & % % % # # # # o o .                           . o o O # # # # % & & , , , 1 2 2 2 2 e e e e e e y y y u i i i i i i i d.=XO.i i i i i i u i $.e.e.e.e.e.tXtXtXtXtXtXtXtXtXtX",
"tXtXtXtXtXtXtXtXtXtXe.e.e.e.e.b O O # # # % % % 1.|.) 1 1 2 2 6 6 e 6 e e y y y u y u i u i i p p p p p p p p i p i s i i i i y y y y e e 2 2 e 6 2 2 1 1 , , & & % % # # # # +                     > :XeXwX9X9X9X9X9X9X9X9X9X9XwXwX9X9X9X9XwXwX9XwXwXwXwXwX9X9XwXwXwXwXwX9XwXwXwXwX9XwXwXwXwXwX9X9X9X9X9X9X9X9X9X9X9XeX4X,.6 6 6 6 6 2 2 , , , & & & % % # # O O o                             . o + O # # # # # % & , , , 1 1 2 2 2 2 2 e e e y y y u u i i i s p s p s / ].B.p p p i p i i i / e.e.e.e.e.tXtXtXtXtXtXtXtXtXtX",
"tXtXtXtXtXtXtXtXtXtXe.e.e.e.e.8 O O # # % % % 1 C._.t 1 2 2 6 6 6 e e e y y y u i i i p p p p p p p p p p p p p p p p p i p i i u y y y e e e e 6 2 2 2 1 1 1 = & % % % # # O o .                   5.wXwXwX9X9X9X9X9X9X9X9X9X9X9X9X9X9X9X9X9X9X9X9X9X9XwXwX9X9X8XwX8X8X9X9X9X9X9X9X9X9X9X9X9X9X9X9X9X9X9X9X9X9X9X9X9X9X8X.Xy e e 6 6 6 2 2 2 2 , & & & % # # # O .                             . + O # O # # # % % = , , 1 2 2 2 2 e e e e e y y y u u s s p i p p p s a C Q.^.C p p p p p p s B w.e.e.e.e.tXtXtXtXtXtXtXtXtXtX",
"tXtXtXtXtXtXtXtXtXtXe.e.e.e.7.* O # # % % % & d '.B.3 < 2 6 6 6 e e e y u u u i i p s p p p a p a a a a a a a a a p p p p p s i s u u y y e e e 2 6 2 2 2 1 1 1 , & & % % # # o o o o .           + %XwX9X9X9X9X9X9X9X9X9X9X9X9X9X9X9X9X9X9X9X9X9X9X9X9X9X9X9X9X8X8X8X8X8X8X8X8X8X8X8X8X8X8X8X8X8X8X8X8X8X8X8X8X8X8X8X8XwX<Xa r e e < 2 2 2 2 , , , , & % % # # # o o o o X                     + O O O # # # # & & & & 1 1 1 2 6 6 e e e e e u u i i i i p p s p p a p a a g.}.O.p a p a p p p p 6.e.e.e.e.e.tXtXtXtXtXtXtXtXtX",
"tXtXtXtXtXtXtXtXtXe.e.e.e.f.J # O # # % % % & _ |.[ < 2 6 6 6 e e e e y u i i i s p s a p p a l a a a a a a a a a a a a p p p p p u i u y y y e e e e 2 2 2 1 1 , & & % % % % O # o o .           j 5XwX9X9X9X9X9X9X9X9X9X9X9X9X9X9X9X9X9X9X9X9X9X0X9X9X9X9X9X9X8X8XwX8X8X8X8X8X8X8X8X8XwX8X8X8X8X8X8XwX8X8X8X8XwX8X8X8XwX8Xz.r e e e 2 6 2 2 2 , , , & & % # # # # O . o .                   . + O O O # # & & & & 1 1 1 1 6 6 6 6 e e e e u u i i s i p s a a a p a a a a O.}.g.a a a a a p a p ] e.e.e.e.e.tXtXtXtXtXtXtXtXtX",
"tXtXtXtXtXtXtXtXtXe.e.e.e.e.n + # # % % & & & l.'.v , 6 6 6 e e e e y i i i p p p p k a l p l l a T a a a a l a a a a a a p p p p i i i u y y e e e 2 6 2 2 1 1 1 & & & % # # # # o o o           i.eX9X9X9X9X9X9X9X9X9X9X9X9X9X9X9X9X9X9X9X9X9X9X9X9X9X9X9X9X9XwX8X8X8X8XwXwX8X8XwXwX8X8X8XwX8X8X8X8X8X8XwXwX8X8X8XwX8XwXeXoXi y e e 2 6 2 2 2 , 2 , & & % % # # o # # . X                   . O O # # # # # & & & 1 1 1 6 6 6 6 e e e u u i i i s s a a p a a l a l l l a W ).Q.E l a a a a a a Q e.e.e.e.e.tXtXtXtXtXtXtXtXtX",
"tXtXtXtXtXtXtXtXtXe.e.e.e.0.7 O # # % % & & 7 !.K.6 1 6 6 e e e y y y i i i p p p p a l l l l l a T T T T l T l T T a a a a a p p p i p i y y y e e e 2 6 2 2 1 1 , & & % % % O O # O o         @ %XeX9X9X9X9X9X9X9X9X9X9X9X9X9X9X9X9X9X9X9X9X9X9X9X9X9X9X9X9X9X8XwXwX8XwX8X8XwX8XwX8X8XwX8X8XwXwXwX8XwX8XwX8X8XwX8X8XwXwXeX3Xa y e e e e e 2 2 2 , , , & & % # # # o o o X .                   O O # # # # & & & 1 1 1 1 6 6 6 6 e e e u u i i i p p p a k k l l l C a T l E Z.}. .l a a l a a a Z w.e.e.e.e.tXtXtXtXtXtXtXtXtX",
"tXtXtXtXtXtXtXtXtXe.e.e.e.2.& O # # % % & & V }.w.< 2 6 e e e e y u i i s p p p a a a l l l T T T T T T T T T T T l a l a l a a p p p p u u u y e e e e 6 2 2 2 1 , , & % % % O % o o o o .     w 3XeX9X9X9X9X9X9X9X9X9X9X9X9X9X9X0X9X9X9X9X9X9X9X9X9X9X9X9X9X9XwX8X8XwX8X8XwXwXwX8XwXwX8XwXwX8XwX8X8XwXwX8X8XwXwXwXwXwXwXwX7X3.y y e e e 6 6 6 2 2 2 , & & % % # # # O o o . X           X o o O O # # # & & & & & 1 1 2 6 6 6 e e e u u u i i p p a a l l l l T a T C T T a a.=Xa.l T l l l l a l 7.e.e.e.e.e.tXtXtXtXtXtXtXtX",
"tXtXtXtXtXtXtXtXe.e.e.e.e.J # # # % % % , & 6.|./ 2 6 6 6 e e y y i i i p p p p a l l l l C T T T T T E T E T T T E T T T l l a a p p s p u u y y e e 6 e 2 2 2 1 1 , & & % % # # # # o o .     P 9X9X9X9X9X9X9X9X9X9X9X9X9X9X9X9X9X9X9X9X9X9X9X9X9X9X9X0X9X9X9XwXwXwX8XwXwXwX8XwX8XwX8XwX8XwXwXwXwXwX8XwXwXwXwXwXwXwXwXwXwXeXb.y y y e e 6 6 6 2 , , , , & & % # # # O O o X             X o o O # # # % # & & 1 1 1 2 6 6 6 e e e y u i i s p a p a a l l l l T T T E E E E  .].S.T T T T T l l a ] e.e.e.e.e.tXtXtXtXtXtXtXtX",
"tXtXtXtXtXtXtXtXe.e.e.e.e.b O # # % & & & 1 C._.t 2 6 6 e e e y y i s p p p l l a l T l T T T T E E E ! ! ! E T E E T l T l a a a a a s p u u u y y e e e 6 2 2 2 1 , , & % % % # # o o o . X   i.eX9X9X9X9X9X9X9X9X9X9X9X9X9X9X9X9X9X9X9X9X9X9X9X9X9X9X9X9X9XwXwXwXwXwXwXwXwXwXwXwXwXwXwXwXwXwXwXwXwXwXwXwXwX8XwXwXwXwXwXwXeX@Xi i y e e 6 6 6 2 2 2 , , & & % % # # O O o X             X o O O # # # % & & & 1 1 1 6 6 6 e e e e u u i i s p a a a k l l T T T T E E E E ! ~ /.^.~ T R T T l l l ( e.e.e.e.e.tXtXtXtXtXtXtXtX",
"tXtXtXtXtXtXtXtXe.e.e.e.e.8 O # % % & & , 7 !.H.7 6 e e e e y y i i s p p p p l l T T T T T E ! ! ! ! ! ! ! ! ! E E E T E l E a C a a a p p p u y y e e e e 6 2 1 1 1 , & & % % # O # o o . X    XeX9X9X9X9X9X9X9X9X9X9X9X9X9X9X9X9X9X9X9X9X9X9X9X9X9X9X9X9X9XwXwXwXwXwXwXwXwXwXwXwXwXwXwXwXwXwXwXwXwXwXwXwXwXwXwXwXwXwXwXeXeX&Xf i y y e e e 6 6 2 , 2 , , & % % # # # O o . X           X o O O O # % % & & & 1 1 1 6 6 6 6 e e y u u i p p s a a l l T T T T E ! ! ! ! ! ! ! I.].+.R T R T T l l W w.e.e.e.e.tXtXtXtXtXtXtXtX",
"tXtXtXtXtXtXtXtXe.e.e.e.0.; # % % % % & , B }.d.2 2 6 e e e u u i i p p a a l l l T T E E E ! ! ! ~ ~ ! ~ ~ ~ ! ! ! ! E T T T T E a a p p p p u u y y e 6 6 6 2 2 1 , , , & % % % # # O o . . + #XeXwXwXwXwXwXwX9X9X9X9X9X9X9X9X9X9X9X9X9X9X9X0X9X9X9X9X9X9X0X9X8XwXwX8XwX8XwXwX8XwXwX8XwXwX8XwX9X9X9X9X9X9X9X9XwXwXwXwXwXwXeX<XZ i y y e e e 6 2 2 2 1 1 , & % % # # O O O o o X         . o O # # # % % & & , 1 1 6 6 6 6 e e u u i i p p p p l l l l T T T ! E ! ! ! ~ ~ ~ ~ s.=Xs.E R R R T T T T 8.e.e.e.e.tXtXtXtXtXtXtXtX",
"tXtXtXtXtXtXtXtXe.e.e.e.#.$ # # % % & , , #.=X_ 2 2 e e y y u i s s p a a a l l T T T E ! ! ! ~ ~ ~ ~ } } ~ ~ ~ ~ ! ! ! E T T T a a a a p p i p u u y e e e 6 6 2 2 1 , , & % % # # O O o . . $ &XeX9X9X9X9X9X9X9X9X9X9X9X9X9X9X9X9X9X9X9X9X9X9X9X9X9X9X9X9X9X9X8X8X8X8XwX8X8X8X8X8X8X8X8X8X8X8X9X9X9X9X9X9X9X9XwXwXwXwXwXwXeX3X/ u y y y e e 6 e 2 2 1 , 1 & & % % # # O O o o         X o O O O # # % % % , , 1 2 1 6 6 e e e e u i i i p a l l l l l T T T ! ! ~ ~ ~ ~ ~ ~ ~ ;.}.c.! ~ R R R T T l %.f.e.e.e.e.tXtXtXtXtXtXtX",
"tXtXtXtXtXtXtXe.e.e.e.e.H O # # % % & , , d.].v 2 e e e e y u i i p s p a a l T T T E ! ! ! ~ } ~ } } } } ~ } ~ } ~ ~ ! ! E T T E a a a a p p u i u y y e e e 2 2 2 1 1 , & & % % O # O O o . - ,X9XwX9XwX9X9XwX9X9X9X9X9X9X9X9X9X9X9X9X9X9X9X9X9X9X9X9X9X9X9X9X8X8X8X8X8X8X8X8X8X8X8X8X8X8X8X8X9X9X9X9X9X9X9X9XwXwXwXwX9X9X9X5X[ u u y y e e 6 2 2 2 1 1 , & & % % # # O O o .         X o o # # # % % & & , , 1 1 2 6 6 6 e e u u i i p s a a l l T T T T ! ! ! ~ } ~ ~ } } } o.`.W.} ~ ~ ~ R T T T ] e.e.e.e.e.tXtXtXtXtXtXtX",
"tXtXtXtXtXtXtXe.e.e.e.e.n O # % % & & , 1 T.!.y 2 e 7 e y y i i p p a a a l l T T E E ! ~ ~ ~ } ~ } } } } } } } } ~ ~ ~ ! ! E T E E E a a p p p i i u y e e e 6 2 2 2 , , & & % % % # O O o X : >X9X9XwX9XwXwX9X9X9X9X9X9X9X9X9X9X9X9X9X9X9X9X9X9X9X9X9X9X9X9X9X8X8XwX8X8X8XwX8XwX8X8XwXwX8X8X8X9X9X9X9X9X9X9X9XwXwXwXwX9X9X9X6X,.s i u y e e 6 e 6 2 1 1 , , & % % # # # O O o X       X o O O O # % % & & , 1 1 1 6 6 e e e y u u i p p a a k l T T T R R ~ ~ ~ ~ } } } } } } | W.`.o.~ ~ ~ R ~ ! T ( e.e.e.e.e.tXtXtXtXtXtXtX",
"tXtXtXtXtXtXtXe.e.e.e.e.0 O # % % & & & 8 _.Z.6 2 2 e e y y u i p p p l a l T T T ! ! ~ ~ } ~ } } } | | | } | } } } ~ ~ ~ ! E E a a E a a a p p i u y y e e 6 6 2 2 2 1 , & & % # # O # O o o : >XeX9X9X9X9X9XwX9X9X9X9X9X9X9X9X9X9X9X9X9X9X9X9X9X9X9X9X9X9X9X9XwX8X8X8XwX8X8X8X8XwX8XwX8XwX8XwX9X9X9X9X9X9X9X9X9X9X9X9X9X9X9X6X,.u s u y e e e 6 2 2 2 1 1 & & & % # # O O O o       . X o O O % # # % & & , 1 2 6 6 6 e e e y u i i p p p a l l T T T R R ~ ~ } } } } | } | | } I.|.;.| } ~ ~ R ~ T ^ w.f.e.e.e.tXtXtXtXtXtXtX",
"tXtXtXtXtXtXtXe.e.e.e.0.7 O % # % & , , B ].d.2 e e e e y u i i i p p l l l T T E ! ! ~ } ~ } } | | | | | | | | } } } ~ ~ ~ ! E E E E a a a p p p i u y y e e 6 6 2 2 1 , , & % % # # O O o X > >X9X9X9X9X9XwX9X9X9X9X9X9X9X9X9X0X9X9X9X9X9X9X9X9X9X9X9X9X9X9X9XwXwXwX8X8XwXwX8XwX8XwX8XwX8XwX8X9X9X9X9X9X9X9X9X9X9X9X9X9X9X9X5X[ s s u y e e e e 2 2 2 1 1 , & % % # # # O O o X       . o O O # # % % & & , 1 1 1 6 6 e e e u u i i p a a a l l T T T ! ~ ~ ~ ~ } } } | | | | | v.|.>.} } ~ ~ ~ T W ! 9.e.e.e.e.tXtXtXtXtXtXtX",
"tXtXtXtXtXtXtXe.e.e.e.7.& # # # % & & , _ |.[ 2 2 e e y u u u p p p l l l T T T ! ! ~ ~ } } } } | | | | | | | | } } } } ~ ! ! E E E a a a a p p i i u y y e 6 6 6 2 2 1 , , & % % % # O O o X * &XeX9X9X9X9X9X9X9X9X9X9X9X9X9X9X9X9X9X9X9X9X9X9X9X9X9X9X9X9X9X9X8XwX8XwXwXwX8XwXwXwXwX8XwXwXwXwX9X9X9X9X9X9X9X9X9X9X9X9X9X9XeX4X{ s s i y y e e e 2 2 2 1 1 , & & % # # # O o o X       o o O # # # % & & , , 1 2 6 6 6 6 e e u u i s p a a a l T T T W ! ~ ~ } } } | | | | ..| | >.|.S.} } ~ ~ ~ ~ T W 7.e.e.e.e.tXtXtXtXtXtXtX",
"tXtXtXtXtXtXtXe.e.e.e.#.# # # % % & , , 9.].A < e e e e u u i i p p l p l T T T ! ! ~ ~ ~ } | | | | =.X.X.=.| | | } } } } ~ ! ! E E a E C a p p p i u y y e e e 2 2 2 1 , , & % % # # # O o X O %XeX9X9X9X9X9X9X9X9X9X9X9X9X9X9X9X9X9X9X9X9X9X9X9X9X9X0X9X9X9X9XwXwXwXwXwXwXwXwXwX8XwXwXwX8XwX8X9X9X9X9X9X9X9X9X9X9X9X9X9X9XwX<XQ p s i y y e e e e 6 2 1 1 , , & % % # # O O o X     . o o O # # # # & & & 1 1 1 6 6 6 e e e u i i i p p a l l T T R ! ! ~ ~ ~ } } | | | =.=...| ;.}.I.} } } ~ ~ R R T %.e.e.e.e.d.tXtXtXtXtXtX",
"tXtXtXtXtXtXtXe.e.e.f.J # # # % % & & 1 M.`.v < e e e e u i i p p p a l l l E E ! ! ~ ~ } } | | | =.=.=.=.=.| | | | | } } ~ ~ ! E E a E a a a p p i y y y e e 2 6 2 2 1 1 1 & & % # # O O O X X  XeX9X9X9X9X9X9X9X9X9X9X9X9X9X9X9X9X9X9X9X9X9X9X9X9X9X9X9X9X9X9X9X9X9X9X9X9X9X9X9X9X9X9X9X9X9X9X9X9X9X9X9X9X9X9X9X9X9X9X9X9XwX;XC p i i u y y e 6 6 6 6 1 1 , & & % % # # # O o X X     o O O O # % # % & = , 1 1 6 6 e e e e y i i p p a k l l T T T R ! ~ } } } | ....=.=.=.=.=.=.`./.X.} } R ~ R R T %.w.e.e.e.e.tXtXtXtXtXtX",
"tXtXtXtXtXtXe.e.e.e.e.D O # # % & & & 2 H.!.t 6 6 6 e e u i i p p p a l T T T E ! ~ ~ } } } | | | =.=.=.=.=.=.=.| | } } } ~ ~ ! E l E a a a a p p i i y y e e e e 2 2 1 1 & & & % # # O O O X   m.eX9X9X9X9X9X9X9X9X9X9X9X9X9X9X9X9X9X9X9X9X9X9X9X9X9X9X9X9X9X9X9X9X9X9X9X9X9X9X9X9X9X9X9X9X9X9X9X9X9X9X9X9X9X9X9X9X9X9X9X9XwX@Xp p p u u y e e 6 6 6 6 1 1 , , & % % # O O O O X     X o o O # # # # & & & < 1 2 2 6 6 e e e y i i p p a a l l T T R R R } } } } | | ..=.=.=.=.=.=./.).X.} } } ~ ~ ~ R ] e.e.e.e.e.tXtXtXtXtXtX",
"tXtXtXtXtXtXe.e.e.e.e.n O # # % % & & 6 !.K.6 6 e e e u y i i s p p l a a T T E ! ! ! } } } | | X.=.=.=.=.=.=.| | | } } ~ ~ ~ ! E E a E a a p p p i i u y e e 2 2 2 2 1 1 = & & % # % O O O o   Y 9X9X9X9X9X9X9X9X9X9X9X9X9X9X9X9X9X9X9X9X9X9X9X9X9X9X9X9X9X9X9X9X9X9X9X9X9X9X9X9X9X9X9X9X9X9X9X9X9X9X9X9X9X9X9X9X9X9X9X8X8XwXL.a s s i u y y e e 6 6 1 1 1 , & & % # # # O O o X     X o o O # # # % & & 1 1 1 1 2 6 6 e e y u u i p p p l l l T T T ! ! ~ } } | | ....=.=.=.=.=.=.I.`.:.} } } ~ ~ T R ( e.e.e.e.e.tXtXtXtXtXtX",
"tXtXtXtXtXtXe.e.e.e.e.g O # # % & & , t _.B.< 6 6 e e e y u i p p l p C l T T E ! ~ ~ } } } | | | =.=.=.=.=.=.| | | | } } ~ ! ! E E E a l a a p p i i y e e e e 6 2 2 2 , & & % % % # # O O o   q 4X9X9X9X9X9X9X9X9X9X9X9X9X9X9X9X9X9X9X9X9X9X9X9X9X9X9X9X9X9X9X9X9X9X9X9X9X9X9X9X9X9X9X9X9X9X9X9X9X9X9X9X9X9X9X9X9X9X9X8X8XrXr.s p p i u y e e e 6 6 1 2 1 , , & % # % # O O o .     X o O O O # # # & & & 1 1 2 6 6 e e e y y u i p p a a l l T T R ! ~ ~ ~ } } | | ..=.=.=.=.=.=.I.}.>.} } R ~ ~ ~ T ( e.e.e.e.e.tXtXtXtXtXtX",
"tXtXtXtXtXtXe.e.e.e.e.5 # # # # % & & v ].f.2 6 6 e e u y i i p a a a l l l E E ! ! ~ ~ } } | | | =.=.=.=.=.| =.| | } } } ~ ! ! E E a E a a p p p i y y e e e 6 2 2 2 1 1 , & & % # # O O o X   @ %XeX9X9X9X9X9X9X9X9X9X9X9X9X9X9XwX9XwX9X9X9X9X9X9X9X9X9X9X9X9X9X9X9X9X9X9X9X9X9X9X9X9X9X9X9X9X9X9X9X9X9X9X9X9X8X8X8X8X8XwX4X' p p i i y y e e 6 6 6 1 1 1 , & & % % # # O o o X     X o o O # # # % & & & & 1 2 2 6 e e e e y i i s p p l l l T T W R ~ ~ ~ } } | | ..=.=.=.=.=.| >.|.>.| } } ~ ~ R T ^ w.e.e.e.e.tXtXtXtXtXtX",
"tXtXtXtXtXtXe.e.e.e.0.; O # # % % & & F |.%.< 6 6 e e e y u i i s p a a T T T E ! ! ~ } } } | | | ..| =.=.=.| | | | } } } ~ ! ! E E E a E a a p p i i y y e e e 6 2 1 1 , , & % % # # O O o X .    XeX9X9X9X9X9X9X9X9X9X9X9X9X9XwX9XwX9X9X9X9X9X9X9X9X9X9X9X9X9X9X9X9X9X9X9X9X9X9X9X9X9X9X9X9X9X9X9X9X9X9X9X9X9X8X8X8X8X8XwX#Xa p p i i y y y e e 6 6 2 1 1 , , % % # # # O O o X       o O O # # % # & & 1 1 1 1 2 6 6 e e y y i i p p p p l l T T T ! R ~ ~ } } | | ..........=.| >.|.v.} } ^ ~ ~ ~ T W w.e.e.e.e.tXtXtXtXtXtX",
"tXtXtXtXtXtXe.e.e.e.0.; O # # % & & & ) |._ < 6 6 e e e y u i p p p a a a T T T E ! ~ ~ } } } } | | =.| | =.| | } } } ~ ~ ! ! ! E a E a a a p p i i i y e e 6 6 6 2 2 1 , , & & % # # O O O X .   N 7X9X9X9X9X9X9X9X9X9X9X9X9X9X9XwX9XwX9X9X9X9X9X9X9X9X9X9X9X9X9X9X9X9X9X9X9X9X9X9X9X9X9X9X9X9X9X9X9X9X9X9X9X9X8X8X8X8X8X8Xb.a p p i u u y e e e 6 6 2 1 1 1 & & % % # # O o o .       o o o # # # % & & & 1 1 2 2 6 6 e e e u i i s p a l a l T T T ! ~ ~ ~ } } } } | ........=...>.|.S.} } ~ ~ R R R T 0.e.e.e.e.tXtXtXtXtXtX",
"tXtXtXtXtXtXe.e.e.e.$.% O # # % % & & #.|.F < 3 6 e e e y u i s p p a a l l T T E ! ~ ~ ~ ~ } } | | | | | | | | } } } } ~ ~ ! ! E E E a a a p p p i u y y e e e 6 2 1 1 1 & & % % % # # O O X     @ &XeX9X9X9X9X9X9X9X9X9X9X9X9X9XwXwX9X9X9X9X9X9X9X9X9X9X9X9X9X9X9X9X9X9X9X9X9X9X9X9X9X9X9X9X9X9X9X9X9X9X9X9X9X8X8X8X8X8X2X,.a p p i u y y e e 6 6 6 1 1 1 = = & % # # # O O o X     . o o O O # # # & & & 1 1 1 2 6 6 e e e y u i s p p p l l l T T ! R ~ ~ } } } } | | | ..| | =.>.|.S.} ~ ~ R W T T T &.e.e.e.e.tXtXtXtXtXtX",
"tXtXtXtXtXtXe.e.e.e.$.$ O # # % % & % 8.}.V < 6 6 e e e y u i i p p p l l T T T E E ! ! ~ } } } } | | } | } | } } } ~ ~ ~ ! ! E l E a a a a p p i i y y e e e 6 6 2 2 2 , & & % % # # o O o o .     Y eX9X9X9X9X9X9X9X9X9X9X9X9XwXwXwX9XwX9XwXwXwXwXwX9X9X9X9X9X9X9X9X9X9X9X9X9X9X9X9X9X9X9X9X9XwXwXwXwXwXwXwXwX8X8XwXwXeX+Xl a p i i u u y e e e 6 2 2 1 , , & & # # # # O O o .       . o O # # # # & & & , 1 2 2 6 6 6 e e e u i i p p k l l l T T T ! ! ~ ~ } } } } } | | | ..} +.].I.} ~ ~ R T R T T %.e.e.e.e.tXtXtXtXtXtX",
"tXtXtXtXtXtXe.e.e.f.#.$ O O # # % & & w.].v < 2 6 6 e e e u i i s p p p a a l T E E ! ! ~ ~ ~ } } } } } } } } } } } ~ ~ ! ! E T E a E a a a p p i u y y e e 6 6 2 2 1 1 1 & & & # # # # O o X X     q 3XeX9X9X9X9X9X9X9X9X9X9X9XwX9XwXwXwX9XwX9XwX9XwXwX9X9X9X9X9X9X9X9X9X9X9X9X9X9X9X9X9X9X9X9XwXwXwXwXwXwXwXwX8X8XwXwX7X9.p p p p i u y y e e 6 2 2 2 1 , , & & % # # # + o o         o o o # # # % % & & , < 1 2 6 6 e e e y u u i p p p p l l T T T T R ! ~ ~ ~ ~ } } } } } } } X.`.W.R ~ ~ R R T T T %.e.e.e.e.tXtXtXtXtXtX",
"tXtXtXtXtXtXe.e.e.e.#.O O # # # # & & h.'.f 1 6 6 6 6 e y u u i i p p l a T a T T E ! ! ! ~ ~ } } } } } } ~ } } } ~ ~ ! ! E E T E E a a p p p p i i y y e e e 6 2 2 1 1 , & % % % # o # o o . .        XeX9X9X9X9X9X9X9X9X9X9X9XwXwXwX9XwXwX9XwX9XwXwX9X9X9X9X9X9X9X9X9X9X9X9X9X9X9X9X9X9X9X9X9XwXwXwXwXwXwXwXwX8X8X8XwX#Xl a p s i i y y e e 6 6 2 2 1 1 , , & % % # # # O o o         . o o O # # # % % & , , 1 2 2 6 6 e e e y u i s p s l a l l T W R ! ~ ~ ~ ~ } } } } } } } R } )./.~ R ~ R T T l l $.e.e.e.e.e.tXtXtXtXtX",
"tXtXtXtXtXtXe.e.e.e.J O O # # # # & & M._.t 1 2 6 6 e e e e u i i p p p a a a C l T E E ! ! ! ~ ~ ~ ~ } } ~ ~ ~ ~ ~ ! ! E E T T a a a a p p p i i y y e e e 2 2 2 1 1 1 & & % % # % # o X X .         w >XeX9X9X9X9X9X9X9X9X9X9X9XwX9XwXwX9XwXwXwXwX9XwX9X9X9X9X9X9X9X9X9X9X9X9X9X9X9X9X9X9X9X9XwXwXwXwXwXwXwXwX8X8X9X5X9.a p s s i i y e e e 6 6 6 2 1 1 , & % % # # # O O o o         X o O O O # # % & & = & 1 2 2 6 6 e e y u u i i s a a k l l l l T T T ~ R ~ ~ ~ ~ ~ } ~ } ~ } ^.^.R R R R T T l l %.e.e.e.e.e.tXtXtXtXtX",
"tXtXtXtXtXtXe.e.e.e.J O O # # # % & & V._.t < 1 6 6 e e e e y u i p p p p l l l T T T E E E ! ! ! ~ ~ ~ ~ ~ ~ ~ ! ! ! E T T T T a a a a p p i i u y y e e e e 2 2 1 1 , & & % % # # # o o o .           y.9X9X9X9X9X9X9X9X9X9X9X9XwXwX9X9XwXwX9X9XwX9X9X9X9X9X9X8X8X8X8X9X9X9X9X9X9X9X9X9X9X9X9XwXwXwXwXwXwXwXwXwXwXwX-Xl p p p s i y y e e 6 e 6 2 2 2 , , & & % # # O O O o X         X o O O O # # # % & & 1 1 1 1 6 6 e e e e u u i s p p l l l l l T T T R R R R R R ~ ~ ~ ~ ~ ^ ^.).~ T T T T T l l @.w.e.e.e.e.tXtXtXtXtX",
"tXtXtXtXtXtXe.e.e.f.J + O O O # # # & V.{.7 , 2 2 6 6 e e e y u i i i p p p a l l a T T T E E E ! ! ~ ! ~ ! ! ! ! E ! T T T a T E a a a p p p i u y e e e 2 6 2 2 1 1 , & & % % % o o # o o .           @ %XeX9X9X9X9X9X9X9X9X9XwX9X9XwXwX9X9XwXwX9X9XwX9X9X9X9X8X8X9X8X9X9X9X9X9X9X9X9X9X9X9XwXwXwXwXwXwXwXwXwXwXwX1X,.p p p s i i y y e e e 6 2 2 1 1 , , & & % # # # O O o X           o o O # # # # % & & 1 1 1 2 2 6 6 e e r y u i s s s p k l l l l T T R R R R R R ~ ~ R ! ~ ~ !.^.^ T R T l l l a $.e.e.e.e.e.tXtXtXtXtX",
"tXtXtXtXtXtXe.e.e.f.J + O O # # % % & V.!.7 , 2 2 6 6 6 e e e u u i i p p a a l a l T T T E E E E E ! ! ! ! E E T E T T T T a T a a p p p p u i y y e e e e 2 2 2 1 1 , & % % % # # o o o o .             I 3X9X9X9X9X9X9X9X9X9X9X9XwX9X9X9XwX9X9XwX9X9X9X9X9X9X9X8X9X9X9X9X9X9X9X9X9X9X9X9XwXwXwXwXwXwXwXwXwXwXwX7Xb.p p p s s i y y e e e 6 6 2 2 1 1 = & & & % # # O O o X X           X o O O # # # % & & 1 1 1 1 6 6 6 6 e e y u u i p k p p l l l l T T T T R R R R R R R R R R W.).R T l l l l l p ' f.e.e.e.e.tXtXtXtXtX",
"tXtXtXtXtXtXe.e.e.e.G + + O # # # % = C.!.7 , < 1 6 6 6 e e e y u i i p p p p a a T a T l T T T T E E T T E T E T T T T T a a a a p p p i i u y y e e e 2 6 2 2 1 1 , & & & % # # o # o o o .             . y.7X9X9X9X9X9X9X9X9XwXwX9XwXwXwX9XwXwX9XwXwX9X9X9X9X9X9X9X9X9X9X9X9X9X9X9X9X9X9XwXwXwXwXwXwXwXwXwXwXwX-Xa p p s s i y y y e e 6 e 2 2 2 1 , 1 & % % # # # O O o X             X o o O # # # # % & & & 1 1 2 2 6 6 e e y y u u i s s s p k l l l l T T T T T T T R R R T T W._.! T l l l l k k ] e.e.e.e.e.tXtXtXtXtX",
"tXtXtXtXtXtXe.e.e.e.D X X O O O # # & C.E.6 , , 1 1 < 6 6 e e y u u i i i p p p a a a T l T T T T T T T T T T T T T l l l a a a p p p i i u u u e e e e 6 6 6 2 1 1 , & % % % # O @                     . X #  X9X9X9X9X9X9X9X9XwX8XwX8XwX8XwX8XwXwXwX8X8XwXwX8X9X9X9X9X9X9X9X9X8XwX8X8XwXwX9X9XwXwX8XwX8X8X8XwX*XW p p s i i i f y e e 6 6 6 2 2 2 , & & & & % # # # O O X X .                   + O # % % % & & , 2 2 2 6 6 6 e e e f u u s p p p p p a a T T T T T T T T E T E l E W.).W a a a a a a p ) d.e.e.e.e.tXtXtXtXtX",
"tXtXtXtXtXtXe.e.e.e.G X + O O # # # & V.!.7 , < 1 < 6 6 6 6 e e e u u i i p p p a p a a a a a T T a T T T T a T l l l l l a a a p p p p i u u u e e 6 6 6 6 1 1 1 , & & % % # % O # +                   . + o = OXeX9X9X9X9X9X9X8XwXwXwX8XwXwXwX8X8XwX9XwX8XwXwX9X9X9X9X9X9X9X9XwXwXwXwXwX8XwX8X8XwX8XwX8X8XwX;X' s p p p i i y y e e e e 6 6 2 2 , , , & & % # # # O O O X .                       # # # % % & , , , 1 2 2 6 6 e e e e u u u s s p p a a a a a a a T T a T a T l E E T.^.E a a a a a a p ) e.e.e.e.e.tXtXtXtXtX",
"tXtXtXtXtXtXe.e.e.e.J X X O O # # # & V.{.7 & , 1 3 3 6 6 e e e e u u u i i p p p p a a a a a l a a a T a T a T l l l a a p p p p p i i u u e e e e 6 6 6 1 6 , , , & & % % # O # o                       . X O w #XeX9X9X9X9X9XwXwXwX8XwXwXwX8XwXwXwXwXwXwXwXwX9X9X9X9X9X9X9X9X8XwXwXwXwXwXwXwX9XwXwXwX8X8X;X,.s p p i i i y y e e e 6 6 < < 6 2 1 , & & % % # # # O O X .                     O O O # # % % & & , 1 2 2 2 6 6 6 e e e y y u u i p p p p a a a a a T a a T T a a l l W.~.E a a a a p i i ] e.e.e.e.e.tXtXtXtXtX",
"tXtXtXtXtXtXe.e.e.f.J X X X O O O # # M._.7 & , , < < 6 6 6 6 e e e e u i i i i p p p p a a a a a a T a a p T a a a a p a p p s i i u u u u e e e e 6 6 6 2 1 1 , & % % % % % # O O                     . . X O X 9 %XeX9X9X9X9XwXwXwXwXwXwXwXwX9XwX9XwXwXwXwXwX9X9X9X9X9X9X9X9XwXwXwXwXwXwXwXwXwXwXwXwX8X1X<.s p p i i i i y e e e e e e 2 6 , , 1 , & & % % # O O O O X .                     + O O O # # % % & & , 1 1 2 2 6 6 6 e e y y y u i i i p p p p a a a a a a a a a a a E !.!.a a a p p p i i ] e.e.e.e.e.tXtXtXtXtX",
"tXtXtXtXtXtXe.e.e.f.J +   + + O O # # M._.8 & , , < 1 1 6 6 6 6 e e e u u u u i i p p p p p p a a a a a a a a a p a p p p p p u i i u u y e e e 6 e 6 6 2 1 1 , , & & % # # O O O O o X                     X X X q 1XeX9X9X9X9X9XwX8XwXwX8XwXwXwX8XwXwXwXwXwX8X9X9X9X9X9X9X9X9XwXwXwXwX8XwXwXwX9X9XwXwXwX5X<.s p i i i y y y e e 6 6 6 2 2 2 1 , , & & % % % # O # o X X .                     + O O # # # % % & & & , 1 1 2 6 6 6 6 e e u e i u s s s p p p p a p a a a a a a a a a !.!.a p a i i i i i [ f.e.e.e.e.tXtXtXtXtX",
"tXtXtXtXtXtXe.e.e.e.J +   X + O O # # k._.8 % , , , < 3 < 6 6 6 6 e e e e u u i i i i i p p p p p a a p p p p p p p p p i i s f u u u u e e e e 6 6 6 1 2 1 , , & & & % % % # O O o . .                     . X . q 5X8X9X9X9X9X8X8X8X8XwX8X8X8X9X8X8X8X8X8X8X8X8X8X8X8X9X9X9X9X8X8X8X8X8X8X8X8X8X8X8X8X8X8Xr.s i i y y y e e e e e 6 6 2 2 1 1 , , & & & # # # # O o X .                       X O O O O # # % & & & 1 & 2 1 2 6 6 6 e e e e e e u u u u s i p p p p p a a p p p a C ^.W.a i i p i i i y _ e.e.e.e.e.tXtXtXtXtX",
"tXtXtXtXtXtXe.e.e.e.#.+   X X + O # O q.].d % & , , , , 3 < 3 6 6 e e e e u u u u i i i i p s s p p p p p p p p p p s p s s u u u y e e e e 6 6 6 6 2 1 1 , , , & % % % # O O O O X . .                       X   P 8X8X9X9X9X9XwX8X8X8X8X8X8X8X8X8X8X8X8X8X8X8X8X9X8X8X9X8X9X9X8X8X8X8X8X8X8X8X8X8X8X8X8XwXb.y i y y y e e e e 6 6 6 2 2 1 1 , , & & % # # # O O o X X                         . X X O O # # # % & & & & 1 1 2 2 2 6 6 6 e e e u u u u u i p i i i p p p p p p p i C _.H.i i i i i u u y [ e.e.e.e.tXtXtXtXtXtX",
"tXtXtXtXtXtXe.e.e.e.$.+     X + o O o 7.].x % & & & , 1 , < < 6 6 6 6 e e e e e u u u i s i i s i p i i i p i i i i s u u u u y e u e e e e 6 6 2 6 2 1 1 , , & % % % # % # O O X .   .                           4.8X8X9X9X9X9X8X8X8XwX8XwX8XwX8X8XwX8X8XwX8XwX9X8X8X9X8X8X8X9X8X8XwX8X8XwX8X8X8XwX8X8X8XwX Xs y y y e e e e 6 6 6 2 2 2 1 1 , & & & & % # O # O O X .                         . . X O O # # % % % & & , , , 1 2 6 6 6 6 e e e e e e f u u u s i i i p i i p i i i W '.Z.i i i u u y e y [ e.e.e.e.tXtXtXtXtXtX",
"tXtXtXtXtXtXe.e.e.e.2.O     + + o O O _ =XV # % & , , , , < , 6 6 6 6 6 6 e e e e u u u u u f u i i u u s s u s u u u u u y y e e e e 6 e 6 6 6 2 2 1 1 , , & % % % # # # O O O                                   i.9X9X9X9X9X9XwX8X8XwX8XwX8XwX8X8XwX8XwX8X8X8X8X9X8X9X9X9X9X9X9X9X8X9X8X9X8XwXwXwXwXwXwXeX+Xi e y e e 6 6 6 6 6 2 2 2 1 , , & & & % % # # # O O o X X                         . X X o o # # # # % % & & & 1 1 2 2 2 6 6 6 6 e e e e y y y u f i f u u u u s p u u Q '.x.y i u u u e e y $.e.e.e.e.tXtXtXtXtXtX",
"tXtXtXtXtXtXe.e.e.e.7.*         o O + H =XG # # # & & , , , < 2 2 6 6 6 6 e e e e e e u u e u u u u u f u u u u u y u u y y y e e e e 6 6 6 6 1 < 1 1 , , & & % % % # # O O O X                                    XeX9X9X9X9X9X8XwX8XwXwX8XwX8XwX8X8XwX8XwXwX8X9X9X9X9X9X9X9X9X9X9X9X9XwX8XwX8X9XwXwXwXwXeX$Xf e e e e 6 e 6 6 2 2 1 1 1 , & & & % % # # # O O o X X .                           . X X O O O # # # % & & & & & , 2 1 2 2 6 6 6 6 e e e e y y r u u u u u u u u u u Q =Xj.y y e e e e e r 7.e.e.e.e.tXtXtXtXtXtX",
"tXtXtXtXtXtXe.e.e.e.0.*         o o X v =X_ # # & & & & , , < 2 1 2 6 6 6 6 6 e e e e e e e u u e u e u u u u e f y r e e e e e e e 6 6 6 6 1 2 1 1 , , & & & % % # # # O O X X                                 + OXeX9X9X9X9X9XwX8XwX8XwX8XwX8X9XwX8XwXwX8XwX9X9X9X9X9X9X9X9X9X9X9X9X9X9XwX9XwXwX9XwXwXwXeX&Xf e e 6 e 6 6 6 6 2 1 1 1 , & & & % # # # O O O o X .                                 X X X O # O # # % % & & & 1 1 1 1 2 2 2 6 6 6 6 e e e e e e e y u y e u y y y e ' =X6.y y y e e e e y 7.e.e.e.e.tXtXtXtXtXtX",
"tXtXtXtXtXtXe.e.e.e.w.:         X . X 0 ].7.# # # # & & & , & , 1 1 1 6 6 6 6 6 6 e e e e e e e e u e u e e u e e e e e 6 e 6 e 6 6 6 6 1 6 1 1 1 , , & & % % % # # O O O O X .                                 @ %XeX9X9X9X9X9XwXwXwXwXwXwXwXwXwXwXwXwXwXwXwXwX9X9X9X9X9X9X9X9X9X9X9X9XwX9XwX9X9XwXwXwXwXeX3Xa 6 6 6 6 6 2 2 < 2 1 , , & & & & % # # # # O O o X .                                 X X X o O O O # # % % & & & & , , 1 2 2 2 2 6 6 6 6 e 6 e e e y e y e y e y y y <.=X[ 6 e e e e 6 6 t 0.e.e.e.e.tXtXtXtXtXtX",
"tXtXtXtXtXtXe.e.e.e.e.5           X   4 _.k.O # # # # % & & , , 1 1 1 2 6 6 6 6 6 6 6 6 e e e e e e e e e e e e e e e e e 6 6 6 6 6 1 6 1 1 1 1 , , & & % % % # # % O O O X X .                                 - &XeX9XwXwXwXwXwXwXwXwXwXwXwXwXwXwXwXwXwXwXwXwX9X9X9X9X9X9X9X9X9X9X9X9X9XwXwXwXwXwXwXwX9XwX5XL 6 6 6 2 2 2 2 1 1 , , & & & % % # # # O O O o X .                                       . X X O O O # # # % & & & , , 2 , 2 2 2 6 6 6 6 6 6 6 e 6 e y e e e y e e 6 a.=XA 6 e 6 6 6 6 6 z q.e.e.e.e.tXtXtXtXtXtX",
"tXtXtXtXtXtXe.e.e.e.e.x             X * ~.V.$ O # # # & # & & , & , 1 1 1 1 1 2 6 6 6 6 6 6 6 6 6 e 6 e e e e 6 6 e 6 6 6 6 6 6 6 1 6 1 1 1 , , , & & % % % # % O O O O X X . .                                 q 3XeXeX8XwXwXwXwX8XwXwXwX8XwX9XwXwXwX8XwX8XwXwX9X9X9X9X9X9X9X9X9X9X9X9X9XwXwXwX9XwXwX9X9XeX7X3.< 2 2 2 1 1 1 , , & , & & % % % # # # O O o X X                                         . X X o O # O # # % % % & & & , , , , 2 < < 2 6 6 6 6 e 6 6 6 6 e 6 6 e 6 e l.'.S 6 6 6 6 6 6 1 v e.e.e.e.e.tXtXtXtXtXtX",
"tXtXtXtXtXtXe.e.e.e.q.b             . o J.R.* # # # # & % & , & & , 1 , 1 1 1 2 2 2 2 6 6 6 6 6 6 6 6 6 6 6 6 6 6 6 6 6 6 2 2 2 1 1 1 1 1 1 , & & & % % % # # O O O O X .                                       j 7XwX8X8XwX8X8X8X8XwX8X8XwX9X8XwX8X8XwX8X8X8XwX9X8X9X8X9X9X8X8X9X8X9X8X9X9X8X8X9X9X9X9XwXwXwXt.1 < 2 1 1 1 1 , & & & & % # # # # # O O X X                                                 X O O O # # # # # % % & & , , , , 2 1 2 2 2 2 6 6 6 6 6 6 6 6 6 6 6 6 e H.).f 2 6 6 6 6 6 < S e.e.e.e.e.tXtXtXtXtXtX",
"tXtXtXtXtXtXe.e.e.e.e.G               . k._.4 o # # # # # # # & & & , & , 1 1 1 1 2 1 2 2 6 6 6 6 6 6 6 6 6 6 6 2 6 2 2 2 2 2 1 1 1 1 1 & , & & % % % % % O # # O O X X .                                       P 7XwX8X8X8XwX8X8X8X8X8X8X8X8X8X8X8X8X8X8X8X8X8X9X8X8X8X9X9X8X8X9X8X8X8X9X8X8X8X9X9X9X9XwXwXeXp.1 1 1 1 , , , & & & % % % # # # O O O O X .                                               . . + O O O O # # # # % % & & & , , , , , 2 , 1 2 2 2 6 6 6 6 6 6 6 6 < e Q.T.6 2 2 2 1 1 1 , H e.e.e.e.e.tXtXtXtXtXtX",
"tXtXtXtXtXtXtXe.e.e.e.#.+               K [.g + + O # # # # # & % & & & 1 & 1 1 1 1 1 2 2 1 2 2 2 2 2 2 2 2 2 2 2 2 2 1 1 1 1 1 1 , , , & & & % % % # # # O # O + + . .                                         Y 9X9X9X9X9X9X9X8X8X8XwX8X8X8XwX8X8X8X8X8XwX8X8X9X9X9X9X9X9X9X9X9X9X9X9X9X9X9X9X9X9X9X9XwXwXeX X, , 1 & , & & & % % % % # # # O O O O o                                                         X X X O O # # % % # % % % & & & 1 & 1 1 1 1 1 1 2 2 2 2 2 2 2 2 6 t '.B.1 6 1 1 1 1 1 1 _ e.e.e.e.e.tXtXtXtXtXtX",
"tXtXtXtXtXtXtXe.e.e.e.2.@ +             M }.D + + + # O O # # # % % % & & & & 1 1 & 1 1 1 1 1 1 1 2 2 2 2 1 2 1 1 1 1 1 1 1 1 & , & & & & % % % % # # # O # O o .   .                                           i.eX9X9X9X9X9X9XwX8XwX8X8XwX8X8X8XwX8XwX8X8X8XwX9X9X9X9X9X9X9X9X9X9X9X9X9X9X9X9X9X9X9X9XwXwXeXoX< , 1 & & & & & % % # # # # # O O o o X                                                         . X X O O O O # # # # % % & & & & & & 1 1 1 1 1 1 1 1 2 1 2 2 2 1 V ].w., 1 1 < , , , 1 $.e.e.e.e.tXtXtXtXtXtXtX",
"tXtXtXtXtXtXtXe.e.e.e.q.@               g }.2.  + O + O # # # # % % % % & & & & & 1 & 1 & 1 1 1 1 1 1 1 1 1 1 1 & 1 1 & 1 & & & , & & & % % # # # # # # # O O o                                                  XeXeX9X9X9X9X9X9X8XwX8XwX8XwXwX8XwXwX8X8XwXwX8X9X9X9X9X9X9X9X9X9X9X9X9X9X9X9X9X9X9X9X9XwXwXeX%X1 & & & & & % % % # # # O # O O X X X X                                                           X X X O O O # # # # % # % & & & & & & & 1 & 1 , 1 1 1 , 1 , 1 , ] |._ , , , , , , & 3 2.e.e.e.e.tXtXtXtXtXtXtX",
"tXtXtXtXtXtXtXe.e.e.e.e.4               * {.M.  + + O O O O # # # # % % % % % % % & & & & 1 & & & 1 & 1 & 1 & 1 1 1 & 1 1 & & & & % % % % % # % # # O O o o o o                                                 OXeXeX9X9XeX9X9XwXwX8XwX8XwXwX8XwX8XwXwXwXwX8X9X9X9X9X9X9X9X9X9X9X9X9X9X9X9X9X9X9X9X9X9XwXwXeX&X7 & & % % % # # # # # # O O o o X . . .                                                             . . o O O O O # # # # % % % % & & & & & & 1 , , , , , , , , 1 w.].S & , , & & & % 8 0.e.e.e.e.tXtXtXtXtXtXtX",
"tXtXtXtXtXtXtXe.e.e.e.e.g               + K.R.O   + X + O O # O O # # # # % % % % & & & & & & & & & & & & & & & & & & & & & & % % % % # # # # O O O O O o o + .                                               . %XeX9X9X9X9X9X9XwX8XwX9XwXwX8XwXwXwX8XwXwXwXwXwX9X9X9X9X9X9X9X9X9X9X9X9X9X9X9X9X9X9X9X9X9X9XeX3Xd % & % # # # # # O # O O o X X X .                                                                     X X o O O O O # # # % % % % & & & & & & & & & , = , , & = V._.7 & & & & & % % t e.e.e.e.e.tXtXtXtXtXtXtX",
"tXtXtXtXtXtXtXe.e.e.e.e.D +               e.[.:     X X X O O O O # # # # # # % % % % % % & & & & & & & & & & & & & & % & # % % % # % # # # # O O O O O o o .                                                 - >XeX9X9X9X9X9X9X9XwXwXwXwXwXwXwXwXwXwXwXwX9X9XwX9X9X9X9X9X9X9X9X9X9X9X9X9X9X9X9X9X9X9X9X9X9XeX5XN # # # # # # # # O O o o X X .                                                                         . X X O O O O # O # O # # # # % % % % & % & & & & & & & 6 !.H.= % & % % % % % b e.e.e.e.e.tXtXtXtXtXtXtX",
"tXtXtXtXtXtXtXtXe.e.e.e.J +               K =Xh       X X X O X O O # O # # # # % % % % % % % % % & & & & & & & & % % % # # % # # # # # # O O O O O X X   .                                                   > 5X9X9X9X9X9X9X9XwXwXwXwX9XwXwXwX8XwXwXwXwXwXwXwX9X9X9X9X9X9X9X9X9X9X9X9X9X9X9X9X9X9X9X9X9X9X9X7XP # # # # # # O O O O o o . X .                                                                         .   X X o O O O O O # # # # # # # % % % % % % % & % % % x ].e.% % % % $ % % % J e.e.e.e.e.tXtXtXtXtXtXtX",
"tXtXtXtXtXtXtXtXe.e.e.e.7.+               g =X1.      + + O O # O # # # # # % % % % % % % & & & & & & & & & & & & % & & & & % % % # # # # # # # O O O X X . . .                                               w 7X9X9X9X9X9X9X9XwX8X9XwX8X8XwX8XwX8X8XwX9X8X8XwX9X9X9X9X9X9X9X9X9X9X9X9X9X9X9X9X9X9X9X9X9X9X9X9Xt.# # # # # # # # O O O O o X X                                                                         . X o X O O O O # # # # # % % % % % & & & & & & & & & & ) }._ % & & & & % % & $.e.e.e.e.tXtXtXtXtXtXtXtX",
"tXtXtXtXtXtXtXtXe.e.e.e.0.:   +           @ {.N.o X o o o O # O O # # % # % & & % % & & & & & 1 & & & & & 1 & & & & & & & & & & % % % % # # # # # O O O O X X .                                               U 9X9X9X9X9X9X9X9X9X9XwX9XwX9X8X8X9X9X9X9X9X9X9X9X9X9X9X9X9X9X9X9X9X9X9X9X9X9X9X9XwXwXwXwXwXwXwXeXi.% % # % # % # # # O O O + o o .                                                                       X X O O O O O # # # # % % % % & & & & & & & & , , & , & d.].v & & & & & & # 7 0.e.e.e.e.tXtXtXtXtXtXtXtX",
"tXtXtXtXtXtXtXtXe.e.e.e.e.c               . N.~.- o O O O O # # % # % % % % & & & & & & 1 & 1 & 1 & 1 1 & 1 1 & 1 1 & 1 & & & & & & % % % % % # # # # O O O X X + .                                           Y 9X9X9X9X9X9X9X9XwX9X9XwX8X9XwX8X9X9X9X9X9X9X9X9X9X9X9X9X9X9X9X9X9X9X9X9X9X9X9X9XwXwXwXwXwXwXwXeX X& & & % % % # # # # # O O O o .                                                                       O O O O # # # % # % % % % % & & & & & & , , , , 1 , 1 2 T.!.7 & , , , & , & g e.e.e.e.e.tXtXtXtXtXtXtXtX",
"tXtXtXtXtXtXtXtXM.e.e.e.e.G                 ,.}.f + O O # # # # # % % * & & & & & & 1 & & 1 1 1 1 1 1 1 2 1 1 1 1 1 1 & 1 1 & & & & & % % % % % % # O O O O O X + +                                            X9X9X9X9X9X9X9X9X9XwXwX9X8X8XwX8X9X9X9X9X9X9X9X9X9X9X9X9X9X9X9X9X9X9X9X9X9X9X9X9XwXwXwXwXwXwXwXeX+X, & & & & % % # # # # # O O O . +                                                             . + . + O O O O O # # % % % & & & & & & & 1 & 1 1 1 1 1 1 1 1 d '.M.< , < & 1 , , , D f.e.e.e.e.tXtXtXtXtXtXtXtX",
"tXtXtXtXtXtXtXtXtXe.e.e.e.#.+               x ].,.X # O # # # % % % & & & & & & 1 1 1 1 2 1 1 2 2 1 2 2 2 1 2 1 2 1 1 1 1 1 1 , , , , & % % % % % # % # % O O O + + .                                          XeX9X9X9X9X9X9X9XwXwX9XwXwX8X8XwX9X9X9X9X9X9X9X9X9X9X9X9X9X9X9X9X9X9X9XwX9X9X9X9XwXwXwXwXwXwXwXwX*X3 , , & & & & & & # # # # # O @ +                                                             X + + O O O # # # % # % % & & & & 1 & 1 1 1 1 1 1 1 1 2 2 2 1 ) |.$., < < 1 1 1 , < #.f.e.e.e.e.tXtXtXtXtXtXtXtX",
"tXtXtXtXtXtXtXtXtXe.e.e.e.0.;           . . ; ~.J.# # # # % % % % & & & & & 1 1 1 1 2 2 2 2 2 2 6 2 2 2 2 2 6 6 2 2 2 2 2 1 1 1 1 , , , , & & & % % # % # # O O @ . . .                                       %XeX9X9X9X9X9X9X9X9XwX9X9X9X9X9X9X9X9X9X9X9X9X9X9X9X9X9X9X9X9X9X9X9XwX9X9XwXwXwXwXwXwXwXwX9X9X9XwX>Xd , , & , & & & & % # # # # # O O O +                                                         X + O O O # # # % % & % & & & , 1 & 1 1 1 2 2 1 2 2 2 2 2 2 2 l.].S < 3 2 2 2 2 < 6 7.e.e.e.e.tXtXtXtXtXtXtXtXtX",
"tXtXtXtXtXtXtXtXtXe.e.e.e.e.g         . o o O l._.4 # # % % % % & & & 1 1 1 1 2 2 2 2 2 2 2 6 2 6 6 6 6 6 6 6 6 6 2 2 2 2 2 2 1 1 1 1 1 , , & & % % % % % O % O . . + .                                     @ %XeX9X9X9X9X9X9XeXwXwXwXwX9X9X9X9X9X9X9X9X9X9X9X9X9X9X9X9X9X9X9X9XwXwXwXwXwXwXwXwXwXwXwXwX9X9X9XwX4Xf 1 1 , , 1 , & & & % % # # # O O O O                                                         X O O # # # # % % % & & & , , , 1 2 1 1 2 2 2 6 2 2 6 2 6 2 y Q.R.r 6 6 6 < 3 6 < x e.e.e.e.e.tXtXtXtXtXtXtXtXtX",
"tXtXtXtXtXtXtXtXtXe.e.e.q.M.G       . o o o o [ =XF O % % & & & & & 1 1 1 1 2 2 2 2 6 6 6 6 6 6 6 6 6 6 6 6 6 6 6 6 6 6 6 6 2 6 2 1 1 1 1 , , , & & % % % # # O . @                                         w >XeX9X9X9X9X9X9X9XwX9X9X9X9X9X9X9X9X9X9X9X9X9X9X9X9X9X9X9X9X9X9X9XwX9XwXwXwXwXwXwXwXwXwXwX9X9X9X9X7XP , 1 2 , 1 & , & & & & # # # # O O O                                                         O O # O # # % % % & & & , , 1 , 1 2 2 2 2 2 6 6 6 6 6 e 6 6 A ].h.6 6 6 6 6 6 6 < F e.e.e.e.e.tXtXtXtXtXtXtXtXtX",
"tXtXtXtXtXtXtXtXtXtXe.e.e.e.$.+   . o o o # o 0 _.z.% % % & & & 1 , 1 1 1 2 2 2 6 2 6 6 6 6 e 6 e e e 6 e e e 6 e e 6 6 6 6 6 6 6 6 2 1 1 1 , , , & % % % % % % @ @ .                                       q 5XeX9X9X9X9X9X9X9X9X9X9X9X9X9X9X9X9X9X9X9X9X9X9X9X9X9X9X9X9X9X9X9XwXwX9X9XwXwXwXwXwXwXwXwX9X9X9X9X9X3.1 2 2 2 2 , , & & & & & % % # # # O                                                         O O # # # % % % & & & , 1 1 2 2 2 2 2 6 6 6 6 6 e e 6 e e 6 8.=X' 6 e e 6 6 6 6 e #.e.e.e.e.e.tXtXtXtXtXtXtXtXtX",
"tXtXtXtXtXtXtXtXtXtXe.e.e.e.e.: + + + + O # # % H.!.3 % & & , , 1 1 1 2 2 2 2 6 6 6 6 e e 6 e 6 e e e e e e e e e e e e e 6 6 6 6 6 6 2 2 1 1 1 , , & & & % # # # # O O o o o .                             I 7X9X9X9X9X9X9X9X9X9X9X9X9X9X9X9X9X9X9X9X9X9X9X9X9X9X9X9X9X9X9X9X9X9X9X9X9X9X9X9X9X9X9X9X9X9X9X9X9X9Xp.< 2 2 2 1 1 1 1 , , & & % % # # # # O O + o                                       X X X + O O # # # & # & & & , , 1 < < 1 6 6 6 6 6 e 6 6 e e e e e e u H._.k e e e e e e 6 i 0.e.e.e.e.tXtXtXtXtXtXtXtXtXtX",
"tXtXtXtXtXtXtXtXtXtXe.e.e.e.e.n   + + + O O # # $.|.D % & , , 1 1 2 2 2 2 6 6 6 e e e e e e e y y y e y y y y e e e e e e e e e 6 6 6 6 2 2 1 1 1 1 , & & % % % % # # # O O o o .                           Y 9X9X9X9X9X9X9X9X9X9X9X9X9X9X9X9X9X9X9X9X9X9X9X9X9X9X9X9X9X9X8X8X8X8X8X8X8X8X8X8X8X9X9X9X9X9X9X9X9XwXP.6 6 6 2 2 2 1 1 , , , & & % % % # # O O O o X X                                   X + O O O # # # & # & & & , , 1 1 , 3 6 6 6 6 e 6 e e e e e e e y e Z ].B.u e e e e e e 7 V e.e.e.e.e.tXtXtXtXtXtXtXtXtXtX",
"tXtXtXtXtXtXtXtXtXtXe.e.e.e.f.#.O O O # # # # # n ].f.& , , 1 1 1 2 2 6 6 6 e e e e e e y y e e y y y u u y y y e e u e e e e e 6 e 6 6 6 2 6 1 1 1 1 & , & & % % # # O O O o o .                           Y 9X9X9X9X9X9X9X9X9X9X9X9X9X9X9X9X9X9X9X9X9X9X9X9X9X9X9X9X9X8X8X8X8X8X8X8X8X8X8X8X9X9X9X9X9X9X9X9X9XeX-X6 6 6 6 6 6 2 2 1 1 , , & & % % # # # # O O o                                   X X O O O # # # & # & & & 1 1 1 1 1 6 6 6 6 6 6 e e e e e u e y y y e 8.=X%.e u y y y y e y ] e.e.e.e.e.tXtXtXtXtXtXtXtXtXtX",
"tXtXtXtXtXtXtXtXtXtXtXe.e.e.e.0.= + O O O # % % 3 K.(.7 , , 2 < 2 6 6 6 e 6 e e e e y e u u f i u u u u u u u u i u u e i e e e e e e 6 6 6 6 6 1 1 1 1 , & & % % # # # # O O o . .                         m.9X9X9X9X9X9X9X9X9X9X9X9X9X9X9X9X9X9X9X9X9X9X9X9X9X9X9X9X9X8X8X9X8X8X9X9X8X9X9X8X8X9X9X9X9X9X9X9X9XeX#Xy e e 6 6 6 2 2 1 1 1 , & & & % % # # # O O O o o                               X X O O O # # # # & & & & , 1 1 1 6 1 6 6 6 e e e e e e e u y y y u p U._.C u u u u u y y i 7.e.e.e.e.tXtXtXtXtXtXtXtXtXtXtX",
"tXtXtXtXtXtXtXtXtXtXtXe.e.f.e.e.v + O # # % % % % 7.|.) , 2 2 2 6 6 6 6 e e e e y y e i i i i s i i p i s s i i i i i i i e u e y e e e 6 6 6 6 1 1 1 1 1 & & & % % # # # # O O . .                         OXeX9X9X9X9X9X9X9X9X9X9X9X9X9X9X9X9X9X9X9X9X9X9X9X9X9X9X9X9X9X8X9X9X9X8X9X9X8X9X8X9X9X9X9X9X9X9X9X9XeX&Xf y e e 6 6 6 2 2 2 1 , , , & & % % # # O O O o X                             X X + + # # # # # & & & , 1 1 1 1 6 6 6 6 e 6 e e e u u u u u u i i u Q ].B.s i i i i i i i Z e.e.e.e.e.tXtXtXtXtXtXtXtXtXtXtX",
"tXtXtXtXtXtXtXtXtXtXtXe.e.e.e.e.#.# O # # % % % % v '.M.2 2 2 < 6 6 e e e e e y y y i i i i i i p p i p s i p i i i i s s i u u y e e e e 6 6 6 6 6 6 1 1 1 , & & % % # # # O O X                         . %XeX9X9X9X9X9X9X9X9X9X9X9X9X9X9X9X9X9X9X9X9X9X9X9X9X8X9X9X9X9X9X9X9X9X9X9X9X9X9X9X9X9X9X9X9X9X9X9X9XeX<Xf e e e e 6 6 6 2 2 2 1 1 , & & % % # # # # O o o X                           X + + O # # # & % & & , , 1 1 6 2 6 6 e 6 e e e e u u u i u i i s s u h.}.O.s p i i p i i i #.e.e.e.e.e.tXtXtXtXtXtXtXtXtXtXtX",
"tXtXtXtXtXtXtXtXtXtXtXtXe.e.e.e.%.4 O # # % % , , 2 C._.v 2 2 6 6 e e e e y y y f i s i s p p p p p p p p p p p p p p i i i i u u y y e e e e 6 6 6 6 1 1 1 , , & % % # # # O O O X                       - &XeX9X9X9X9X9X9X9X9X9X9X9X9X9X9X9X9X9X9X9X9X9X9X9X9X9X9X9X9X9X9X9X9X9X9X9X9X9X9X9X9X9X9X9X9X9X9X9X9XeX4X,.e e e e e e 6 6 2 2 1 1 , , & & % % # # O O O o o                         X X O O O # # & # & & & & 1 < < 6 6 6 6 e e e e e u u u i i i i p p p C /.^.Z p p p p p s s k %.e.e.e.e.tXtXtXtXtXtXtXtXtXtXtXtX",
"tXtXtXtXtXtXtXtXtXtXtXtXe.e.e.e.e.b # % % % % , , & #.|.%.< 6 6 e e e e e i i s u s s i i p p p p p p a p p p p p p p p p i s f u u y y y e e e 6 6 2 6 1 1 , , & & & % # # # O O X                       w 3XeX9X9X9X9X9X9X9X9X9X9X9X9X9X9X9X9X9X9X9X9X9X9X9X9X9X9X9X9X9X9X9X9X9X9X9X9X9X9X9X9X9X9X9X9X9X9X9X9X9X7X,.e y y e e e 6 6 6 2 2 1 1 , , & & % # # # # O O +                         X X O # # # # # & & & 1 1 1 1 3 6 6 6 6 e e e u u u u i i i p p p p p O.=Xl.p p p a p p p a / e.e.e.e.e.tXtXtXtXtXtXtXtXtXtXtXtX",
"tXtXtXtXtXtXtXtXtXtXtXtXe.e.e.e.e.#.# % & & & & , , t {.T.r 6 e e e e i e s i i i i i a p p a a p p a a a a a a a a a p p p p i s i u u e e e e e 6 6 2 2 1 1 1 , & & % % # # O O O X X .                 q 5XeXwXwXwXwXwXwXwXwX9X9X9X9X9X9X9X9X9X9X9X9X9X9X9X9XwXwXwXwXwXwXwX9X9X9X9X9X9X9X9X9X9X9X9X9X9X9X9X9X9X9Xr.y y y y e e 6 e 6 6 2 2 2 1 , , & % % # # O O O o o X                     X O O # # # % % & & , , 1 1 1 6 6 6 e e e e u u u i i i p p p p p p a A.}.( a a a a a a a a [ e.e.e.e.e.tXtXtXtXtXtXtXtXtXtXtXtX",
"tXtXtXtXtXtXtXtXtXtXtXtXtXe.e.e.e.w.8 % $ & , , , < 2 h.].) 6 6 e e i e i i i i a p a a a a a a T a a T a a a a a a a a a p p p p i i u u u u e e 6 6 6 6 1 1 1 , & & % % % # # # O O X .                 I 7XwX8XwXwXwXwX8XwXwX9X9X9X9X9X9X9X9X9X9X9X9X9X9X9X9XwX9XwXwX9XwX9X9X9X9X9X9X9X9X9X9X9X9X9X9X9X9X9X9X9XwXb.y i y y y y e e 6 6 2 2 2 1 , , & & % % # # # O O X X                   X X O O O # % % % & , , 1 1 6 6 6 6 6 e e e u u u u i p p p p p a a a ( '.U.C a a a l a a a C 9.e.e.e.e.tXtXtXtXtXtXtXtXtXtXtXtXtX",
"tXtXtXtXtXtXtXtXtXtXtXtXtXe.e.e.e.e.D % & & & 1 < < < S '.B.y e e i e i i i p p p a a a a a a T a a T a a T a a a a a a a a p p p p s i u u u e e e e 6 2 2 2 1 1 , & & % % # # O O X X                   4.9X9X8XwX8X8X8X8XwX8X9X9X9X9X9X9X9X9X9X9X9X9X9X9X9X9X8X8X9X8X9X9X8X8X9X9X8X9X8X8X9X9X9X9X9X9X9X9X9X9X9XwX.Xs i i y y y e e 6 6 6 2 2 2 , , , & & % # # O O O o X                 X o + O O # % % % % & , 1 1 1 1 6 6 e e e e u u u i i p p p a a a a a a x.=X:.a l l l l l l a ' e.e.e.e.e.tXtXtXtXtXtXtXtXtXtXtXtXtX",
"tXtXtXtXtXtXtXtXtXtXtXtXtXe.e.e.e.e.7.3 & & & 1 1 3 2 6 C.'.A e e y i i s i p p p a a a a a a T T T T T T T T T T T T a a a a a p p p i i i u e e e e 6 6 6 6 1 1 , , % % % # # # O O X .                 y.wX9X8X8XwX8X8X8X8X8X9X9X9X9X9X9X9X9X9X9X9X9X9X9X9X9X8X8X8X8X8X8X8X8X8X8X8X8X8X9X9X9X9X9X9X9X9X9X9X9XwXeX+Xp s i i i y y e e e 6 6 2 2 1 , , & % % % # # # O o o X               X o O # # # # % % & & , 1 1 6 6 6 6 e e e e u u i i p p p p a a a l a ^ ).!.! T T l E l E l E 7.e.e.e.e.e.tXtXtXtXtXtXtXtXtXtXtXtXtX",
"tXtXtXtXtXtXtXtXtXtXtXtXtXtXe.e.e.e.e.b & , < < < 3 6 < ) |.h.y u u u s i p a a a a a T a T T T T T T T T T T T T T a T a a a a a p p i i i u u r e e 6 6 6 2 1 1 1 , & & % % # # # O O . .             .  XeX8X8X8X8XwX8XwX8X8X9X9X9X9X9X9X9X9X9X9X9X9X9X9X9X9X8X8XwX8X8X8X8X8X9X8X8X8X9X8X8X9X9X9X9X9X9X9X9X9XwXeX*Xp s s i i y y r e e 6 2 2 2 1 2 , & & & % % # O O O o +               o o O O # # % % % & & 1 1 1 6 6 6 6 e e e u u i i p s a a a l l l l l j.=Xg.l E T T E l T l ^ w.e.e.e.e.tXtXtXtXtXtXtXtXtXtXtXtXtXtX",
"tXtXtXtXtXtXtXtXtXtXtXtXtXtXe.e.e.e.d.#., , , 1 < 6 6 6 i T._.C u u s s a i a a a a a T T T T T T E E T E ! E T E T T T T T T a a p p p i p i u u y e e e 6 6 1 1 1 , & & % % # # O O O X .             o OXeX8XwX8XwX8X8X8X8XwX9X9X9X9X9X9X9X9X9X9X9X9X9X9X9X9XwX8XwX8X9X8X9X9X8X8X9X9X9X8X8X9X9X9X9X9X9X9X9X9XwXwX:XZ p s p i y y y e e 6 6 6 2 2 1 , , & % % # # # O O + o             X o O O O # # % % & & , 1 1 6 6 6 e e e e u u u i p p p p a a l l T l ^ /._. .T E R E E E T E %.d.e.e.e.e.tXtXtXtXtXtXtXtXtXtXtXtXtXtX",
"tXtXtXtXtXtXtXtXtXtXtXtXtXtXtXe.e.e.e.w.g , , 1 1 6 6 e 6 %.|.e.y f i i i a a a a T T T T E R T ! ! ! ! ! ! ! ! E E E T T a T a a a a p p i i u u e e e 6 6 6 6 2 1 1 , & & % # # O O O X X         . . @ %XeX8XwX8X8XwX8XwXwX8X9X9X9X9X9X9X9X9X9X9X9X9X9X9X9X9XwX8X8XwX9X9X8X9X9X9X9X8X9X8X9X9X9X9X9X9X9X9X9X9X9X9X3X( p p s s i i y e e e e 6 2 2 1 , , & & % % # # O O o .             o o O # O # % % & & & , 1 1 2 6 6 6 e e u u u i i p p a a l l l l T T a.=Xx.! E E E E E E E ^ w.e.e.e.e.e.tXtXtXtXtXtXtXtXtXtXtXtXtXtX",
"tXtXtXtXtXtXtXtXtXtXtXtXtXtXtXe.e.e.e.e._ 1 1 < 6 6 6 e e k Q.{.Z i p a p a a a T a T T T T ! ! ! ~ ! ~ ! ~ ! ! ! E E T T T T a l a a a p p p u u y y e e 6 6 6 2 1 , , & & % % # # O O O X           . w &XeXwX8XwXwX8XwXwX8XwX9X9X9X9X9X9X9X9X9X9X9X9X9X9X9X9X8XwXwX8X9X9X9X9X9X9X9X9X9X9X9X9X9X9X9X9X9X9X9X9X9X9X5X,.a p s s i y y y e e e 6 2 2 2 1 1 , & % % # # # O O               o o O O # # % % & & , 1 1 2 2 6 6 e e e u u i i p p p a a l l T T T ^ W.`. .! ~ ~ ~ ~ ~ ~ E O.e.e.e.e.e.tXtXtXtXtXtXtXtXtXtXtXtXtXtXtX",
"tXtXtXtXtXtXtXtXtXtXtXtXtXtXtXe.e.e.e.e.0.t < < 6 6 6 e e e &.|.j.f s p p a a l T T T R ! ! ! ~ ~ ~ ~ ~ ~ ! ~ ! ! ! ! ! E E E l T a a a a p i i i y y e e e 6 2 2 1 1 , & & % % % # O O o o . .         9 3XeX8X8X8X8X8X8XwXwX8XwX8XwXwXwXwXwXwXwXwX8XwX8XwXwXwXwXwXwX9XwX9XwX9X8XwXwXwXwX8XwXwXwXwXwXwX8XwXwXwXwXwX7X9.p p p p i i i y e e e 6 6 2 2 1 , , & & % # # # O O + +         o o O O # # # % % & & , 1 1 1 6 6 e e e y y u i p p s k l l l T T T T >.|.S.R R } R R R } R ^ w.e.e.e.e.e.tXtXtXtXtXtXtXtXtXtXtXtXtXtXtX",
"tXtXtXtXtXtXtXtXtXtXtXtXtXtXtXtXe.e.e.e.e.F 1 3 6 6 e e e u k !.).W p p a a l l T T T R ! ~ ~ ~ ~ ~ } ~ } } } ~ ~ } ! ! E R l E l T a a p p p i i y y y e e 6 6 2 2 1 , , & & % # # # # O X .           m 6X8X8X8X8X8X8XwXwXwXwXwXwXwXwXwXwXwXwXwXwXwXwXwXwXwXwXwXwXwXwXwXwXwXwXwXwXwXwXwXwXwXwXwXwXwXwXwXwXwXwXwXwX9Xb.a a p p p i i y y e e e 6 6 2 1 1 , & & % % # O O O o o           o O O # # # % & & , , 1 2 2 6 6 e e e y u i i p p a a a l l T T R ^ /.`.+.~ ~ ~ } } } } ~ O.e.e.e.e.e.tXtXtXtXtXtXtXtXtXtXtXtXtXtXtXtX",
"tXtXtXtXtXtXtXtXtXtXtXtXtXtXtXtXe.e.e.e.e.7.8 6 6 6 e e e u u %.=Xg.p a a l l T T T ! ! ~ ~ ~ ~ } } } } } } } ~ } ! ! ! E R E l E a l a a p p p i i y e e e 6 6 2 2 1 1 , , & % % # # O O X .       .   P 8X8X8X9X8X8X8XwXwXwXwXwXwXwXwXwXwXwXwXwXwXwXwXwXwXwXwXwXwXwXwXwXwXwXwXwXwXwXwXwXwXwXwXwXwXwXwXwXwXwXwXeXwXeXb.a a p p p i i y y e e 6 6 6 2 1 1 , , & % % # # # O O X         o o O O O # # % & & , 1 1 1 6 6 6 e e e u u i p p p k a l l T T T T v.|.S.R ~ } } } } } } } 8.e.e.e.e.e.tXtXtXtXtXtXtXtXtXtXtXtXtXtXtXtX",
"tXtXtXtXtXtXtXtXtXtXtXtXtXtXtXtXtXe.e.e.e.e.F 6 6 6 e e y u i k Q.`.^ p l l T T R T ! ~ ~ ~ } ~ } } } } } } } } } } } ! ! ! R W E T a a a a p i i i y e e e e 6 6 2 1 1 , & & % # # O O O X X       .   5.eX8X8X8X8X8X8XwX8X8XwXwX8X8XwX8X8X8XwX8X8XwX8XwX8X8XwX8X8XwX8X8X9X8X8XwX8XwX8X8XwX8X8X8X8X8XwXwX8X8X8XeXeXeX-Xl a a p p i i y y e e e 6 6 2 2 1 , , & % % % # O O + o o       o + O O # # % % & & , 1 1 6 6 6 e e e y u u i s p p l l l T T T T  .^.`.X.} } } } } } } } @.e.e.e.e.e.tXtXtXtXtXtXtXtXtXtXtXtXtXtXtXtXtX",
"tXtXtXtXtXtXtXtXtXtXtXtXtXtXtXtXtXe.e.e.e.f.7.t 6 e e y y u u i <.=Xc.a l l l E T ! ~ ~ ~ ~ ~ | } | } | | | } } } } } ! ! ! ! E T T l a a a p p s i u y y e e 6 6 2 1 1 , , & % % # # O O X X .     + . i.eXwXwX8X8X8X8X8X8X8X8X8X8X8X8X8X8X8X8X8X8X8X8X8X8X8X8X8X8X8X8X8X8X8X8X8X8X8X8X8X8X8X8X8X8X8X8X8X8X8X8X9X9X9X@Xl a a p p i i y y y e e 6 6 6 2 1 1 , & & % # # # O O o X       o o O O # # % % & & , 1 1 2 6 6 6 e e e u i i p s l p l l T T R R x.|.x.~ } } } } } ..} ..&.e.e.e.e.e.tXtXtXtXtXtXtXtXtXtXtXtXtXtXtXtXtX",
"tXtXtXtXtXtXtXtXtXtXtXtXtXtXtXtXtXtXe.e.e.e.e.F 6 6 e e y u i i p U.}.@.l l l E ! ! ~ ~ ~ } } } | | | ......| | } } } } } ! ! ! E l T l a a a p s i u y e e e 6 6 2 1 1 , , & % % % # O O O X .     + + .XwXwXwX8X8X8X8X8XwXwX8X8X8X8X8X8X8X8X8X8X8XwX8XwX8X8X8X8X8X8XwX8X8X8XwX8X8XwX8X8X8X8X8X8X8X8X8X8X8X8X8X9X9XeX*XE l a a p p p i y e e e 6 6 2 2 1 , , & & % # # O O O o X       o o O # # # % % & & , 1 1 6 6 6 e e e u i i s p a p l l l T T T  ._.). .} } } } ........+.e.e.e.e.e.tXtXtXtXtXtXtXtXtXtXtXtXtXtXtXtXtXtX",
"tXtXtXtXtXtXtXtXtXtXtXtXtXtXtXtXtXtXe.e.e.e.e.0.t e e y u u i p s  .=XY.E l l R ! ! ~ ~ } } } | | ............| | } } } } ! ! ! E T T a a a a p p i u u e e e 6 6 2 2 1 , & & % % # # O O X X .       + @XeXwXwX9X8X8X8X8XwX8X8XwX8X8XwX8XwX8XwX8X8X8X8X8X8X8X8X8XwX8X8XwX8X8XwX8X8X8X8XwX8XwX8XwX8XwX8X8XwXwX8X9X9X9X1X^ a l p p p i i y y e e e 6 6 2 2 , , , % % % # # # O o X       o o O O # # % % & , , 1 2 6 6 6 e e u u u i s p p l l l T T T R S.|.v.~ } } ........X.X.w.e.e.e.e.e.tXtXtXtXtXtXtXtXtXtXtXtXtXtXtXtXtXtX",
"tXtXtXtXtXtXtXtXtXtXtXtXtXtXtXtXtXtXtXe.e.e.e.e.H e e e u u i s p a z.=Xa.l T E ! ! ~ ~ ~ | | | ....X.X.X.X.....| } } } ! } ! ! E E T T a a a p s i u u e e e e 6 2 2 1 1 , & & % # # # O O X .       - &XeXwXwX9X9X9X9XwX8XwX8X8X8XwX8X8XwX8X8XwXwX8XwX8XwXwX8XwX8X8XwX8X8XwX8XwX8XwXwX8XwX8X8X8XwX8XwX8X8X8XwX9X9X9X2X<.a a a p p p i y y e e e 6 2 2 1 1 , & & % % # O O O o o     X o O O # # # % % & , , 1 1 6 6 6 e e e u i s s p p k l l T T T :.|.Y.} } } } ......X.X.*.e.e.e.e.e.tXtXtXtXtXtXtXtXtXtXtXtXtXtXtXtXtXtXtX",
"tXtXtXtXtXtXtXtXtXtXtXtXtXtXtXtXtXtXtXe.e.e.e.e.w.z e y u u i s p p Q ).).^ l E R ~ ~ } } } | | ..X.=.=.=.=.=.X.| | } } } ! ! ! E T T a a a a a p i u u e e e 6 6 2 2 1 1 , & % % # # # O O X         4 1XeXwXwX8XwXwX8X8XwXwX8XwXwXwX8XwX8XwX8XwX8XwXwX8XwX8XwXwXwX8XwX8XwX8X8XwX8XwX8X8XwXwXwXwX8XwX8X8XwXwXwX8X8XwX6X<.l l a p p p y y y e e e 6 6 2 1 1 , , & % % # # O O o X     X o O O O # # # & & & 1 1 1 6 6 6 e e e u i i s p p l l l T T ~ W.].:.R } } ......X.=.=.w.e.e.e.e.e.tXtXtXtXtXtXtXtXtXtXtXtXtXtXtXtXtXtXtX",
"tXtXtXtXtXtXtXtXtXtXtXtXtXtXtXtXtXtXtXtXe.e.e.e.e._ e u u u i p p a a a.=Xc.E E R R ~ ~ } } | | X.X.=.=.=.=.=...| | | } } ! } ! E T E l l a a p p i i u u e e 6 6 2 2 1 , , & & % % # O O O X X       q 4XwXwXwXwX8XwXwXwX8XwXwXwX8X8XwXwXwXwXwXwX8XwX8XwXwXwXwX8XwX8XwXwXwXwXwXwXwXwXwXwX8X8XwXwXwXwXwXwX8X8XwXwXwXwX7Xa.l l a p p p i y y y e 6 6 6 2 2 , , & & % # # # O O o X       o o O # # # # & & & 1 1 1 6 6 e e e e u i i p k p l l l T T g.|.S.~ } } } } ....X.=.:.e.e.e.e.e.tXtXtXtXtXtXtXtXtXtXtXtXtXtXtXtXtXtXtXtX",
"tXtXtXtXtXtXtXtXtXtXtXtXtXtXtXtXtXtXtXtXe.e.e.e.e.w.C e u u i p p p a T Y.=X+.E R ! ~ } } } | | ..X.=.=.=.=.X.....| } } } ~ ! ! E E l l a a a p p i u u r e e 6 6 6 2 1 1 , & & % # # # O O X .       I 7XwXwXwXwXwXwXwXwXwXwXwXwXwXwXwX8XwXwXwXwXwXwXwXwX8XwXwXwXwXwXwXwXwXwXwX8XwXwXwXwXwXwXwX8XwXwXwXwXwXwXwXwXwXwXwXb.l a a p p i i i y e e e 6 6 2 2 1 , , & % % # # O O o +     o o O O # # # & & & 1 1 1 1 6 6 6 e e u u i i s p p l l l l @.`.).} R } } ..} ....X.-.w.e.e.e.e.e.tXtXtXtXtXtXtXtXtXtXtXtXtXtXtXtXtXtXtXtX",
"tXtXtXtXtXtXtXtXtXtXtXtXtXtXtXtXtXtXtXtXtXe.e.e.e.f.$.t u i i s p a a a ' =X/.^ R ~ ~ ~ } | | | ..X.=.=.=.=.=...| | } } } ! ! ! E T T l l a p p p i u u y e e e 6 2 2 1 , , & % % # # O O O X .       Y 9XwXwXwXwXwXwXwXwXwXwXwXwXwXwXwXwXwXwXwXwXwXwXwXwXwXwXwXwXwXwXwXwXwXwXwXwXwXwXwXwXwXwXwXwXwXwXwXwXwXwXwXwXwXwXwX Xa a a p p p i i y e e 6 6 6 2 1 1 , & & % % # # O O o o       o o O O # & # & & & 1 1 6 2 6 6 e e e u i s s p l a l l T Y.|.>.R } R } } ....X.=.:.e.e.e.e.e.tXtXtXtXtXtXtXtXtXtXtXtXtXtXtXtXtXtXtXtXtX",
"tXtXtXtXtXtXtXtXtXtXtXtXtXtXtXtXtXtXtXtXtXf.e.e.e.e.e.F y i i s p a a a a j.=Xx.! ! ~ } } } } | | =...=.=.=.......| } } } } ! R E E T T l a a p p i u u y e e e 6 6 2 1 1 , & & % % # O O O X     .   y.wXwXwXwX8XwXwXwXwXwX8XwXwX8XwXwXwXwX8XwXwX8XwXwXwXwX8XwXwX8XwXwXwX8XwX8XwX8XwXwX8XwXwXwXwX8XwXwX8XwXwXwXwXwXwXeX+Xl a a p p p i y y e e e 6 2 2 1 1 , , & % # # # O O o X     o o O O # # # $ & & 1 1 1 1 6 6 6 e e e u i i s k p a l l j.|.S.R } R } } } } } ..+.e.e.e.e.e.e.tXtXtXtXtXtXtXtXtXtXtXtXtXtXtXtXtXtXtXtXtX",
"tXtXtXtXtXtXtXtXtXtXtXtXtXtXtXtXtXtXtXtXtXtXe.e.e.e.e.7.z u i p p p a a l E U.=X>.E ! ~ ~ } | | | ....X.........| } } } ! ! ! R E T T a a a a p p i i y y y 6 6 6 2 1 1 , & & % % # # # O O X         i.eX8X8X8X8X8X8X8X8X8X8X8X8X8X8X8X8X8X8X8X8X8X8X8X8X8X8XwX8X8X8X8X8X8X8X8X8X8X8X8X8X8X8X8X8X8X8X8X8X8X8X8XwXwXwXeX#Xl a a p p i i y y e e e 6 6 2 1 1 , & & % % # # # O o o       o + O O # # % % & & & 1 1 6 6 e e e e u i i s p p k l @.'.).^ R R R } } } } ..o.&.e.e.e.e.e.tXtXtXtXtXtXtXtXtXtXtXtXtXtXtXtXtXtXtXtXtXtX",
"tXtXtXtXtXtXtXtXtXtXtXtXtXtXtXtXtXtXtXtXtXtXtXe.e.e.e.e.] u i i p p a a l l  .=X). .! } } } } } | | | | | | | | } } } ~ ~ ! R R T T T a a a a p s i u y e e e 6 6 2 2 1 1 , & % % # # O O O X X     . .XeXwX8X8X8X8X8X8X8X8X8X8X8X8X8X8X8X8X8X8X8XwXwX8X8X8XwXwX8X8X8X8X8X8X8X8X8X8X8X8X8X8X8X8X8X8X8X8X8X8X8X8XwXwXwXeX*XE a a p i i i y y e e 6 6 6 2 1 1 , & % % # # O O O o X       o O O # # # % % & & , 1 1 6 6 6 e e e u i i s p p l Z W.|.*.R T R ^ } } } } ..*.e.e.e.e.e.f.tXtXtXtXtXtXtXtXtXtXtXtXtXtXtXtXtXtXtXtXtXtX",
"tXtXtXtXtXtXtXtXtXtXtXtXtXtXtXtXtXtXtXtXtXtXtXe.e.e.e.e.w.A i i p a a a l l l a.=XU.} ! ~ } } } | | | | | | | | } } } } } ! W E T T E a a p p p s s u y e e 6 6 6 2 1 1 , & & % % # # O O O X     . + #XeXwX8X8XwX8X8X8XwX8X8XwX8X8XwX8X8XwX8X8X8X8X8X8X8X8XwXwX8XwX8X8XwX8X8XwXwX8X8XwX8X8XwX8XwX8X8XwX8X8XwX8XwXwXwXwX<X^ a a p p i i y y e e 6 6 2 2 1 1 , & & % # # # O O o       X X o O O # % % % & & 1 1 1 6 6 6 6 e e u y i s p p p x.|.x.T T R R R R R } }  .e.e.e.e.e.e.tXtXtXtXtXtXtXtXtXtXtXtXtXtXtXtXtXtXtXtXtXtXtX",
"tXtXtXtXtXtXtXtXtXtXtXtXtXtXtXtXtXtXtXtXtXtXtXtXe.e.e.e.d.7.p i p p p k l l l T S.|.x.R ~ ~ } } } } } } } } } } } } } ! ~ ! T T T T l l a a p s i i u y e e 6 6 6 2 1 1 & & & % % # # # o o o       * &XeX9X9X9X9X9X9X9X9X9X9X9X8X8X8X8X8X8X8X8X8X8X8X8XwXwXwXwX8X8X8X8X8X8X8X8X8X8X8X8X8X8X8X8X8X8X8X8X8X8X8X8X8X8X8X8X4X' a p p s i u u e e 6 6 6 6 1 , < , & % # # # # O O +       + + O O O O # % # & & , 1 1 1 2 6 6 e e e u i i p s *.}.T.E T T T E ! ~ ~ ~ } 8.e.e.e.e.e.tXtXtXtXtXtXtXtXtXtXtXtXtXtXtXtXtXtXtXtXtXtXtXtX",
"tXtXtXtXtXtXtXtXtXtXtXtXtXtXtXtXtXtXtXtXtXtXtXtXe.e.e.e.e.e._ i p p p a a l T T ^ !.].:.R ~ R } } } } } } } } } } ~ ~ ~ ! ! ! T T l l a a a p p i i y y e e 6 6 2 2 1 1 1 & % % # # # o O o o       w >X9X9X9X9X9X9X9X9X9X9X9X9X8X8X8XeX8X8X8X8X8X8X8X8XwXwXwXwX8X8X8X8X8X8X8X8X8X8X8X8X8X8X8X8X8X8X8X8X8X8X8X8X8X8X8X8XrX6.p p p i i u u e e e 6 6 3 < 3 , & & & # # # O O O X +       + + O O # # # % & & , 1 1 2 6 6 e e e e y u i s Q _._.( l l T T E ! ! ~ ~ O.e.e.e.e.e.e.tXtXtXtXtXtXtXtXtXtXtXtXtXtXtXtXtXtXtXtXtXtXtXtX",
"tXtXtXtXtXtXtXtXtXtXtXtXtXtXtXtXtXtXtXtXtXtXtXtXtXe.e.e.e.e.w.A i p p a a l l l T +.].).+.R ~ } ~ } } ~ } ~ ~ } ~ ~ ~ ! ! ! T T T l l l a p p i u u y y e e e 6 2 2 1 1 1 & & % # # # o o o o       h 5X9X9X9X9X9X9X9X9X9X9X9X9X8X8X8X8X8X8X8X8XwXwX8XeXwXwXwXwX8X8X8X8X8X8X8X8X8X8X8X8X8X8X8X8X8X8X8X8X8X8X8X8X8X8X8X8X8Xr.s p i i i u e e e 6 6 6 < < , , , & % % # # # X + X         + + O O O # % % & & , , 1 6 2 6 6 e e y y u i B T.}.&.a a l T T E E ! !  .w.e.e.e.e.e.tXtXtXtXtXtXtXtXtXtXtXtXtXtXtXtXtXtXtXtXtXtXtXtXtX",
"tXtXtXtXtXtXtXtXtXtXtXtXtXtXtXtXtXtXtXtXtXtXtXtXtXtXe.e.e.e.e.7.k i p a a l l l T T >.|.Y.^ R ~ ~ ~ ~ ~ } ~ ~ ~ ! ! ! ! E T T T C l p l s s p i i y y e e e 2 2 2 2 1 1 & & % % # # # # O o X       I 7X9X9X9X9X9X9X9X9X9X9X9X9X8X8X8X8X8X8X8X8XwXwXwXwXwXwXwXwX8X8X8XeX8X8X8X8X8X8X8X8X8X8X8X8X8X8X8XeX8X8X8X8X8X8X8X8X8Xb.s p p i u u u e e e 6 < 3 , < , & % % # # # O O O +         + + O O O # % % & & & 1 1 1 2 6 6 e e e y y s c.=Xg.p l l l l T T T T W %.e.e.e.e.e.tXtXtXtXtXtXtXtXtXtXtXtXtXtXtXtXtXtXtXtXtXtXtXtXtXtX",
"tXtXtXtXtXtXtXtXtXtXtXtXtXtXtXtXtXtXtXtXtXtXtXtXtXtXe.e.e.e.e.e.#.p i p a a l l T T T c.|.S.~ R R ~ ~ ~ ~ ! ~ ! R R W T T T T l l p l p p p i i u u y e 7 e e 2 2 2 , , & & % # # # O o o . X       Y 9X9X9X9X9X9X9X9X9X9X9X9X9X8X8X8X8X8X8X8X8XwXwXwXwXwXwXwXwX8X8XeX8X8X8XeX8X8X8X8X8X8X8X8X8X8X8XeX8X8X8XeX8X8X8X8X8XeXL.s p i i u e e e 6 6 6 6 < , , , & & % # # # # + +           . . + O # # # % % % & , 1 1 2 6 6 e e e y u 8.|.Z.k p a a a l l l E E O.e.e.e.e.e.e.tXtXtXtXtXtXtXtXtXtXtXtXtXtXtXtXtXtXtXtXtXtXtXtXtXtX",
"tXtXtXtXtXtXtXtXtXtXtXtXtXtXtXtXtXtXtXtXtXtXtXtXtXtXtXe.e.e.e.e.w.F p p s a a a a T l T I.|.x.T R R ! ! ! ! ! ! ! R T T T T l l l l p p p p i u u y e e e 2 6 2 1 2 , , & & % % # # # o o .         y.eX9X9X9X9X9X9X9X9X9X9X9X9X8X8X8X8X8X8X8X8XwXwXwXwXwXwXwXwX8X8X8X8X8X8X8X8X8X8X8X8X8X8X8X8X8X8X8X8X8X8X8X8X8X8X8X8XeX+Xs s i u u e e e 6 6 6 1 1 1 , , & % % # # # O + + +         . . + + O O # % % % & , , < 1 2 6 6 6 e e ] }.Q.Z i i a a a l l l l ( w.e.e.e.e.e.tXtXtXtXtXtXtXtXtXtXtXtXtXtXtXtXtXtXtXtXtXtXtXtXtXtXtX",
"tXtXtXtXtXtXtXtXtXtXtXtXtXtXtXtXtXtXtXtXtXtXtXtXtXtXtXtXe.e.e.e.e.w.C i p a a a l l l T ( !.}.>.T R R R ! ! T ! T T T T l l l l l p p p p i u u y y e e e 6 2 2 2 , , , & % % # # O # o o o         m.eX9X9X9X9X9X9X9X9X9X9X9X9X8X8X8X8X8X8X8X8XwXwXwXwXwXwXwXwX8X8X8X8X8X8X8X8X8X8X8X8X8X8X8X8X8X8X8X8X8X8X8X8X8X8X8X8XeX$Xp s i u u e e e 6 6 6 3 1 1 , & & % # # # O + + +             . + + O # # # % % & & , 1 2 2 2 6 6 e / '.{.Q i i s p a p l l l W 7.e.e.e.e.e.tXtXtXtXtXtXtXtXtXtXtXtXtXtXtXtXtXtXtXtXtXtXtXtXtXtXtXtX",
"tXtXtXtXtXtXtXtXtXtXtXtXtXtXtXtXtXtXtXtXtXtXtXtXtXtXtXtXe.e.e.e.e.e.%.k i p p p a a a l l @.).}.*.T T T T T T T T T T T l l l l l p p p i i u y y e e 6 2 6 2 2 1 1 , = & % % # # # o o . X          X9X9X9X9X9X9X9X9X9X9X9X9X9X8X8X8X8X8X8X8X8XwXwXwXwXwXwXwXwX8X8X8X8X8X8X8X8X8X8X8X8X8X8X8X8X8X8X8X8X8X8X8X8X8X8X8X8XeX;Xf u u u e e e 6 6 6 < 1 1 , , & % % # # O # + +               . + + O # # # % % & & & 1 1 2 2 6 6 S !.'.' y i i s p s p p l l %.e.e.e.e.e.d.tXtXtXtXtXtXtXtXtXtXtXtXtXtXtXtXtXtXtXtXtXtXtXtXtXtXtXtX",
"tXtXtXtXtXtXtXtXtXtXtXtXtXtXtXtXtXtXtXtXtXtXtXtXtXtXtXtXtXf.e.e.e.e.f.] i p p p k a a l l l O._._.@.T T T T T l T T l l l a a p a s p s i i y y e e e 6 6 6 2 1 1 , , & & % # # # O O o .         @ %XeX9X9XwXwXeX9XwXwXwXwXwXwX0X0X0XwXwXwX8X8XeX9XeX0XwXwXwXwX8XeX8X8X8X8X8X8X8X8X8X8X8X8X8X8X8XeX8X8X8X8X8X8X9X9X9X9XeX<XS u u e e e 6 6 6 6 < < , , & & # $ # # O O X X                   . o O O # # % % & , , 1 1 2 6 B R.|.%.e y y i i i p p a a ] e.e.e.e.e.e.tXtXtXtXtXtXtXtXtXtXtXtXtXtXtXtXtXtXtXtXtXtXtXtXtXtXtXtXtX",
"tXtXtXtXtXtXtXtXtXtXtXtXtXtXtXtXtXtXtXtXtXtXtXtXtXtXtXtXtXtXe.e.e.e.e.e./ p p p a a a a a l l *.}.^. .a T l l l l l l l a a a p p p i i i u y y e e e 6 6 6 1 1 , , , & % % # % O O o o           @ %X5X5X5X5X4X5X5X4X5X5X5X5X5X5X4X5X5X5X5X5X4X5X5X5X5X5X5X5X5X5X5X5X5X5X5X5X5X5X5X5X6X5X5X5X5X5X5X5X5X5X5X5X5X5X5X5X5X5X<X) y u e e e 6 6 6 6 < < , & & & & & # # # O O X                     O o # # # % % & & , , 1 1 t U.}.%.e e e y y i i i s s / e.e.e.e.e.e.tXtXtXtXtXtXtXtXtXtXtXtXtXtXtXtXtXtXtXtXtXtXtXtXtXtXtXtXtXtX",
"tXtXtXtXtXtXtXtXtXtXtXtXtXtXtXtXtXtXtXtXtXtXtXtXtXtXtXtXtXtXtXe.e.e.e.e.w.A i p p p p p a l a l :.}.^.( l l l l l a a a a a p p p i i i u y y e e 6 6 6 2 2 1 1 , , & & % # # # # O o o           . w q h j c m j m m M M M M L L L L K K K K { { { _ { ,.{ [ [ ,.<.<.<.<.<.6.<.<.<.<.<.6.<.<.<.<.<.<.<.<.<.<.<.,.,.[ ,.[ { p y e e e e 6 6 1 1 , , , , & & # # # O O O X X                     o # # # # % % % & , 1 , t C.|.8.e 6 e e e u u i i i C 7.e.e.e.e.e.tXtXtXtXtXtXtXtXtXtXtXtXtXtXtXtXtXtXtXtXtXtXtXtXtXtXtXtXtXtXtX",
"tXtXtXtXtXtXtXtXtXtXtXtXtXtXtXtXtXtXtXtXtXtXtXtXtXtXtXtXtXtXtXw.e.e.e.e.e.7.C i i p p p p a p k a a.}.E.( a a a a a a p p p p i i i i u y y e e 6 e 6 6 6 1 1 1 , & & % # # # # O O o o                       X . o # O # # % % & , , , , < < 6 6 6 6 e e y y y u u u s p s p a a a l a l a l a a a a a a s p p s s u u u y y e e e 6 6 6 6 6 1 , , , & & # # # # # O + X X                     o o O O % # % % & & & t C.=Xd.6 6 6 e e e y y u i k 7.e.e.e.e.e.e.tXtXtXtXtXtXtXtXtXtXtXtXtXtXtXtXtXtXtXtXtXtXtXtXtXtXtXtXtXtXtX",
"tXtXtXtXtXtXtXtXtXtXtXtXtXtXtXtXtXtXtXtXtXtXtXtXtXtXtXtXtXtXtXtXe.e.e.e.e.e.%.B i i p p p p p p a a a.}.E.( a a a p p p i p s i i u u u e e e e e 6 6 2 1 1 1 , & & & % # # O O o o o                       X o O O O # % % % % , , , 1 2 2 2 2 6 e e e e e u u i i i i p p p p p p p p a a p p p p p p p p s s p u u u y y e e e e 6 6 1 6 1 1 , , , & # # # # # O O + X                       o o o # # # # % % & 7 A.=Xd.6 2 6 6 6 6 e e y y i $.e.e.e.e.e.w.tXtXtXtXtXtXtXtXtXtXtXtXtXtXtXtXtXtXtXtXtXtXtXtXtXtXtXtXtXtXtXtX",
"tXtXtXtXtXtXtXtXtXtXtXtXtXtXtXtXtXtXtXtXtXtXtXtXtXtXtXtXtXtXtXtXtXe.e.e.e.e.e.$.p i i i i p p a p p p a.|.!.Q s p p p p i i i i i u y e e e 6 e 6 6 6 1 1 1 1 & & & % # # # # # # o o                         X o O O # # # % % % , , , , 2 2 2 6 6 6 e e e y y u u i s s s s p p p p p p p p p p p p p s s i s u u u y e e e e 6 6 6 6 2 1 1 , , , % % # # # # O O O X                         o o o O O # # % % 7 C.=Xd.2 1 1 6 6 6 e 7 e e u _ e.e.e.e.e.e.tXtXtXtXtXtXtXtXtXtXtXtXtXtXtXtXtXtXtXtXtXtXtXtXtXtXtXtXtXtXtXtXtX",
"tXtXtXtXtXtXtXtXtXtXtXtXtXtXtXtXtXtXtXtXtXtXtXtXtXtXtXtXtXtXtXtXtXtXe.e.e.e.e.e._ k u i i i p i i p i p a.}.!.( i i i i i u u u u e e e e e 6 6 6 6 1 1 1 1 & & & % % # % # O O o o X                         X X O O # # # % % % , , , , 2 2 2 2 2 6 e e e e e u u u u u p s s p p p p p p p p p p s s i i s i y y y y e e e e 6 6 6 1 6 1 1 , , % & % % # # O O O + X                           o o # # # # # 7 J.}.w.1 , 1 1 3 < 6 6 e 6 e ) e.e.e.e.e.e.tXtXtXtXtXtXtXtXtXtXtXtXtXtXtXtXtXtXtXtXtXtXtXtXtXtXtXtXtXtXtXtXtXtX",
"tXtXtXtXtXtXtXtXtXtXtXtXtXtXtXtXtXtXtXtXtXtXtXtXtXtXtXtXtXtXtXtXtXtXtXe.e.e.e.e.e.) i u i i i i i p i i i &.].).] u i u u u u u u e e e 6 e 6 6 2 2 2 1 1 1 & & & % # % # O O o o X                           X X o O O O # # % % % , , , , 2 2 2 2 e 6 e e e e e e u u u u u u i i i i i i i i s s u f s i i e y y e e e e e 2 6 6 6 1 1 1 , & , & % % # # # # O X +                             o o o o # o d T.}.7.= & 1 1 1 1 < 6 < 6 e A e.e.e.e.e.e.tXtXtXtXtXtXtXtXtXtXtXtXtXtXtXtXtXtXtXtXtXtXtXtXtXtXtXtXtXtXtXtXtXtXtX",
"tXtXtXtXtXtXtXtXtXtXtXtXtXtXtXtXtXtXtXtXtXtXtXtXtXtXtXtXtXtXtXtXtXtXtXtXe.e.e.e.e.e./ u y u u u i u i u i i O.'.'.%.u u e u e u e e 6 e 6 6 6 2 2 2 1 1 1 & & & % # # # O @ + @                                   + O O # # # # # % & , , , , < 2 2 6 6 6 6 e e e e e u u u u f u u u u u u u s i i u y y y y y e e e e 6 e 2 e 6 6 1 1 1 , , & & & & # # # O O . + .                             . o o O O n E.].$.& & & & , , < 3 < 6 6 S w.e.e.e.e.e.f.tXtXtXtXtXtXtXtXtXtXtXtXtXtXtXtXtXtXtXtXtXtXtXtXtXtXtXtXtXtXtXtXtXtXtX",
"tXtXtXtXtXtXtXtXtXtXtXtXtXtXtXtXtXtXtXtXtXtXtXtXtXtXtXtXtXtXtXtXtXtXtXtXf.e.e.e.e.e.e.F y y y u u u u u u y e ' {.].8.u e e e e e e 6 6 6 6 2 2 1 1 , , & & & % % # # # O + + .                                 X X + O O O O # # % % & & , , , 1 1 2 2 6 6 6 6 e e e e e e e u y u y y u u u u y y y y y y e e e e e e e e 2 2 1 1 1 1 , , & & # & # # # O O O .                                   . o + D _.'.F # # & & & , , , < < 3 v e.e.e.e.e.e.k.tXtXtXtXtXtXtXtXtXtXtXtXtXtXtXtXtXtXtXtXtXtXtXtXtXtXtXtXtXtXtXtXtXtXtXtX",
"tXtXtXtXtXtXtXtXtXtXtXtXtXtXtXtXtXtXtXtXtXtXtXtXtXtXtXtXtXtXtXtXtXtXtXtXtXe.e.e.e.e.e.e.D e y e y y y y y y e e A Q.|.h.u e e e e 6 6 6 6 2 2 1 1 1 , , & & & # # # # O O O . .                                     + + O # # # # % % & & , , , 1 1 1 2 6 6 6 6 6 e e e e e e e y y y y u u u e y e e e e e e e e e 6 6 2 2 2 1 1 1 1 , & & & & & % # # # O O +                                       + ` ].!.b O # # # $ & & & & , < v e.e.e.e.e.e.e.tXtXtXtXtXtXtXtXtXtXtXtXtXtXtXtXtXtXtXtXtXtXtXtXtXtXtXtXtXtXtXtXtXtXtXtXtX",
"tXtXtXtXtXtXtXtXtXtXtXtXtXtXtXtXtXtXtXtXtXtXtXtXtXtXtXtXtXtXtXtXtXtXtXtXtXtXe.e.e.e.e.e.e./ e e e e e e e e e e e k Z.=XC.B 6 6 6 6 6 2 2 1 1 1 1 , & & & & # # # # # O O + . .                                     X + X O O # # # # % % & , , , 1 1 1 1 2 6 6 6 6 6 6 6 e e e e e 6 y y e e e e e e e e e e 6 6 6 6 2 2 2 2 1 1 1 , , & & & # # % # O O O O +                                     # q.=XH.0 o # # # # % % & & & , v 0.e.e.e.e.e.e.tXtXtXtXtXtXtXtXtXtXtXtXtXtXtXtXtXtXtXtXtXtXtXtXtXtXtXtXtXtXtXtXtXtXtXtXtXtX",
"tXtXtXtXtXtXtXtXtXtXtXtXtXtXtXtXtXtXtXtXtXtXtXtXtXtXtXtXtXtXtXtXtXtXtXtXtXtXtXe.e.e.e.e.e.w.H e 7 e e e e e e e e e t h.|.E.F 6 6 6 2 2 1 1 1 1 & & & & % # # % # O O O . . .                                         + + + O @ O # # % % & & & , , 1 1 1 1 6 < 6 6 6 6 6 6 6 e e e e r e e e e e e e e 6 e e 6 6 6 2 2 2 2 1 1 1 , & & & & % # # # # # O O X X                                   : N.=Xk.; . o # O # # # % % % % b 0.e.e.e.e.e.e.tXtXtXtXtXtXtXtXtXtXtXtXtXtXtXtXtXtXtXtXtXtXtXtXtXtXtXtXtXtXtXtXtXtXtXtXtXtXtX",
"tXtXtXtXtXtXtXtXtXtXtXtXtXtXtXtXtXtXtXtXtXtXtXtXtXtXtXtXtXtXtXtXtXtXtXtXtXtXtXtXe.e.e.e.e.e.w.) e 6 6 e 6 6 e 6 6 6 6 e %.[.'.%.6 2 1 1 1 , , & , & & & % # # # # O O O                                                 + + + + # # # # # % % & & & & 1 1 , < 3 2 6 6 2 6 6 6 6 6 6 6 6 6 6 6 6 6 e 6 6 6 6 2 2 2 2 2 2 1 1 1 1 , & & & # % % # # # O O O X X X                                 b ~.].1.+ . o o + # # # # # % % b 0.e.e.e.e.e.e.tXtXtXtXtXtXtXtXtXtXtXtXtXtXtXtXtXtXtXtXtXtXtXtXtXtXtXtXtXtXtXtXtXtXtXtXtXtXtXtX",
"tXtXtXtXtXtXtXtXtXtXtXtXtXtXtXtXtXtXtXtXtXtXtXtXtXtXtXtXtXtXtXtXtXtXtXtXtXtXtXtXtXe.e.e.e.e.e.e.) e 6 6 6 6 6 6 2 6 6 2 6 F R.|.l.t , 1 1 , & & & & % % # # # # # O + +                                                 + + . + o # O # # % # % % & & , , , < , 1 2 2 2 6 2 2 6 6 6 2 6 6 6 6 6 6 6 6 6 2 2 2 2 2 1 1 1 1 1 & , , & & % & # # # O # O O X X X                               @ 2.].~.b       o o + O O # # # $ b 8.e.e.e.e.e.w.tXtXtXtXtXtXtXtXtXtXtXtXtXtXtXtXtXtXtXtXtXtXtXtXtXtXtXtXtXtXtXtXtXtXtXtXtXtXtXtXtX",
"tXtXtXtXtXtXtXtXtXtXtXtXtXtXtXtXtXtXtXtXtXtXtXtXtXtXtXtXtXtXtXtXtXtXtXtXtXtXtXtXtXtXe.e.e.e.e.e.e.J e 3 6 2 6 2 2 2 2 2 1 1 t l.|.Q.D , & & & & % % # # # # # O O O + +                     @ > - @ @ @                         o o # - 4 5 8 8 0 8 & & & , , , , 1 1 2 2 2 2 2 6 d f r < 6 6 6 2 2 2 2 2 2 1 1 1 1 1 , 3 d 8 & & & % % % # # # O O + + X X                               @ N.=XV.:       . . o + O O O O & D q.e.e.e.e.e.e.tXtXtXtXtXtXtXtXtXtXtXtXtXtXtXtXtXtXtXtXtXtXtXtXtXtXtXtXtXtXtXtXtXtXtXtXtXtXtXtXtXtX",
"tXtXtXtXtXtXtXtXtXtXtXtXtXtXtXtXtXtXtXtXtXtXtXtXtXtXtXtXtXtXtXtXtXtXtXtXtXtXtXtXtXtXtXe.e.e.e.e.e.e._ t 1 2 2 1 2 1 1 1 1 1 , 1 $.[.].w.7 % % % % # # # # # O O + + + X                     Y >X>X>X>X;X.Xh                     o O o 4.>X>X1X<X<X:XG.7 % & , , , , , 2 2 2 , 2 1  X3Xt.< < 1 1 1 1 2 1 1 1 1 1 , , 7 p.$X1X&X.XL # % # # # # O O O X X X                             + J [.].P @               + + + + % D e.e.e.e.e.e.e.tXtXtXtXtXtXtXtXtXtXtXtXtXtXtXtXtXtXtXtXtXtXtXtXtXtXtXtXtXtXtXtXtXtXtXtXtXtXtXtXtXtXtX",
"tXtXtXtXtXtXtXtXtXtXtXtXtXtXtXtXtXtXtXtXtXtXtXtXtXtXtXtXtXtXtXtXtXtXtXtXtXtXtXtXtXtXtXtXf.e.e.e.e.e.e.$.y 1 1 1 1 1 1 1 1 , = 1 & v A.=XH.b % % # # # # O O O + + +                         m.eX>X%X%X>X9X%X@                   X o o u.eX4X$X#X*X5XqXp.% & & & & , , , , , , 2 6 +X8Xp., < 1 1 1 1 1 1 1 1 1 1 , 1 .X0X6X;X1X0X<XL # # # # O O O X X X                             : M.|.K.x                       + & J f.e.e.e.e.e.e.tXtXtXtXtXtXtXtXtXtXtXtXtXtXtXtXtXtXtXtXtXtXtXtXtXtXtXtXtXtXtXtXtXtXtXtXtXtXtXtXtXtXtXtX",
"tXtXtXtXtXtXtXtXtXtXtXtXtXtXtXtXtXtXtXtXtXtXtXtXtXtXtXtXtXtXtXtXtXtXtXtXtXtXtXtXtXtXtXtXtXk.e.e.e.e.e.e.7.x < , 1 1 , 1 , & & , & % 3 6.'.'.7.4 # # # O O O + X X                           Y eX X. @ j >X6Xj                   X X X u.qX.X= - % F.qXoX& % % % & & & & & , & , 1 +XeXp., 1 1 , 1 1 , 1 1 , & , % 3.6X2X3.3 8 .XqX@X= # O O O O X X X                           @ J {.}.0.@                         ; #.e.e.e.e.e.e.f.tXtXtXtXtXtXtXtXtXtXtXtXtXtXtXtXtXtXtXtXtXtXtXtXtXtXtXtXtXtXtXtXtXtXtXtXtXtXtXtXtXtXtXtXtX",
"tXtXtXtXtXtXtXtXtXtXtXtXtXtXtXtXtXtXtXtXtXtXtXtXtXtXtXtXtXtXtXtXtXtXtXtXtXtXtXtXtXtXtXtXtXtXe.e.e.e.e.e.e.w.b , & , & & & & & & & # % % v C.=XR.D # O O O + + X                             y.9X X    @ %X9XI                         u.qX.XO O + 4.0X@X# % % % & & & & & & & & & oX8Xp.& , , , , , & , & & & & , XX0XF.% # # d oX X= O O O + X X X                           9 J.|.K.n   +                       5 7.e.e.e.e.e.e.f.tXtXtXtXtXtXtXtXtXtXtXtXtXtXtXtXtXtXtXtXtXtXtXtXtXtXtXtXtXtXtXtXtXtXtXtXtXtXtXtXtXtXtXtXtXtX",
"tXtXtXtXtXtXtXtXtXtXtXtXtXtXtXtXtXtXtXtXtXtXtXtXtXtXtXtXtXtXtXtXtXtXtXtXtXtXtXtXtXtXtXtXtXtXtXtXf.e.e.e.e.e.e.J 1 & & & & % % % % % # # # = #._.}.l.8 + + + X                               n.9X X    h >X5Xj                         5.qXXX: 4 5  X0Xn.# # % % % % % & % & & & & oX8Xp.% , % , & & & & % & % % 4 &X6XP # # # # $ # # O O + X X                           > q.[.[.2.@                         + n 0.e.e.e.e.e.f.e.tXtXtXtXtXtXtXtXtXtXtXtXtXtXtXtXtXtXtXtXtXtXtXtXtXtXtXtXtXtXtXtXtXtXtXtXtXtXtXtXtXtXtXtXtXtXtX",
"tXtXtXtXtXtXtXtXtXtXtXtXtXtXtXtXtXtXtXtXtXtXtXtXtXtXtXtXtXtXtXtXtXtXtXtXtXtXtXtXtXtXtXtXtXtXtXtXtXe.e.e.e.e.e.e.$.7 % % % % % % # % # # O # + 7 f.].[.7.: +                                 n.9X,X.XOX,X9X#X@                         y.0X6X1X1X<XrXoX: O # # # % # # % % % % % & +X8Xt.% % % % & % % % % % % % 8 :X6XL O # # O O O O + + X X X                       @ J ~.|.N.9                           @ J w.e.e.e.e.e.e.tXtXtXtXtXtXtXtXtXtXtXtXtXtXtXtXtXtXtXtXtXtXtXtXtXtXtXtXtXtXtXtXtXtXtXtXtXtXtXtXtXtXtXtXtXtXtXtXtX",
"tXtXtXtXtXtXtXtXtXtXtXtXtXtXtXtXtXtXtXtXtXtXtXtXtXtXtXtXtXtXtXtXtXtXtXtXtXtXtXtXtXtXtXtXtXtXtXtXtXtXe.e.e.e.e.e.e.2.n % % % % # # # # # # # O O O b J.|.E.J @                               n.9X5X3X3X>XOXh                           y.0X2X$X$X;XrX$X0 # # # # # % % % % % & & & oX8Xp.% % & & & & & % % % % % 4 &X6XK O # # # * = O O + X                       + G E.|.E.b .                           5 #.e.e.e.e.e.e.e.tXtXtXtXtXtXtXtXtXtXtXtXtXtXtXtXtXtXtXtXtXtXtXtXtXtXtXtXtXtXtXtXtXtXtXtXtXtXtXtXtXtXtXtXtXtXtXtXtXtX",
"tXtXtXtXtXtXtXtXtXtXtXtXtXtXtXtXtXtXtXtXtXtXtXtXtXtXtXtXtXtXtXtXtXtXtXtXtXtXtXtXtXtXtXtXtXtXtXtXtXtXtXe.e.e.e.e.e.e.w.H 1 % % % % % % # # # # # O + * H R.=XK.G +                           n.9X Xw q w @                             5.0X.X* * : #XqX4.O # % # % % % % & & & & & oX0Xr.% , & , & & & & & & % % 1 oX0Xi.O # # h #XoX: O + + .                 + M J.|.{.J @                             h 2.e.e.e.e.e.e.e.tXtXtXtXtXtXtXtXtXtXtXtXtXtXtXtXtXtXtXtXtXtXtXtXtXtXtXtXtXtXtXtXtXtXtXtXtXtXtXtXtXtXtXtXtXtXtXtXtXtXtX",
"tXtXtXtXtXtXtXtXtXtXtXtXtXtXtXtXtXtXtXtXtXtXtXtXtXtXtXtXtXtXtXtXtXtXtXtXtXtXtXtXtXtXtXtXtXtXtXtXtXtXtXtXe.e.e.e.e.e.e.e.#.x & & & # & # # & # # # # O + & #.E.|.T.J @                       n.9Xm.                                  X u.eX.XO O # .X0Xp.# % # & % & & & & & , , 1 OX9Xp., , , , , , , , , , , % % t.8X:XL = ; G.qX@X= O O O o o o o       O M C.|._.1.*                             ; J e.e.e.e.e.e.e.e.tXtXtXtXtXtXtXtXtXtXtXtXtXtXtXtXtXtXtXtXtXtXtXtXtXtXtXtXtXtXtXtXtXtXtXtXtXtXtXtXtXtXtXtXtXtXtXtXtXtXtXtX",
"tXtXtXtXtXtXtXtXtXtXtXtXtXtXtXtXtXtXtXtXtXtXtXtXtXtXtXtXtXtXtXtXtXtXtXtXtXtXtXtXtXtXtXtXtXtXtXtXtXtXtXtXtXtXe.e.e.e.e.e.e.0.V 6 & & & % & # # # # # # # O X ; #.E.=XE.#.-                   n.9Xm.                              X X X u.qX.X# # # .XqXn.# & & & & & & , , , , , 1 +XeXp., , , , , 2 , , , , , , , 3 +X9X3X@X&XrX<XP # O # # o o o o   * K H.|.{.2.:                             + g 2.e.e.e.e.e.e.w.tXtXtXtXtXtXtXtXtXtXtXtXtXtXtXtXtXtXtXtXtXtXtXtXtXtXtXtXtXtXtXtXtXtXtXtXtXtXtXtXtXtXtXtXtXtXtXtXtXtXtXtXtXtX",
"tXtXtXtXtXtXtXtXtXtXtXtXtXtXtXtXtXtXtXtXtXtXtXtXtXtXtXtXtXtXtXtXtXtXtXtXtXtXtXtXtXtXtXtXtXtXtXtXtXtXtXtXtXtXtXe.w.e.e.e.e.e.e.#.t , & & & & # # % # # O # O + X ; J R.=X~.q.5 +             Y 3Xm.                          X X X X X 5.4XG.# # # n.4X X& & & & & , , , 2 , 2 , 1 .X4Xt., 2 , 2 1 1 1 , , , , , , , 0 D.&X3X1X@XK # # # # # o o O 5 1.!.=X~.1.-                               - G e.e.e.e.e.e.e.e.tXtXtXtXtXtXtXtXtXtXtXtXtXtXtXtXtXtXtXtXtXtXtXtXtXtXtXtXtXtXtXtXtXtXtXtXtXtXtXtXtXtXtXtXtXtXtXtXtXtXtXtXtXtXtX",
"tXtXtXtXtXtXtXtXtXtXtXtXtXtXtXtXtXtXtXtXtXtXtXtXtXtXtXtXtXtXtXtXtXtXtXtXtXtXtXtXtXtXtXtXtXtXtXtXtXtXtXtXtXtXtXtXk.e.e.e.e.e.e.e.w.D 6 , & & & & % # # # # O # O + + * G J.}.[.M.b @         @ h @                           X X + + O = h 4 # # % 3 c x & & , , & , 2 , , , 2 2 3 f V t < 2 2 2 2 2 2 2 2 , 2 2 , 1 , & d d d = % % % % o # = V k._.=XT.J =                                 g 2.e.e.e.e.e.e.e.k.tXtXtXtXtXtXtXtXtXtXtXtXtXtXtXtXtXtXtXtXtXtXtXtXtXtXtXtXtXtXtXtXtXtXtXtXtXtXtXtXtXtXtXtXtXtXtXtXtXtXtXtXtXtXtXtX",
"tXtXtXtXtXtXtXtXtXtXtXtXtXtXtXtXtXtXtXtXtXtXtXtXtXtXtXtXtXtXtXtXtXtXtXtXtXtXtXtXtXtXtXtXtXtXtXtXtXtXtXtXtXtXtXtXtXtXf.e.e.e.e.e.e.e.7.x , , & % % % % % # # # O O O X   O g r.[.=XE.q.h @                               X X X X O O # O % # % % # & % & , , , , , , , 2 6 2 2 2 2 2 2 2 6 2 6 2 2 2 2 2 2 2 2 2 1 1 1 1 , , , & & % % = x 2.R.].'.N.D * X                             + ; #.e.e.e.e.e.e.e.e.tXtXtXtXtXtXtXtXtXtXtXtXtXtXtXtXtXtXtXtXtXtXtXtXtXtXtXtXtXtXtXtXtXtXtXtXtXtXtXtXtXtXtXtXtXtXtXtXtXtXtXtXtXtXtXtXtXtX",
"tXtXtXtXtXtXtXtXtXtXtXtXtXtXtXtXtXtXtXtXtXtXtXtXtXtXtXtXtXtXtXtXtXtXtXtXtXtXtXtXtXtXtXtXtXtXtXtXtXtXtXtXtXtXtXtXtXtXtXf.e.e.e.e.e.e.e.e.#.8 & % & & % % # # # O O O O + +   + : J K.}.}.J.#.: @                         X X . + # O O % # # % % & & , & , , < , 2 2 6 6 2 6 6 6 6 2 e 2 e 2 e 2 6 6 6 6 2 6 2 2 2 2 1 1 , , , & 1 x $.C.'.|.E.7.d # o + o o X                     + @ G e.e.e.e.e.e.e.e.k.tXtXtXtXtXtXtXtXtXtXtXtXtXtXtXtXtXtXtXtXtXtXtXtXtXtXtXtXtXtXtXtXtXtXtXtXtXtXtXtXtXtXtXtXtXtXtXtXtXtXtXtXtXtXtXtXtXtXtX",
"tXtXtXtXtXtXtXtXtXtXtXtXtXtXtXtXtXtXtXtXtXtXtXtXtXtXtXtXtXtXtXtXtXtXtXtXtXtXtXtXtXtXtXtXtXtXtXtXtXtXtXtXtXtXtXtXtXtXtXtXtXe.e.e.e.e.e.e.d.w._ 7 & & & % % % # # # O + O + + +     + g q.E.}.].J.1.g @                   X o O O # O # % % % & & & & , , , 3 , < 2 6 6 6 6 6 6 6 2 e 2 e e 2 2 e e 6 e 6 6 6 6 6 2 2 2 1 1 6 B 6.J.'.}._.k.D 3 # # # O O o o o .                 O b 7.e.e.e.e.e.e.e.k.tXtXtXtXtXtXtXtXtXtXtXtXtXtXtXtXtXtXtXtXtXtXtXtXtXtXtXtXtXtXtXtXtXtXtXtXtXtXtXtXtXtXtXtXtXtXtXtXtXtXtXtXtXtXtXtXtXtXtXtXtX",
"tXtXtXtXtXtXtXtXtXtXtXtXtXtXtXtXtXtXtXtXtXtXtXtXtXtXtXtXtXtXtXtXtXtXtXtXtXtXtXtXtXtXtXtXtXtXtXtXtXtXtXtXtXtXtXtXtXtXtXtXtXtX0.f.e.e.e.e.e.e.e.2.H 3 & % % % % # # # O + + + +           @ c q.K.}.].R.t.D :             X O O O # # # % # & & & , , , < 1 1 6 6 2 6 6 6 6 6 e 6 e e e e e e e e e 6 e 6 e 6 6 6 2 e v _ l.R.].=X{.M.) t & % % & # # # O # o o o               g #.e.e.e.e.e.e.e.e.0.tXtXtXtXtXtXtXtXtXtXtXtXtXtXtXtXtXtXtXtXtXtXtXtXtXtXtXtXtXtXtXtXtXtXtXtXtXtXtXtXtXtXtXtXtXtXtXtXtXtXtXtXtXtXtXtXtXtXtXtXtXtX",
"tXtXtXtXtXtXtXtXtXtXtXtXtXtXtXtXtXtXtXtXtXtXtXtXtXtXtXtXtXtXtXtXtXtXtXtXtXtXtXtXtXtXtXtXtXtXtXtXtXtXtXtXtXtXtXtXtXtXtXtXtXtXtXtX0.e.e.e.e.e.e.e.e.$.D 7 % % % # # # # O O + + +               + h 2.J.[.|.[.K.e.G 0 * + + + o # # # % % % & & , , , 2 < < 3 6 6 6 6 6 e e e e e e e e e e e y e e e 6 e e i A [ h.R.'.=X}.R.k.) t < & , & & & # % # # O O O O +         + c J e.e.e.e.e.e.e.e.0.tXtXtXtXtXtXtXtXtXtXtXtXtXtXtXtXtXtXtXtXtXtXtXtXtXtXtXtXtXtXtXtXtXtXtXtXtXtXtXtXtXtXtXtXtXtXtXtXtXtXtXtXtXtXtXtXtXtXtXtXtXtXtXtX",
"tXtXtXtXtXtXtXtXtXtXtXtXtXtXtXtXtXtXtXtXtXtXtXtXtXtXtXtXtXtXtXtXtXtXtXtXtXtXtXtXtXtXtXtXtXtXtXtXtXtXtXtXtXtXtXtXtXtXtXtXtXtXtXtXtXtXe.e.e.e.e.e.e.e.e.$.S 7 % # # # # O O O + +                     + > G e.K.[.=X].~.N.q.J n 8 = % % % % & & , , 3 < 3 6 < 6 6 6 e 6 e e e e e e y e e e y y f C / [ d.J.^.}.=X].!.B.6.S y 2 1 , < , , , & & & % % % # # # O +     + g J e.e.e.e.e.e.e.e.e.e.tXtXtXtXtXtXtXtXtXtXtXtXtXtXtXtXtXtXtXtXtXtXtXtXtXtXtXtXtXtXtXtXtXtXtXtXtXtXtXtXtXtXtXtXtXtXtXtXtXtXtXtXtXtXtXtXtXtXtXtXtXtXtXtXtX",
"tXtXtXtXtXtXtXtXtXtXtXtXtXtXtXtXtXtXtXtXtXtXtXtXtXtXtXtXtXtXtXtXtXtXtXtXtXtXtXtXtXtXtXtXtXtXtXtXtXtXtXtXtXtXtXtXtXtXtXtXtXtXtXtXtXtXtXe.w.e.e.e.e.e.e.e.e.$.b 7 % # # # # + O + +                           @ : b 7.V.^.].|.}._.R.C.k.7._ H B v i t r 7 7 e e r e e y f i i f p Z Q @.6.a.c.H.!.`.}.=X=X_.T.l.O.A i e 2 6 2 2 2 1 3 < , , , , & % % % # # O + + - g J e.e.e.e.e.e.e.e.e.e.tXtXtXtXtXtXtXtXtXtXtXtXtXtXtXtXtXtXtXtXtXtXtXtXtXtXtXtXtXtXtXtXtXtXtXtXtXtXtXtXtXtXtXtXtXtXtXtXtXtXtXtXtXtXtXtXtXtXtXtXtXtXtXtXtXtXtX",
"tXtXtXtXtXtXtXtXtXtXtXtXtXtXtXtXtXtXtXtXtXtXtXtXtXtXtXtXtXtXtXtXtXtXtXtXtXtXtXtXtXtXtXtXtXtXtXtXtXtXtXtXtXtXtXtXtXtXtXtXtXtXtXtXtXtXtXtXtXf.e.e.e.e.e.e.e.e.e.0.S 7 # # O # O + +                               X X O = 0 G 6.k.H.!.'.].=X|.].]._.{.!.R.W.T.H.A.U.U.T.W.Q.!.`.`.].}.=X=X=X'.).R.Z.g.O.) C i y e e e e e e e 6 6 6 6 1 < 1 , , & % % % # # % 3 n $.e.e.e.e.e.e.e.e.e.e.tXtXtXtXtXtXtXtXtXtXtXtXtXtXtXtXtXtXtXtXtXtXtXtXtXtXtXtXtXtXtXtXtXtXtXtXtXtXtXtXtXtXtXtXtXtXtXtXtXtXtXtXtXtXtXtXtXtXtXtXtXtXtXtXtXtXtXtXtX",
"tXtXtXtXtXtXtXtXtXtXtXtXtXtXtXtXtXtXtXtXtXtXtXtXtXtXtXtXtXtXtXtXtXtXtXtXtXtXtXtXtXtXtXtXtXtXtXtXtXtXtXtXtXtXtXtXtXtXtXtXtXtXtXtXtXtXtXtXtXtXtXk.w.e.e.e.e.e.e.e.e.w.J 8 = O O + + X                             o o # o o # # % = 3 t b H O.9.h.M.Z.K.R.E.!.!.!.~.!.!.!.Q.T.U.H.x.z.8.O.' Q C p i y u u y y u u y y y e e e 6 6 6 < 6 3 , < , & & % % , 7 D 0.e.e.e.e.e.e.e.e.e.e.tXtXtXtXtXtXtXtXtXtXtXtXtXtXtXtXtXtXtXtXtXtXtXtXtXtXtXtXtXtXtXtXtXtXtXtXtXtXtXtXtXtXtXtXtXtXtXtXtXtXtXtXtXtXtXtXtXtXtXtXtXtXtXtXtXtXtXtXtXtXtX",
"tXtXtXtXtXtXtXtXtXtXtXtXtXtXtXtXtXtXtXtXtXtXtXtXtXtXtXtXtXtXtXtXtXtXtXtXtXtXtXtXtXtXtXtXtXtXtXtXtXtXtXtXtXtXtXtXtXtXtXtXtXtXtXtXtXtXtXtXtXtXtXtXtXM.e.e.e.e.e.e.e.e.e.e.%.n = $ O X + +                       + o o o # # # # % & & & & , , 1 1 6 6 e y y i i z f a p i p i i i u s s s p p p p s p p s p u u i y y y y y e e e 6 6 6 < 2 < , , , 3 n $.e.e.e.e.e.e.e.e.e.e.k.tXtXtXtXtXtXtXtXtXtXtXtXtXtXtXtXtXtXtXtXtXtXtXtXtXtXtXtXtXtXtXtXtXtXtXtXtXtXtXtXtXtXtXtXtXtXtXtXtXtXtXtXtXtXtXtXtXtXtXtXtXtXtXtXtXtXtXtXtXtXtXtXtX",
"tXtXtXtXtXtXtXtXtXtXtXtXtXtXtXtXtXtXtXtXtXtXtXtXtXtXtXtXtXtXtXtXtXtXtXtXtXtXtXtXtXtXtXtXtXtXtXtXtXtXtXtXtXtXtXtXtXtXtXtXtXtXtXtXtXtXtXtXtXtXtXtXtXtXtXk.f.e.e.e.e.e.e.e.e.e.0.#.8 $ + +                       + o # o # # % % % & , 1 1 1 1 6 6 6 e 6 e r e y y i y i i i i a i a s s p p p p p p p p p i p p i u u u y y y e e e 6 6 < < 3 6 x #.w.e.e.e.e.e.e.e.e.e.e.M.tXtXtXtXtXtXtXtXtXtXtXtXtXtXtXtXtXtXtXtXtXtXtXtXtXtXtXtXtXtXtXtXtXtXtXtXtXtXtXtXtXtXtXtXtXtXtXtXtXtXtXtXtXtXtXtXtXtXtXtXtXtXtXtXtXtXtXtXtXtXtXtXtXtXtX",
"tXtXtXtXtXtXtXtXtXtXtXtXtXtXtXtXtXtXtXtXtXtXtXtXtXtXtXtXtXtXtXtXtXtXtXtXtXtXtXtXtXtXtXtXtXtXtXtXtXtXtXtXtXtXtXtXtXtXtXtXtXtXtXtXtXtXtXtXtXtXtXtXtXtXtXtXtXe.e.e.e.e.e.e.e.e.e.e.w.%.#.5 +                   + + o o # # # % % & & , 1 1 1 1 6 6 6 6 e e y y u u i i s s a i p a a a p a a p a a a p p p p p p p s s u y y y e e e e 6 7 k #.0.w.e.e.e.e.e.e.e.e.e.M.e.tXtXtXtXtXtXtXtXtXtXtXtXtXtXtXtXtXtXtXtXtXtXtXtXtXtXtXtXtXtXtXtXtXtXtXtXtXtXtXtXtXtXtXtXtXtXtXtXtXtXtXtXtXtXtXtXtXtXtXtXtXtXtXtXtXtXtXtXtXtXtXtXtXtXtXtXtX",
"tXtXtXtXtXtXtXtXtXtXtXtXtXtXtXtXtXtXtXtXtXtXtXtXtXtXtXtXtXtXtXtXtXtXtXtXtXtXtXtXtXtXtXtXtXtXtXtXtXtXtXtXtXtXtXtXtXtXtXtXtXtXtXtXtXtXtXtXtXtXtXtXtXtXtXtXtXtXtX7.f.e.e.e.e.e.e.e.e.e.e.e.$.#.n -           + + + + O O % % % % & & , < 1 1 6 6 6 e e e e y u u i s s p p p p p k a a k l l l k l a a a a a p p p i p i i u e e e t F %.7.w.e.e.e.e.e.e.e.e.e.e.f.0.tXtXtXtXtXtXtXtXtXtXtXtXtXtXtXtXtXtXtXtXtXtXtXtXtXtXtXtXtXtXtXtXtXtXtXtXtXtXtXtXtXtXtXtXtXtXtXtXtXtXtXtXtXtXtXtXtXtXtXtXtXtXtXtXtXtXtXtXtXtXtXtXtXtXtXtXtXtXtX",
"tXtXtXtXtXtXtXtXtXtXtXtXtXtXtXtXtXtXtXtXtXtXtXtXtXtXtXtXtXtXtXtXtXtXtXtXtXtXtXtXtXtXtXtXtXtXtXtXtXtXtXtXtXtXtXtXtXtXtXtXtXtXtXtXtXtXtXtXtXtXtXtXtXtXtXtXtXtXtXtXtXtXe.e.e.e.e.e.e.e.e.e.e.e.w.2.J D g +   + + + O O # # % % & & & < , 6 3 6 6 6 e e e e u i i i s s p p l p l l a l l l l l l l C a a a a a a p p i p s k / ] $.7.e.e.e.e.e.e.e.e.e.e.e.e.e.2.tXtXtXtXtXtXtXtXtXtXtXtXtXtXtXtXtXtXtXtXtXtXtXtXtXtXtXtXtXtXtXtXtXtXtXtXtXtXtXtXtXtXtXtXtXtXtXtXtXtXtXtXtXtXtXtXtXtXtXtXtXtXtXtXtXtXtXtXtXtXtXtXtXtXtXtXtXtXtXtXtX",
"tXtXtXtXtXtXtXtXtXtXtXtXtXtXtXtXtXtXtXtXtXtXtXtXtXtXtXtXtXtXtXtXtXtXtXtXtXtXtXtXtXtXtXtXtXtXtXtXtXtXtXtXtXtXtXtXtXtXtXtXtXtXtXtXtXtXtXtXtXtXtXtXtXtXtXtXtXtXtXtXtXtXtXtX0.0.e.e.e.e.e.e.e.e.e.e.e.e.0.$.J b n 4 % # O # # & & , , 3 < < < 6 e e e e y u u i s s k p p p l a l l l l l T l l l T l C l a l a l l W ] ' #.%.w.f.d.e.e.e.e.e.e.e.e.e.e.e.$.tXtXtXtXtXtXtXtXtXtXtXtXtXtXtXtXtXtXtXtXtXtXtXtXtXtXtXtXtXtXtXtXtXtXtXtXtXtXtXtXtXtXtXtXtXtXtXtXtXtXtXtXtXtXtXtXtXtXtXtXtXtXtXtXtXtXtXtXtXtXtXtXtXtXtXtXtXtXtXtXtXtXtXtX",
"tXtXtXtXtXtXtXtXtXtXtXtXtXtXtXtXtXtXtXtXtXtXtXtXtXtXtXtXtXtXtXtXtXtXtXtXtXtXtXtXtXtXtXtXtXtXtXtXtXtXtXtXtXtXtXtXtXtXtXtXtXtXtXtXtXtXtXtXtXtXtXtXtXtXtXtXtXtXtXtXtXtXtXtXtXtXtX0.0.e.e.e.e.e.e.e.e.e.e.e.e.e.e.7.#.D v v x 3 1 , , , 1 < 6 6 6 e y e y i i i p s p k l p l l l l l T l T T T T l T E W  .( ' _ $.7.e.e.e.e.e.e.e.e.e.e.e.e.e.e.e.0.tXtXtXtXtXtXtXtXtXtXtXtXtXtXtXtXtXtXtXtXtXtXtXtXtXtXtXtXtXtXtXtXtXtXtXtXtXtXtXtXtXtXtXtXtXtXtXtXtXtXtXtXtXtXtXtXtXtXtXtXtXtXtXtXtXtXtXtXtXtXtXtXtXtXtXtXtXtXtXtXtXtXtXtXtXtXtX",
"tXtXtXtXtXtXtXtXtXtXtXtXtXtXtXtXtXtXtXtXtXtXtXtXtXtXtXtXtXtXtXtXtXtXtXtXtXtXtXtXtXtXtXtXtXtXtXtXtXtXtXtXtXtXtXtXtXtXtXtXtXtXtXtXtXtXtXtXtXtXtXtXtXtXtXtXtXtXtXtXtXtXtXtXtXtXtXtXtXtXe.0.e.e.e.e.e.e.e.e.e.e.e.e.0.M.e.e.e.$.#.F V v v v B z t i u u i i i i k k a k l l l l l R T ~ (  .( ( ( ' ' %.7.d.e.e.e.e.e.e.e.e.e.e.e.e.e.e.e.e.0.e.tXtXtXtXtXtXtXtXtXtXtXtXtXtXtXtXtXtXtXtXtXtXtXtXtXtXtXtXtXtXtXtXtXtXtXtXtXtXtXtXtXtXtXtXtXtXtXtXtXtXtXtXtXtXtXtXtXtXtXtXtXtXtXtXtXtXtXtXtXtXtXtXtXtXtXtXtXtXtXtXtXtXtXtXtXtXtXtXtXtX",
"tXtXtXtXtXtXtXtXtXtXtXtXtXtXtXtXtXtXtXtXtXtXtXtXtXtXtXtXtXtXtXtXtXtXtXtXtXtXtXtXtXtXtXtXtXtXtXtXtXtXtXtXtXtXtXtXtXtXtXtXtXtXtXtXtXtXtXtXtXtXtXtXtXtXtXtXtXtXtXtXtXtXtXtXtXtXtXtXtXtXtXtXtXN.e.0.e.e.e.e.e.e.e.e.e.e.e.e.e.e.0.M.f.e.e.e.e.w.7.$._ ) / F / F F / W / / / ' ] $.$.%.&.e.e.f.e.e.e.e.e.e.e.e.e.e.e.e.e.e.e.e.e.e.e.w.e.k.tXtXtXtXtXtXtXtXtXtXtXtXtXtXtXtXtXtXtXtXtXtXtXtXtXtXtXtXtXtXtXtXtXtXtXtXtXtXtXtXtXtXtXtXtXtXtXtXtXtXtXtXtXtXtXtXtXtXtXtXtXtXtXtXtXtXtXtXtXtXtXtXtXtXtXtXtXtXtXtXtXtXtXtXtXtXtXtXtXtXtXtXtX",
"tXtXtXtXtXtXtXtXtXtXtXtXtXtXtXtXtXtXtXtXtXtXtXtXtXtXtXtXtXtXtXtXtXtXtXtXtXtXtXtXtXtXtXtXtXtXtXtXtXtXtXtXtXtXtXtXtXtXtXtXtXtXtXtXtXtXtXtXtXtXtXtXtXtXtXtXtXtXtXtXtXtXtXtXtXtXtXtXtXtXtXtXtXtXtXtXN.M.e.e.e.0.0.e.e.e.e.e.e.e.e.e.e.e.e.e.e.e.e.e.f.e.e.f.e.e.e.e.e.e.e.e.f.e.e.e.e.e.e.e.e.e.e.e.e.e.e.e.e.e.e.e.e.e.e.e.e.e.M.N.tXtXtXtXtXtXtXtXtXtXtXtXtXtXtXtXtXtXtXtXtXtXtXtXtXtXtXtXtXtXtXtXtXtXtXtXtXtXtXtXtXtXtXtXtXtXtXtXtXtXtXtXtXtXtXtXtXtXtXtXtXtXtXtXtXtXtXtXtXtXtXtXtXtXtXtXtXtXtXtXtXtXtXtXtXtXtXtXtXtXtXtXtXtXtXtX",
"tXtXtXtXtXtXtXtXtXtXtXtXtXtXtXtXtXtXtXtXtXtXtXtXtXtXtXtXtXtXtXtXtXtXtXtXtXtXtXtXtXtXtXtXtXtXtXtXtXtXtXtXtXtXtXtXtXtXtXtXtXtXtXtXtXtXtXtXtXtXtXtXtXtXtXtXtXtXtXtXtXtXtXtXtXtXtXtXtXtXtXtXtXtXtXtXtXtXtXtXM.M.M.e.0.e.e.e.e.e.e.e.e.e.e.e.e.e.e.e.e.e.e.e.e.e.e.e.e.e.e.e.e.e.e.e.e.e.e.e.e.e.e.e.e.e.e.e.e.e.e.e.e.f.M.k.tXtXtXtXtXtXtXtXtXtXtXtXtXtXtXtXtXtXtXtXtXtXtXtXtXtXtXtXtXtXtXtXtXtXtXtXtXtXtXtXtXtXtXtXtXtXtXtXtXtXtXtXtXtXtXtXtXtXtXtXtXtXtXtXtXtXtXtXtXtXtXtXtXtXtXtXtXtXtXtXtXtXtXtXtXtXtXtXtXtXtXtXtXtXtXtXtXtXtXtX",
"tXtXtXtXtXtXtXtXtXtXtXtXtXtXtXtXtXtXtXtXtXtXtXtXtXtXtXtXtXtXtXtXtXtXtXtXtXtXtXtXtXtXtXtXtXtXtXtXtXtXtXtXtXtXtXtXtXtXtXtXtXtXtXtXtXtXtXtXtXtXtXtXtXtXtXtXtXtXtXtXtXtXtXtXtXtXtXtXtXtXtXtXtXtXtXtXtXtXtXtXtXtXtXtXtXe.M.M.e.e.e.e.e.e.e.e.e.e.e.e.e.e.e.e.e.e.e.e.e.e.e.e.e.e.e.e.e.e.e.e.e.e.e.e.e.e.f.f.k.k.e.tXtXtXtXtXtXtXtXtXtXtXtXtXtXtXtXtXtXtXtXtXtXtXtXtXtXtXtXtXtXtXtXtXtXtXtXtXtXtXtXtXtXtXtXtXtXtXtXtXtXtXtXtXtXtXtXtXtXtXtXtXtXtXtXtXtXtXtXtXtXtXtXtXtXtXtXtXtXtXtXtXtXtXtXtXtXtXtXtXtXtXtXtXtXtXtXtXtXtXtXtXtXtXtXtX",
"tXtXtXtXtXtXtXtXtXtXtXtXtXtXtXtXtXtXtXtXtXtXtXtXtXtXtXtXtXtXtXtXtXtXtXtXtXtXtXtXtXtXtXtXtXtXtXtXtXtXtXtXtXtXtXtXtXtXtXtXtXtXtXtXtXtXtXtXtXtXtXtXtXtXtXtXtXtXtXtXtXtXtXtXtXtXtXtXtXtXtXtXtXtXtXtXtXtXtXtXtXtXtXtXtXtXtXtXtXtXtX#.0.f.f.f.f.f.f.f.f.e.e.e.e.e.e.e.e.e.e.e.e.e.e.e.e.f.f.f.f.k.e.e.$.tXtXtXtXtXtXtXtXtXtXtXtXtXtXtXtXtXtXtXtXtXtXtXtXtXtXtXtXtXtXtXtXtXtXtXtXtXtXtXtXtXtXtXtXtXtXtXtXtXtXtXtXtXtXtXtXtXtXtXtXtXtXtXtXtXtXtXtXtXtXtXtXtXtXtXtXtXtXtXtXtXtXtXtXtXtXtXtXtXtXtXtXtXtXtXtXtXtXtXtXtXtXtXtXtXtXtXtXtXtXtX",
"tXtXtXtXtXtXtXtXtXtXtXtXtXtXtXtXtXtXtXtXtXtXtXtXtXtXtXtXtXtXtXtXtXtXtXtXtXtXtXtXtXtXtXtXtXtXtXtXtXtXtXtXtXtXtXtXtXtXtXtXtXtXtXtXtXtXtXtXtXtXtXtXtXtXtXtXtXtXtXtXtXtXtXtXtXtXtXtXtXtXtXtXtXtXtXtXtXtXtXtXtXtXtXtXtXtXtXtXtXtXtXtXtXtXtXtXtXtXtXtXtXtXJ J J #.#.$.$.$.#.J J _ tXtXtXtXtXtXtXtXtXtXtXtXtXtXtXtXtXtXtXtXtXtXtXtXtXtXtXtXtXtXtXtXtXtXtXtXtXtXtXtXtXtXtXtXtXtXtXtXtXtXtXtXtXtXtXtXtXtXtXtXtXtXtXtXtXtXtXtXtXtXtXtXtXtXtXtXtXtXtXtXtXtXtXtXtXtXtXtXtXtXtXtXtXtXtXtXtXtXtXtXtXtXtXtXtXtXtXtXtXtXtXtXtXtXtXtXtXtXtXtXtXtX",
"tXtXtXtXtXtXtXtXtXtXtXtXtXtXtXtXtXtXtXtXtXtXtXtXtXtXtXtXtXtXtXtXtXtXtXtXtXtXtXtXtXtXtXtXtXtXtXtXtXtXtXtXtXtXtXtXtXtXtXtXtXtXtXtXtXtXtXtXtXtXtXtXtXtXtXtXtXtXtXtXtXtXtXtXtXtXtXtXtXtXtXtXtXtXtXtXtXtXtXtXtXtXtXtXtXtXtXtXtXtXtXtXtXtXtXtXtXtXtXtXtXtXtXtXtXtXtXtXtXtXtXtXtXtXtXtXtXtXtXtXtXtXtXtXtXtXtXtXtXtXtXtXtXtXtXtXtXtXtXtXtXtXtXtXtXtXtXtXtXtXtXtXtXtXtXtXtXtXtXtXtXtXtXtXtXtXtXtXtXtXtXtXtXtXtXtXtXtXtXtXtXtXtXtXtXtXtXtXtXtXtXtXtXtXtXtXtXtXtXtXtXtXtXtXtXtXtXtXtXtXtXtXtXtXtXtXtXtXtXtXtXtXtXtXtXtXtXtXtXtXtXtXtXtXtXtX",
"tXtXtXtXtXtXtXtXtXtXtXtXtXtXtXtXtXtXtXtXtXtXtXtXtXtXtXtXtXtXtXtXtXtXtXtXtXtXtXtXtXtXtXtXtXtXtXtXtXtXtXtXtXtXtXtXtXtXtXtXtXtXtXtXtXtXtXtXtXtXtXtXtXtXtXtXtXtXtXtXtXtXtXtXtXtXtXtXtXtXtXtXtXtXtXtXtXtXtXtXtXtXtXtXtXtXtXtXtXtXtXtXtXtXtXtXtXtXtXtXtXtXtXtXtXtXtXtXtXtXtXtXtXtXtXtXtXtXtXtXtXtXtXtXtXtXtXtXtXtXtXtXtXtXtXtXtXtXtXtXtXtXtXtXtXtXtXtXtXtXtXtXtXtXtXtXtXtXtXtXtXtXtXtXtXtXtXtXtXtXtXtXtXtXtXtXtXtXtXtXtXtXtXtXtXtXtXtXtXtXtXtXtXtXtXtXtXtXtXtXtXtXtXtXtXtXtXtXtXtXtXtXtXtXtXtXtXtXtXtXtXtXtXtXtXtXtXtXtXtXtXtXtXtXtXtX",
"tXtXtXtXtXtXtXtXtXtXtXtXtXtXtXtXtXtXtXtXtXtXtXtXtXtXtXtXtXtXtXtXtXtXtXtXtXtXtXtXtXtXtXtXtXtXtXtXtXtXtXtXtXtXtXtXtXtXtXtXtXtXtXtXtXtXtXtXtXtXtXtXtXtXtXtXtXtXtXtXtXtXtXtXtXtXtXtXtXtXtXtXtXtXtXtXtXtXtXtXtXtXtXtXtXtXtXtXtXtXtXtXtXtXtXtXtXtXtXtXtXtXtXtXtXtXtXtXtXtXtXtXtXtXtXtXtXtXtXtXtXtXtXtXtXtXtXtXtXtXtXtXtXtXtXtXtXtXtXtXtXtXtXtXtXtXtXtXtXtXtXtXtXtXtXtXtXtXtXtXtXtXtXtXtXtXtXtXtXtXtXtXtXtXtXtXtXtXtXtXtXtXtXtXtXtXtXtXtXtXtXtXtXtXtXtXtXtXtXtXtXtXtXtXtXtXtXtXtXtXtXtXtXtXtXtXtXtXtXtXtXtXtXtXtXtXtXtXtXtXtXtXtXtXtXtX",
"tXtXtXtXtXtXtXtXtXtXtXtXtXtXtXtXtXtXtXtXtXtXtXtXtXtXtXtXtXtXtXtXtXtXtXtXtXtXtXtXtXtXtXtXtXtXtXtXtXtXtXtXtXtXtXtXtXtXtXtXtXtXtXtXtXtXtXtXtXtXtXtXtXtXtXtXtXtXtXtXtXtXtXtXtXtXtXtXtXtXtXtXtXtXtXtXtXtXtXtXtXtXtXtXtXtXtXtXtXtXtXtXtXtXtXtXtXtXtXtXtXtXtXtXtXtXtXtXtXtXtXtXtXtXtXtXtXtXtXtXtXtXtXtXtXtXtXtXtXtXtXtXtXtXtXtXtXtXtXtXtXtXtXtXtXtXtXtXtXtXtXtXtXtXtXtXtXtXtXtXtXtXtXtXtXtXtXtXtXtXtXtXtXtXtXtXtXtXtXtXtXtXtXtXtXtXtXtXtXtXtXtXtXtXtXtXtXtXtXtXtXtXtXtXtXtXtXtXtXtXtXtXtXtXtXtXtXtXtXtXtXtXtXtXtXtXtXtXtXtXtXtXtXtXtXtX",
"tXtXtXtXtXtXtXtXtXtXtXtXtXtXtXtXtXtXtXtXtXtXtXtXtXtXtXtXtXtXtXtXtXtXtXtXtXtXtXtXtXtXtXtXtXtXtXtXtXtXtXtXtXtXtXtXtXtXtXtXtXtXtXtXtXtXtXtXtXtXtXtXtXtXtXtXtXtXtXtXtXtXtXtXtXtXtXtXtXtXtXtXtXtXtXtXtXtXtXtXtXtXtXtXtXtXtXtXtXtXtXtXtXtXtXtXtXtXtXtXtXtXtXtXtXtXtXtXtXtXtXtXtXtXtXtXtXtXtXtXtXtXtXtXtXtXtXtXtXtXtXtXtXtXtXtXtXtXtXtXtXtXtXtXtXtXtXtXtXtXtXtXtXtXtXtXtXtXtXtXtXtXtXtXtXtXtXtXtXtXtXtXtXtXtXtXtXtXtXtXtXtXtXtXtXtXtXtXtXtXtXtXtXtXtXtXtXtXtXtXtXtXtXtXtXtXtXtXtXtXtXtXtXtXtXtXtXtXtXtXtXtXtXtXtXtXtXtXtXtXtXtXtXtXtXtX"
};
