/* XPM */
static char *bitcoin128[] = {
/* columns rows colors chars-per-pixel */
"128 128 210 2 ",
"   c #1C4A061333BF",
".  c #1EAB082C3669",
"X  c #1E7E074E388D",
"o  c #1F1E07E0393C",
"O  c #15EA00002D19",
"+  c #20490A153781",
"@  c #2127093A3CF3",
"#  c #202F07273EA4",
"$  c #2725116C3DFB",
"%  c #247B0B3443D8",
"&  c #28090F394390",
"*  c #270C0CB9492B",
"=  c #290B0E084CEA",
"-  c #2ADF12594529",
";  c #2D7F17CA44C7",
":  c #2C4E121C4B4A",
">  c #313A16944D13",
",  c #33401BBE4CA4",
"<  c #30061AB0468F",
"1  c #2AF80F2650FD",
"2  c #2D09108954C0",
"3  c #2F1B11C4590C",
"4  c #315E1579543D",
"5  c #35E31A72541C",
"6  c #39981D7056B0",
"7  c #313613275CE5",
"8  c #3568188059E6",
"9  c #39DF1CC65BD8",
"0  c #363C21024CBA",
"q  c #391A23F54FBA",
"w  c #39FA23E852E5",
"e  c #3E0D28BA5520",
"r  c #3D9C21CC5C6A",
"t  c #348E152A63C6",
"y  c #3749182563F8",
"u  c #3A761B7463EA",
"i  c #372E16BD692B",
"p  c #382F175A6B2D",
"a  c #39BF188E6D61",
"s  c #3C911A1F73B3",
"d  c #3F321BBF7902",
"f  c #3A4A1784720B",
"g  c #3E8F214763CF",
"h  c #408622BD5EAA",
"j  c #42732D055A3F",
"k  c #40CB2BD25774",
"l  c #45F5309F5DD9",
"z  c #40531E4C73B9",
"x  c #413A1D117CCD",
"c  c #433B2456642A",
"v  c #45212AC264F6",
"b  c #439D236B6B71",
"n  c #46D22A5D6A36",
"m  c #4B3F2BFE6D93",
"M  c #482D286E67AF",
"N  c #4B1235FE62A7",
"B  c #4D2C368B684C",
"V  c #53063E3569DD",
"C  c #50CD3C0A6719",
"Z  c #445422897421",
"A  c #48AB26837522",
"S  c #4C772ADC73B8",
"D  c #45A022577B6F",
"F  c #496926027AFE",
"G  c #4D112A187BE8",
"H  c #466E285B7390",
"J  c #50932EF57387",
"K  c #52732EDD7D43",
"L  c #4DAF32D7732D",
"P  c #4F4D32D87906",
"I  c #538432A67545",
"U  c #557333137BBC",
"Y  c #597236087D96",
"T  c #5B133A667E78",
"R  c #540A3B89747D",
"E  c #56D241AD6EAC",
"W  c #5DAF482E76F3",
"Q  c #63454DF27C5C",
"!  c #660751F47CE0",
"~  c #689E54AD7EA6",
"^  c #44111EC9829A",
"/  c #463120358657",
"(  c #49F124BE8402",
")  c #4E3C293E8425",
"_  c #474A20C2891A",
"`  c #496822308CC8",
"'  c #4F7128E48C24",
"]  c #51E32CC184E1",
"[  c #53172CBE8AF0",
"{  c #5598337A849F",
"}  c #5A1B35698386",
"|  c #5E103A1783F3",
" . c #5608321A8A6D",
".. c #5A7934408BE1",
"X. c #5BEC396B8BE1",
"o. c #577337E7892E",
"O. c #4CC7243693C9",
"+. c #4F6525D39907",
"@. c #53E62C1092E8",
"#. c #510326D99C23",
"$. c #538F29189E34",
"%. c #54662AB49A87",
"&. c #5B6933D293C2",
"*. c #5EBC3A4E91B3",
"=. c #5C9232FD9CCC",
"-. c #56DB2FB89153",
";. c #61673CA78659",
":. c #630A3D528C6D",
">. c #63A73C4C9342",
",. c #64D53C279B34",
"<. c #64C43B3B9D64",
"1. c #541728D5A1E7",
"2. c #5B232F8CA5E8",
"3. c #5F12346CA351",
"4. c #65B83AACA76C",
"5. c #5FBE44E7869B",
"6. c #661041338CC1",
"7. c #698743518F75",
"8. c #603B4773821D",
"9. c #6C5F54768BB8",
"0. c #6FB258AC8D67",
"q. c #6A7655098410",
"w. c #71BB5CD38AA8",
"e. c #66F840719496",
"r. c #6C11447A9496",
"t. c #6C8B4A0C93B2",
"y. c #6C6B443C9B9B",
"u. c #6DA24AF59AFE",
"i. c #7076474E9A9B",
"p. c #755D4BC39D98",
"a. c #7050487C9783",
"s. c #72DB5B989165",
"d. c #75FC56F79DB3",
"f. c #6D7B4FF19BC3",
"g. c #79DB64FE92AD",
"h. c #781A64CB8E35",
"j. c #6CE9435FA399",
"k. c #6DAB42B7A9E6",
"l. c #709946C3A636",
"z. c #74934BC4A24B",
"x. c #78B74F09A3B9",
"c. c #71AB4669ACA9",
"v. c #75094A5DAB61",
"b. c #798C4F12AC2B",
"n. c #7B6D52A3A4C3",
"m. c #7D9653CFAAAA",
"M. c #78BD5C79A49C",
"N. c #765549E9B353",
"B. c #793E4C89B59A",
"V. c #730245DDB537",
"C. c #7F0A53A4B221",
"Z. c #7F2A51E6BA21",
"A. c #81436D32988A",
"S. c #8475723F98B3",
"D. c #812356FBAD93",
"F. c #833F5924AE1E",
"G. c #823856E3B2FB",
"H. c #84FE59AAB3FC",
"J. c #831855E9BB32",
"K. c #866A5956BBF6",
"L. c #89F65D2FBBF9",
"P. c #88645CB3B6BF",
"I. c #84516BFCA6C0",
"U. c #8DD47B09A39C",
"Y. c #886A7282A4D1",
"T. c #90DC7EB7A53F",
"R. c #92647EC3A9F7",
"E. c #8FD4764DB682",
"W. c #8C855DFBC469",
"Q. c #8A2B5B14C5E6",
"!. c #8EC76079C442",
"~. c #91EA6240CB30",
"^. c #90D761FBC756",
"/. c #957F8320AA9E",
"(. c #971D858FAAF6",
"). c #99B78516B43B",
"_. c #9A4C822BBE48",
"`. c #A1AB8DD7B973",
"'. c #A0518E9DB511",
"]. c #A66392BCBDF6",
"[. c #A92F96FCBDCC",
"{. c #A3E192C8B75D",
"}. c #A93594F9C346",
"|. c #ADB59B12C3BF",
" X c #AB0395B3C935",
".X c #AC6B9741C919",
"XX c #B292A1FAC5C9",
"oX c #B5F5A3C3CBB7",
"OX c #B9A7A86DCE32",
"+X c #BDF4AC3FD37D",
"@X c #B901A50FD3D9",
"#X c #C418B42DD6C7",
"$X c #C570B38CDC63",
"%X c #CBADBC06DE2F",
"&X c #C050AE8BD749",
"*X c #CE77BE3DE272",
"=X c #C923B6E5E1C5",
"-X c #D0DABF97E7A1",
";X c #D408C452E71E",
":X c #D6D5C676EBA0",
">X c #D7DDC893EA45",
",X c #DB2ACB94EE78",
"<X c #DE41CEA2F1D0",
"1X c #E01BD144F1F1",
"2X c #E6D3D840F86A",
"3X c #E6E6D85AF875",
"4X c #E6E7D856F87D",
"5X c #E704D87AF88E",
"6X c #E979DB16FACC",
"7X c None",
/* pixels */
"7X7X7X7X7X7X7X7X7X7X7X7X7X7X7X7X7X7X7X7X7X7X7X7X7X7X7X7X7X7X7X7X7X7X7X7X7X7X7X7X7X7X7X7X7X7X7X7X7X7X7X7X7X7X7X7X7X7X7X7X7X7X7X7X7X7X7X7X7X7X7X7X7X7X7X7X7X7X7X7X7X7X7X7X7X7X7X7X7X7X7X7X7X7X7X7X7X7X7X7X7X7X7X7X7X7X7X7X7X7X7X7X7X7X7X7X7X7X7X7X7X7X7X7X7X7X7X7X",
"7X7X7X7X7X7X7X7X7X7X7X7X7X7X7X7X7X7X7X7X7X7X7X7X7X7X7X7X7X7X7X7X7X7X7X7X7X7X7X7X7X7X7X7X7X7X7X7X7X7X7X7X7X7X7X7X7X7X7X7X7X7X7X7X7X7X7X7X7X7X7X7X7X7X7X7X7X7X7X7X7X7X7X7X7X7X7X7X7X7X7X7X7X7X7X7X7X7X7X7X7X7X7X7X7X7X7X7X7X7X7X7X7X7X7X7X7X7X7X7X7X7X7X7X7X7X7X7X",
"7X7X7X7X7X7X7X7X7X7X7X7X7X7X7X7X7X7X7X7X7X7X7X7X7X7X7X7X7X7X7X7X7X7X7X7X7X7X7X7X7X7X7X7X7X7X7X7X7X7X7X7X7X7X7X7X7X7X7X7X7X7X7X7X7X7X7X7X7X7X7X7X7X7X7X7X7X7X7X7X7X7X7X7X7X7X7X7X7X7X7X7X7X7X7X7X7X7X7X7X7X7X7X7X7X7X7X7X7X7X7X7X7X7X7X7X7X7X7X7X7X7X7X7X7X7X7X7X",
"7X7X7X7X7X7X7X7X7X7X7X7X7X7X7X7X7X7X7X7X7X7X7X7X7X7X7X7X7X7X7X7X7X7X7X7X7X7X7X7X7X7X7X7X7X7X7X7X7X7X7X7X7X7X7Xp.n.p.p.p.p.p.p.p.p.p.p.p.p.p.p.x.p.r.7X7X7X7X7X7X7X7X7X7X7X7X7X7X7X7X7X7X7X7X7X7X7X7X7X7X7X7X7X7X7X7X7X7X7X7X7X7X7X7X7X7X7X7X7X7X7X7X7X7X7X7X7X7X",
"7X7X7X7X7X7X7X7X7X7X7X7X7X7X7X7X7X7X7X7X7X7X7X7X7X7X7X7X7X7X7X7X7X7X7X7X7X7X7X7X7X7X7X7X7X7X7X7X7X7Xp.p.p.p.p.p.p.p.p.p.p.p.p.i.p.p.p.p.p.p.p.p.p.p.p.p.p.x.p.7X7X7X7X7X7X7X7X7X7X7X7X7X7X7X7X7X7X7X7X7X7X7X7X7X7X7X7X7X7X7X7X7X7X7X7X7X7X7X7X7X7X7X7X7X7X7X7X7X",
"7X7X7X7X7X7X7X7X7X7X7X7X7X7X7X7X7X7X7X7X7X7X7X7X7X7X7X7X7X7X7X7X7X7X7X7X7X7X7X7X7X7X7X7X7X7Xx.p.p.p.p.p.p.p.r.7.;.| K M c b c b b b b b S Y ;.:.>.a.p.p.p.p.p.p.p.x.7X7X7X7X7X7X7X7X7X7X7X7X7X7X7X7X7X7X7X7X7X7X7X7X7X7X7X7X7X7X7X7X7X7X7X7X7X7X7X7X7X7X7X7X7X7X",
"7X7X7X7X7X7X7X7X7X7X7X7X7X7X7X7X7X7X7X7X7X7X7X7X7X7X7X7X7X7X7X7X7X7X7X7X7X7X7X7X7X7X7Xp.p.p.p.p.p.p.7.I c 6 : $ % @ % % % * = 1 = = 1 3 3 7 7 7 9 y Z S | >.r.p.p.p.p.p.p.7X7X7X7X7X7X7X7X7X7X7X7X7X7X7X7X7X7X7X7X7X7X7X7X7X7X7X7X7X7X7X7X7X7X7X7X7X7X7X7X7X7X7X",
"7X7X7X7X7X7X7X7X7X7X7X7X7X7X7X7X7X7X7X7X7X7X7X7X7X7X7X7X7X7X7X7X7X7X7X7X7X7X7X7Xp.p.p.p.p.p.r.I c : +         # # % % * = 1 1 3 3 7 7 7 7 7 7 7 7 3 3 3 4 8 u J Y r.p.p.p.p.p.p.7X7X7X7X7X7X7X7X7X7X7X7X7X7X7X7X7X7X7X7X7X7X7X7X7X7X7X7X7X7X7X7X7X7X7X7X7X7X7X7X",
"7X7X7X7X7X7X7X7X7X7X7X7X7X7X7X7X7X7X7X7X7X7X7X7X7X7X7X7X7X7X7X7X7X7X7X7X7X7Xp.p.p.p.p.r.U w $               # @ % % * = = 1 1 1 3 3 7 t 7 t t t t t 7 7 7 3 3 1 2 4 c U e.p.p.p.p.p.7X7X7X7X7X7X7X7X7X7X7X7X7X7X7X7X7X7X7X7X7X7X7X7X7X7X7X7X7X7X7X7X7X7X7X7X7X7X",
"7X7X7X7X7X7X7X7X7X7X7X7X7X7X7X7X7X7X7X7X7X7X7X7X7X7X7X7X7X7X7X7X7X7X7X7Xp.p.p.p.p.;.c -                   + + % : 9 b A { } :.>.>.>.>...] K Z a i i t t t 7 7 3 3 = 1 = 5 b ;.a.p.x.p.p.7X7X7X7X7X7X7X7X7X7X7X7X7X7X7X7X7X7X7X7X7X7X7X7X7X7X7X7X7X7X7X7X7X7X7X7X",
"7X7X7X7X7X7X7X7X7X7X7X7X7X7X7X7X7X7X7X7X7X7X7X7X7X7X7X7X7X7X7X7X7X7Xp.p.p.p.i.| h = # @ +             $ h Y r.x.D.F.D.x.z.l.i.j.j.l.z.b.G.J.L.L.G.x.,.] z i t 3 3 3 2 = = % & 8 U r.p.p.p.p.7X7X7X7X7X7X7X7X7X7X7X7X7X7X7X7X7X7X7X7X7X7X7X7X7X7X7X7X7X7X7X7X7X7X",
"7X7X7X7X7X7X7X7X7X7X7X7X7X7X7X7X7X7X7X7X7X7X7X7X7X7X7X7X7X7X7X7Xp.p.p.p.i.| u 2 * % % # X     + , T a.D.p.7.Y b 9 8 7 3 7 7 t t t t p a s s x F [ ,.x.J.L.G.,.G y 3 3 2 = = % % @ , I r.p.p.p.p.7X7X7X7X7X7X7X7X7X7X7X7X7X7X7X7X7X7X7X7X7X7X7X7X7X7X7X7X7X7X7X7X",
"7X7X7X7X7X7X7X7X7X7X7X7X7X7X7X7X7X7X7X7X7X7X7X7X7X7X7X7X7X7X7Xp.p.p.p.:.b 7 3 = 1 * % % % r 5.n.D.T h : @ @ % * = 1 3 7 7 t t p a a s d d d s d s f a s F [ i.H.P.i.G 7 = = = % % + + > I p.p.p.p.7X7X7X7X7X7X7X7X7X7X7X7X7X7X7X7X7X7X7X7X7X7X7X7X7X7X7X7X7X7X7X",
"7X7X7X7X7X7X7X7X7X7X7X7X7X7X7X7X7X7X7X7X7X7X7X7X7X7X7X7X7Xp.p.p.p.e.G p t 7 3 3 1 * 5 Y m.m.T 5 +   + + @ * * = 1 3 3 7 t i i a d s d d x x x x x x x d s p a a F e.G.H.:.u * % % @     + 5 ;.p.p.p.p.7X7X7X7X7X7X7X7X7X7X7X7X7X7X7X7X7X7X7X7X7X7X7X7X7X7X7X7X7X",
"7X7X7X7X7X7X7X7X7X7X7X7X7X7X7X7X7X7X7X7X7X7X7X7X7X7X7X7Xp.p.p.i. .z p i t t 7 3 b r.G.i.g &         + + % % = 1 1 3 7 t t i s s d d d x ^ ^ ^ ^ x x x x d s s p t t i A i.H.r.c % # #       + M r.p.p.p.7X7X7X7X7X7X7X7X7X7X7X7X7X7X7X7X7X7X7X7X7X7X7X7X7X7X7X7X",
"7X7X7X7X7X7X7X7X7X7X7X7X7X7X7X7X7X7X7X7X7X7X7X7X7X7X7Xp.p.p.e.) d s s p t t Z p.H.>.u % @ o X       + @ % * = 1 3 7 t t i a s s s x ^ ^ _ ^ _ _ ^ ^ x x x d d a p i 7 7 7 u :.H.a.9 #         @ 8 ;.p.p.p.7X7X7X7X7X7X7X7X7X7X7X7X7X7X7X7X7X7X7X7X7X7X7X7X7X7X7X",
"7X7X7X7X7X7X7X7X7X7X7X7X7X7X7X7X7X7X7X7X7X7X7X7X7Xp.p.p.p.,.^ ^ d d s a d l.L.e.g = = * * o . X     o % % * = 2 3 3 t i a a d d x ^ / / _ _ ` ` ^ _ ^ ^ ^ x d s i i t t 3 3 = 4 | H.7.:       # @ = J i.p.p.p.7X7X7X7X7X7X7X7X7X7X7X7X7X7X7X7X7X7X7X7X7X7X7X7X7X",
"7X7X7X7X7X7X7X7X7X7X7X7X7X7X7X7X7X7X7X7X7X7X7X7Xp.p.p.i.&.^ ^ ^ d d d e.!.z.d 3 3 2 = * * @ o X   . o @ * = 2 2 3 3 t i a a d d x / _ _ ` O.` O.O.` ` ^ ^ x d d s i t t 7 3 1 = % 2 6.F.I +   @ % * = b r.x.p.p.7X7X7X7X7X7X7X7X7X7X7X7X7X7X7X7X7X7X7X7X7X7X7X7X",
"7X7X7X7X7X7X7X7X7X7X7X7X7X7X7X7X7X7X7X7X7X7X7Xp.p.p.y.@.O.` ^ ^ ^ [ H.Z.] i t 3 3 2 = = * o o X   o @ * * * = 2 3 t t p a d d D ^ / _ O.O.O.O.+.O.O.` _ ^ ^ d d s a t t 7 3 3 = * % o 6 p.d.6 @ % * = 1 u :.p.p.p.7X7X7X7X7X7X7X7X7X7X7X7X7X7X7X7X7X7X7X7X7X7X7X",
"7X7X7X7X7X7X7X7X7X7X7X7X7X7X7X7X7X7X7X7X7X7Xp.p.p.y.$.#.O.O.O.O.k.!.j.d p p t t 3 3 1 = * % o X   . o o * = 2 3 3 t i p a d d d / _ ` O.O.+.#.$.+.O.O.` _ ^ x d s i i t 7 3 3 = = % % X . L F.| * * = 1 2 y } p.p.p.7X7X7X7X7X7X7X7X7X7X7X7X7X7X7X7X7X7X7X7X7X7X",
"7X7X7X7X7X7X7X7X7X7X7X7X7X7X7X7X7X7X7X7X7Xp.p.p.<.1.1.#.#.O.+.J.!.[ d d a a y 7 3 3 1 = * @ @ X   o @ * * = = 2 t t t p s s d / ^ ` O.O.#.$.1.$.$.O.O.` _ ^ x d s s a t 7 3 3 = = % % X     5 p.p.8 = 2 3 7 i } p.p.p.7X7X7X7X7X7X7X7X7X7X7X7X7X7X7X7X7X7X7X7X7X",
"7X7X7X7X7X7X7X7X7X7X7X7X7X7X7X7X7X7X7X7Xp.p.p.,.1.1.1.$.+.3.!.B.` ^ d s a a t t 3 3 1 = * * @ .   o o % * = 2 3 3 t i p a d d / ^ ^ O.O.#.$.1.1.$.+.O.` _ / x x s a i t t 3 3 1 * * % X X     - ;.F.m 1 3 7 t p } p.p.p.7X7X7X7X7X7X7X7X7X7X7X7X7X7X7X7X7X7X7X7X",
"7X7X7X7X7X7X7X7X7X7X7X7X7X7X7X7X7X7X7Xp.p.p.,.+.$.1.1.#.4.~.4.` ^ d d s s a t t 3 2 1 = * * o .   o o * * = = 3 3 t i p s d d d ^ O.` O.+.1.1.1.$.O.O.` _ / x s s a i t 7 3 2 = = % % @   X @ # % J P.{ 3 7 t i a { p.p.p.7X7X7X7X7X7X7X7X7X7X7X7X7X7X7X7X7X7X7X",
"7X7X7X7X7X7X7X7X7X7X7X7X7X7X7X7X7X7Xp.p.p.,.O.O.#.#.$.B.~.4.` _ / / d s a i t t t 2 1 = % o o .   o o % * = 2 3 3 t i p s d d ^ ^ ^ O.O.+.+.+.+.O.O.O._ / ^ x d d a p t 7 3 3 = - % @ #     + @ % * b G.:.7 t i a z  .p.p.p.7X7X7X7X7X7X7X7X7X7X7X7X7X7X7X7X7X7X",
"7X7X7X7X7X7X7X7X7X7X7X7X7X7X7X7X7Xp.p.p.,.O.O.O.O.O.V.~.3.^ O.^ d d d d a p t 7 3 2 = = * @ o X   o o * * = = 2 3 t t p a s d ^ ^ ` O.O.O.O.+.O.O.O.` _ / x x d a a t t 7 3 2 = * % % @     @ @ % * * u G.y.t i p s z ..p.p.p.7X7X7X7X7X7X7X7X7X7X7X7X7X7X7X7X7X",
"7X7X7X7X7X7X7X7X7X7X7X7X7X7X7X7Xp.p.p.>./ ^ ^ O.O.B.~.%.^ O.^ ^ / d d s a t t 7 3 2 = * * % o .   . o % * * 1 2 3 t t p a s d d ^ ^ ` ^ ` O.O.O.O.` _ / / x d d s i t t 3 3 2 = % % #       @ # % % = 1 u D.i.i p a s x :.p.p.p.7X7X7X7X7X7X7X7X7X7X7X7X7X7X7X7X",
"7X7X7X7X7X7X7X7X7X7X7X7X7X7X7X7Xp.p.>.( x ^ ^ ^ c.W.@.O.^ ^ ^ ^ d d s a p t t 7 3 2 = * % o o       o % % * = 2 3 3 t i a a s d x ^ ^ ^ _ ` ` ` ` _ / ^ x x d s a p t t 3 3 2 = % % @ @     X + % * * = 1 u D.y.i p f d D >.p.p.7X7X7X7X7X7X7X7X7X7X7X7X7X7X7X7X",
"7X7X7X7X7X7X7X7X7X7X7X7X7X7X7Xp.p.i.F x x x ^ k.W.@.^ ^ ^ ^ ^ ^ d d s a i t 7 7 2 2 = * * o .       o @ % * = 2 3 3 7 t p a s s d ^ ^ ^ / / / / / ^ ^ ^ d d s a a t t 7 3 3 = * % % #         # # % * = 1 2 a H.,.p a s d / r.p.p.7X7X7X7X7X7X7X7X7X7X7X7X7X7X7X",
"7X7X7X7X7X7X7X7X7X7X7X7X7X7Xp.p.p.K f s z x ,.W.@.^ ^ x ^ ^ x d d a a p t t 7 2 2 = = * % o o       o o % * = = 2 3 3 t t p a s d d d x ^ ^ ^ ^ ^ x x x d s s a i t 7 7 3 2 = = % @ X         + # % * = 1 7 3 b L.>.i a s s ] i.p.p.7X7X7X7X7X7X7X7X7X7X7X7X7X7X",
"7X7X7X7X7X7X7X7X7X7X7X7X7Xp.p.p.} p a s s [ W.-.x x x x ^ ^ d s s a p t t t 3 2 = = * % @ o .       . o o * * = 2 2 3 t t i p a s d d d d x x d x x d d d a a i t t 3 3 3 = = % % @ @           # % % * 1 2 3 3 A L.] p s s z  .p.p.p.7X7X7X7X7X7X7X7X7X7X7X7X7X",
"7X7X7X7X7X7X7X7X7X7X7X7X7Xp.p.:.i i i p D L.,.s d d x d d s s a a p i t 7 3 2 2 = * % @ o o         . . o % * = = 2 3 3 t t i p p s s d d d d d s s s s a a i t t 7 7 3 = = * % % @             # @ % * = 1 1 7 7 ] L.z i f s z >.p.p.7X7X7X7X7X7X7X7X7X7X7X7X7X",
"7X7X7X7X7X7X7X7X7X7X7X7Xp.p.i.b 7 t t p b.l.a s s a s a s f a a p t t 7 7 3 2 1 = * * @ o             o o o % * = 2 2 3 3 t t t i a a f s s s s d s a a i i t t 7 3 3 2 = = % % + @               @ % % * 1 1 1 3 7 y.D.p p p a F i.p.p.7X7X7X7X7X7X7X7X7X7X7X7X",
"7X7X7X7X7X7X7X7X7X7X7Xp.p.p.K 4 3 t 7 >.G.a p p a a a a a p p t t t 7 7 3 2 = = * % @ # +         O     + + % % = = 2 2 3 3 t t t i i p p p p p p p p i i t t t 3 2 2 = = * % % +                 @ @ % % * = 1 3 3 t C.y.t i i i { p.p.p.7X7X7X7X7X7X7X7X7X7X7X",
"7X7X7X7X7X7X7X7X7X7X7Xp.p.7.7 1 3 4 Z L.F t p t p t p p t t t t t 7 7 7 3 1 = * % % @ @                 + + @ & % = = : 2 3 3 t t t t i i i i i i i t t t 3 3 3 3 2 = = % & @ + +                   @ @ % & = 1 1 3 3 u L.G t t t a >.p.p.7X7X7X7X7X7X7X7X7X7X7X",
"7X7X7X7X7X7X7X7X7X7Xp.p.i.c = = 2 7 m.X.7 7 t 7 t t t t t t 7 7 7 3 2 2 1 = - % % # @                     + . + % * * = 1 2 3 3 3 t t t t t t t t t t 3 3 3 3 3 2 : = = % % o .                     + @ % % * = = 1 1 3 { H.i t t t Z p.p.p.7X7X7X7X7X7X7X7X7X7X",
"7X7X7X7X7X7X7X7X7X7Xp.p.| = * = = o.m.7 3 7 7 7 7 7 7 7 7 7 7 3 3 2 2 = = = % % # @                         . + o % % = = = 2 2 2 3 3 3 3 t t t t 3 t 3 3 3 3 1 = = = % % o .           O             # # % % % = 1 1 1 3 x.:.3 7 7 7 | p.p.7X7X7X7X7X7X7X7X7X7X",
"7X7X7X7X7X7X7X7X7Xp.p.a.5 @ * * 8 H.b 1 2 3 3 3 7 3 3 3 3 3 3 2 = : = = % % % @ + .                   O       + o % % * * * = = = 1 3 3 3 3 3 3 3 3 2 2 3 1 = = = * % @ + + +                             @ @ % % * = = 1 g L.u 1 3 7 u i.p.p.7X7X7X7X7X7X7X7X7X",
"7X7X7X7X7X7X7X7X7Xp.p.U @ @ @ % 6.r.: = = = 2 2 2 2 2 2 = 2 = 2 = = = % % % # @       O                         X o o # % : 8 r g r 7 = 1 = 2 1 1 2 2 = = * * * % % % @ +   +                             @ @ % % % % = 1 = 6.p.1 1 1 1 U x.p.7X7X7X7X7X7X7X7X7X",
"7X7X7X7X7X7X7X7Xp.p.a.>   + # 5 F.8 % * * * = = = = = = = = = = * * % % % # @                                       w ! R.oX$X*X;X+XOX).0.n = * = = = = * * % % % % o X                                       @ % % % * * * 8 H.b = = = 8 r.p.p.7X7X7X7X7X7X7X7X",
"7X7X7X7X7X7X7X7Xp.p.U     + + r.| % % % * * * = = = = = = = % % % % % # @ X                                   + j /.%X2X6X6X6X5X6X6X6X6X5X;X).R = * * * * % % % o o X X       O                               # o o % % % % % } x.= = = = Y x.p.7X7X7X7X7X7X7X7X",
"7X7X7X7X7X7X7Xp.p.p.5   + X 8 D.2 % % * * = * = = 1 1 = : * = * * * % % @ # #                             O $ S.;X6X6X3X3X3X3X3X3X3X3X3X3X6X6X>XR.g * = = * * % % @ o o X                                   @ @ # % % % * = = 4 G.b 1 1 = u r.p.p.7X7X7X7X7X7X7X",
"7X7X7X7X7X7X7Xp.p.;.+ + + + :.:.% = : 1 = 2 2 2 2 2 2 2 1 2 2 = = = * % % % @ X +                         k XX5X6X3X3X3X3X3X3X3X3X3X3X3X3X3X2X6X5X+XR = = = * * * % % o X X                 O             @ @ @ % & % = = = = = :.z.1 1 1 4 :.p.p.7X7X7X7X7X7X7X",
"7X7X7X7X7X7X7Xp.p.c + # # 5 H.9 * = : 2 2 3 3 3 3 3 3 3 3 3 3 3 3 = = = - * % % + +                     l #X6X5X2X2X3X3X3X3X3X3X3X3X3X3X2X2X2X2X5X6X*X5.2 1 1 1 = * % % o X                               # % % % = = 2 = 2 2 3 i P.b 3 7 3 S p.p.7X7X7X7X7X7X7X",
"7X7X7X7X7X7Xp.p.r.- + # @ Y i.= 1 1 2 3 3 3 3 t 3 t t 7 t 3 3 3 3 3 2 1 = * % % @ #                   k #X6X6X5X2X2X3X3X3X3X3X3X3X3X3X3X2X2X2X2X5X5X6X*X5.1 1 1 = = * % % % o X                       + # % % & = = = 2 3 3 3 7 7 i.y.7 7 7 i e.p.p.7X7X7X7X7X7X",
"7X7X7X7X7X7Xp.p.I # # % = D.m = 3 3 3 3 7 t t t t t t t t t 7 t 3 3 3 2 = = * % % @ @               $ XX6X3X3X3X2X2X2X2X3X3X3X3X3X3X3X3X2X2X2X2X5X5X5X6X+Xn 3 3 2 = = * & % o o                       # @ % % = 2 2 2 3 7 7 t t t G H.a t t t } p.p.7X7X7X7X7X7X",
"7X7X7X7X7X7Xp.p.h # % % b F.3 1 3 7 3 t t t t i i i p p p t t t t 7 3 3 3 = = = % % # @           . S.6X3X3X3X3X2X2X2X2X3X3X3X3X3X3X3X3X2X2X3X2X5X5X5X5X6X).t 3 2 2 2 = * % % @ o .                 # % % = = = 2 2 7 7 7 7 t t t p H. .t p t A p.p.7X7X7X7X7X7X",
"7X7X7X7X7Xp.p.r.- % % % r.>.1 3 3 7 t t t p p a p s a a p p i i t t 7 7 3 3 1 = - % % +         O j ;X6X3X3X3X2X2X3X2X2X3X3X3X3X3X2X2X2X3X2X2X3X5X5X5X5X5X,X5.3 3 3 2 = = * % % o o               + # % % = = 2 3 7 7 t t t p a a p ,.b.p a a a r.p.p.7X7X7X7X7X",
"7X7X7X7X7Xp.p.Y @ % % 4 F.Z 1 7 t t t i p s a s s s s s s s a p p t t t 3 3 3 1 = * % @ +       O /.6X3X3X3X3X3X3X3X3X3X3X3X3X3X3X3X3X3X3X2X3X3X5X5X5X5X5X6X}.t t 3 3 2 = * % % o .             + @ @ & = = 2 3 3 7 7 t p p a a f s ) L.D s s f :.p.p.7X7X7X7X7X",
"7X7X7X7X7Xp.p.M # % * b G.7 7 7 t i p a s s s d d d d d d d s a a p i t 7 7 3 2 = * % % o X     0 %X6X2X2X2X2X2X3X3X3X3X3X3X3X3X3X3X3X3X3X3X3X3X3X6X2X2X2X6X;X{ 7 7 3 3 2 = * % % o X           # # % * = 1 1 3 7 t t i a a s s d d z J.&.z d s ] i.p.7X7X7X7X7X",
"7X7X7X7X7Xp.i.5 % * * :.y.3 7 t t p a s s s x x x x ^ d d d d d s a p t t 7 3 3 2 = * % % o     W 2X2X2X2X2X2X2X3X3X3X3X3X3X3X3X3X3X3X3X3X3X3X3X2X2X2X2X2X2X6XM.t t 7 3 2 2 = % % o X         . + % * * 1 1 3 7 t t i a f s z x x x x l.v.x x d F i.p.p.7X7X7X7X",
"7X7X7X7Xp.p.:.& % * = m.K 7 t t p a s s d x x / ^ ^ ^ ^ ^ ^ d d s d a p i t 7 3 2 = * % % o X   /.6X6X2X2X2X2X2X3X3X3X3X3X3X3X3X2X3X3X3X2X3X2X3X2X2X2X2X3X6X6X|.p t t 3 2 2 = * % % o X     o o # % * = 1 3 3 t t i a a s x ^ ^ ^ ^ ^ &.Q./ ^ ^ x >.p.p.7X7X7X7X",
"7X7X7X7Xp.p.Y * * = 8 H.u 7 t i a s s d x x ^ / _ _ _ ^ / ^ ^ x d s s p i t 7 3 2 2 = * % X X + |.6X2X2X2X2X2X2X3X3X3X3X3X3X3X3X3X3X3X3X3X2X3X3X2X2X2X2X3X6X6X+Xd t t 3 3 2 : = % % o X       o @ % * 1 1 3 7 t t i a s s x ^ ^ ^ ^ ^ ` W.%.^ ^ x >.p.p.7X7X7X7X",
"7X7X7X7Xp.p.m % * * A m.7 t t p a d d x ^ / / / ` ` ` _ _ _ / ^ x x s s p i 7 7 3 2 = * % #   ; #X6X3X3X2X2X2X3X3X3X3X3X3X3X3X3X3X3X3X3X3X3X3X3X2X2X2X2X3X3X6X;XP i t t 3 3 1 = % % o X     X o % % = 1 1 7 t t i a s s x x ^ ^ ` O.^ O.Q.4.^ ^ ^ [ p.p.7X7X7X7X",
"7X7X7X7Xp.p.9 % * = ..p.3 t i a s s x x / / ` ` O.O.O.O.O._ _ ^ D x s s p i t 7 3 2 1 * % % X 0 %X6X3X3X2X2X3X3X3X3X3X3X3X3X3X3X3X3X3X3X3X3X3X3X2X2X2X2X3X3X3X;X{ p i t 7 3 2 = = % % o     o @ % & = 1 3 7 7 t p s s x ^ ^ ^ ^ ^ O.O.O.B.V.O.^ ^ [ p.p.7X7X7X7X",
"7X7X7X7Xp.a.5 % = = p...7 t i a s s x ^ / ` ` O.O.+.+.O.O.` _ / ^ d s s a i i 7 3 2 : = % % o 5 %X6X3X3X3X3X3X3X3X3X3X3X3X3X3X3X3X3X3X3X3X3X3X3X2X2X2X2X2X2X3X:X{ p i t 7 3 2 = * % o o X   o @ % * = 1 3 7 t i a a s x ^ ^ ^ ^ O.O.+.O.4.Q.O.^ ^ ' i.p.p.7X7X7X",
"7X7X7Xp.p.:.= % = 1 m.G 7 t p a d d x / _ ` O.O.+.$.$.+.O.O.` _ ^ ^ x s a p i 7 3 2 2 = % % o ; #X6X3X3X3X3X3X3X3X3X3X3X3X3X3X3X3X2X3X2X3X3X3X3X2X2X2X2X2X2X6X;X] a i t 7 3 3 = = % % X     o % % = 1 1 1 7 t t a s s x ^ ^ O.O.O.$.#.#.4.W.O.O._ _ i.p.p.7X7X7X",
"7X7X7Xp.p.;.* % = 7 H.b 7 t a s s d ^ / _ ` O.+.$.1.1.$.+.O.O._ ^ x d d a p t t 3 3 : = * % @ $ XX6X2X2X3X3X3X3X3X3X3X3X3X3X3X3X2X2X2X2X2X2X2X2X2X2X2X2X2X2X6X$XF f i t t 3 2 = = % @ @ +   @ @ % = = 1 7 7 t p a s s x ^ ^ O.O.+.+.1.1.2.~.1.O.` _ >.p.p.7X7X7X",
"7X7X7Xp.p.;.% * * 9 H.y t t a a s d x / _ O.O.+.$.1.1.+.+.O.O._ / ^ d d s p t t 7 3 1 = % % @   /.6X2X2X3X3X3X3X3X3X3X3X3X3X3X3X2X2X2X2X2X2X2X2X2X6X2X2X2X2X6X Xz a i t t 3 3 1 = & @ @     # @ % * 1 3 7 7 t i a s x x ^ ^ ^ O.O.+.1.1.1.Q.4.O.` ^ ,.p.p.7X7X7X",
"7X7X7Xp.p.J @ * * b D.7 7 t p a s d x / _ ` O.+.1.1.1.#.O.O.O._ / x d d s p t t 3 2 1 = % % #   ! 2X2X2X3X3X3X2X3X3X3X3X3X3X3X3X2X2X2X2X2X2X2X2X2X2X2X2X6X6X6XM.f a p t 7 7 3 1 = % @ #     # @ % & = 1 7 7 t t a s d x ^ ^ O.O.+.+.1.1.1.W.4.O.` ^ >.p.p.7X7X7X",
"7X7X7Xp.p.m @ % * J b.7 t t p a s s x / / _ O.O.+.+.+.+.O.O.` _ ^ x d s a p t 7 3 3 1 * % % #   q %X6X2X3X3X3X2X3X3X3X3X3X3X3X3X2X2X2X2X6X2X2X2X2X2X2X2X2X6X<Xe.f a p t 7 3 1 = = % @ # +   + # % * = 1 1 7 t p a s s x ^ ^ ^ O.O.+.+.+.+.Q.4.O.` ^ -.p.p.7X7X7X",
"7X7X7Xp.p.M # % * K z.3 7 t i a s d x / / / ` O.O.O.O.O.O.` _ ^ ^ x d s p t t t 3 3 1 * % % + X . (.6X6X6X2X2X2X3X3X3X3X3X3X3X3X2X2X2X2X2X2X2X2X2X2X2X2X2X6X.Xd s p t t 7 3 3 = = % # @     # @ % * = 1 7 7 t t a s s x ^ ^ ^ O.O.O.O.O.#.J.V.^ ^ ^ [ p.p.7X7X7X",
"7X7X7Xp.p.c # % % Y i.3 7 t i p s s x x / / _ ` O.O.O.O.O.^ _ ^ x d d s a i t 7 3 2 1 * % # @   O N >X6X2X2X2X2X3X3X3X3X3X3X3X3X2X2X2X2X2X2X2X2X2X2X2X2X3X<Xf.s a p t t 7 3 1 = % % @ @     + # @ = = 1 1 7 t t i f s s ^ ^ ^ ^ ^ O.O.O.^ B.c.^ ^ ^ ] p.p.7X7X7X",
"7X7X7Xp.p.h # % % } i.1 7 t t p a s s x x / / / ^ ` ` ` ^ _ ^ ^ x d s a p t t 7 3 2 * * % @ @     . S.6X2X2X2X2X3X3X3X3X3X3X3X3X2X2X2X2X2X2X2X2X2X2X2X2X6X}.d s a p t 7 7 1 1 = & % @       + @ % % * = 1 7 7 t i p f s d x ^ ^ O.^ ^ ^ ^ V.v.^ ^ x ] i.p.7X7X7X",
"7X7X7Xp.p.h + % % ..e.1 7 7 t t a a s d d x ^ / ^ _ ^ _ ^ ^ ^ d d d a p t t 7 3 2 1 = % % #         q OX6X2X2X2X3X3X3X3X3X3X3X3X2X2X2X2X2X2X2X2X2X2X2X6X=Xo.s s a t t 7 7 1 = = % # # +       @ @ % = 1 1 1 7 t t i a s s x x ^ ^ ^ O.^ ^ c.N.^ x x ] p.p.7X7X7X",
"7X7X7Xp.p.h + # % | e.= 2 7 t t i a a d d d d ^ ^ / / d ^ d d d s s a p t t 3 2 2 = * * $ .           N %X6X3X3X3X3X3X3X3X3X3X3X2X2X2X2X3X3X6X2X2X2X6X:Xf.f a a i t 7 7 3 1 = % % % +         . o % * 1 1 3 3 7 t i p a s d d d x ^ ^ ^ x k.v.d d s ) p.p.7X7X7X",
"7X7X7Xp.p.9   # # } r.= 1 7 7 7 t p a a s d d d d d d d d d d d a a p t t 7 3 2 = = * % o +         .   E ;X6X3X3X3X3X3X3X3X3X3X2X6X2X2X3X3X2X2X2X2X<Xf.f a a i t t 7 3 1 1 1 % % @ +           o @ % * 1 1 3 7 7 t i p a a d d d d x d d l.c.s s s G f.p.7X7X7X",
"7X7X7Xp.p.h   # o Y y.= 1 4 3 7 t t i a a a s d d d d d d s a a a p t t 7 3 2 2 = = % @ o o             e *X5X3X3X3X3X3X3X3X3X3X2X2X2X2X3X3X3X3X2X6X:X5.p a i t 7 7 3 3 1 1 % % % X .           o @ % % * 1 1 3 7 7 t i a a a s s d d d s c.j.f f p F z.p.7X7X7X",
"7X7X7Xp.p.h   + o S i.* 1 1 3 7 t t t i a a a a s a s s a a a p p t t 7 7 3 2 = = * * @ o               N 1X6X5X3X3X3X3X3X3X3X3X2X2X2X2X3X3X3X3X2X2X1Xf.i t t t 7 3 3 1 1 % % % X .             o o % % * = 1 2 7 7 7 t i i a a a a s a f c.e.p a i G f.p.7X7X7X",
"7X7X7Xp.p.M   + X b x.% = = 3 3 3 3 t t t i p a a a a p p i i t t t 7 3 2 2 2 = * * o o +             O W 2X5X5X3X3X3X3X3X3X3X3X2X2X2X2X2X2X3X3X5X6X6XM.t t t 7 3 3 1 1 * * % @ X .     O       . X @ % % = 1 1 2 3 7 7 t y i i a p p p p M.*.t i t G p.p.7X7X7X",
"7X7X7Xp.p.J     X r n.- % = = 2 2 3 3 t t t t y t i i t i y t t 7 7 3 2 2 = = * % o o o                 ~ 6X5X5X3X3X3X3X3X3X3X3X2X2X2X2X2X2X2X3X5X5X6XM.7 7 7 2 2 1 1 * * % @ @ . .             . . o @ % % % 1 1 3 3 7 7 7 t t y i i y p B.) t t 7 U p.p.7X7X7X",
"7X7X7Xp.d.U       > m.: % = = = 2 2 3 3 7 7 7 t t t t t 7 7 7 7 3 2 2 2 = = * * * @ o o               O g.6X3X3X3X3X3X3X3X3X3X3X2X2X2X2X2X3X2X3X5X5X6X_.7 7 2 2 1 1 = % % % o o .                   . o % % % 1 1 1 1 3 3 3 7 7 t t t t i C.P t 7 7 } p.p.7X7X7X",
"7X7X7Xp.p.;.      & m.4 # % * = = 1 2 2 2 3 7 3 7 7 7 7 7 7 7 2 2 2 2 1 = * % % o o   .   O             (.6X3X3X3X3X3X3X3X3X3X3X2X2X2X2X2X2X3X3X5X5X2X}.2 2 2 1 1 = % % % o X                         + + % % % * * 1 1 3 3 3 7 3 7 3 7 g Z.g 3 3 3 :.p.p.7X7X7X",
"7X7X7Xp.p.7.$       d.h # @ % & * = 1 1 2 2 2 2 2 2 3 2 2 2 2 1 2 = = * * % % o + .                   + [.6X5X5X3X3X3X3X3X3X3X3X3X3X3X3X3X3X3X3X5X5X6XOX5 1 1 * * % % % o X                             X X % % % * * = 1 1 2 2 3 3 3 1 Z H.7 1 1 4 :.p.p.7X7X7X",
"7X7X7Xp.p.r.-     O 7.J   @ # % * * * = = 1 1 2 2 1 2 2 2 2 1 1 = = * * o % o o                       $ OX6X5X5X3X3X3X3X3X3X3X3X3X3X3X3X3X3X3X3X3X5X6X#Xr * * * % % % o X .               O             . . X @ % % * * * 1 1 1 1 1 1 1 K x.1 1 = 7 r.p.p.7X7X7X",
"7X7X7X7Xp.a.5       R 6.  # @ @ @ @ * * * = = = = = 1 = = = * * * % % % % o o .                     O < #X6X3X3X3X3X3X3X3X3X3X3X3X2X2X3X3X3X3X3X3X3X5X;Xg % % % % @ o + .                             O     X o @ @ % % * * * * = = = = :.:.* = * 9 p.p.7X7X7X7X",
"7X7X7X7Xp.p.c       r p.+   + @ @ * * @ * * * * = = = = = * * * * % o % o o . .                       q >X6X3X3X3X3X3X3X3X3X3X3X3X3X2X3X3X3X3X3X3X3X5X,XE % % % @ @ X +           O                         . X @ @ % % % * * % = = = = x.J * * % b p.p.7X7X7X7X",
"7X7X7X7Xp.p.I +     % F.: o @ @ $ * * * = 1 1 1 2 1 1 1 1 = = = * * * % % o o o                     O N 1X5X5X5X3X3X3X3X3X3X3X3X3X3X3X3X3X3X3X3X2X2X2X2XW * * % % % @ o                                   . X @ % % % * * * 1 1 = 1 1 7 F.u = 1 = U p.p.7X7X7X7X",
"7X7X7X7Xp.p.:.+       p.v @ % % % * = 1 1 1 2 1 2 2 2 2 2 2 2 2 = = = * * % % o . .                   ! 1X6X5X5X3X3X3X3X3X3X3X3X3X3X3X3X3X3X3X3X3X2X2X5Xs.* 1 * * % % @ + +                             . X @ % % % * = 1 1 1 1 1 3 3 b G.7 4 1 4 :.p.p.7X7X7X7X",
"7X7X7X7Xp.p.a.>       | 5.% * * * = 2 2 2 3 2 7 7 3 7 3 3 3 3 2 2 : = = * * * o + +                   ~ 6X3X3X3X3X3X3X3X3X3X3X3X2X3X3X3X2X3X2X3X2X3X5X6XM.1 1 1 * % % % + + +             O           . X @ % % % * 1 1 1 3 3 3 3 3 3 :.i.7 3 3 u r.p.p.7X7X7X7X",
"7X7X7X7X7Xp.p.h   X o g m.= = = = 3 2 3 7 7 7 7 7 7 t t 7 7 3 3 3 2 2 1 = * * * + +                 O S.6X3X3X3X3X3X3X3X3X3X3X3X3X3X3X3X3X2X3X2X3X2X6X6X{.2 2 1 1 1 * % % % +                         + @ % % * = 1 1 2 3 3 3 7 7 t t m.] 7 7 3 S p.p.7X7X7X7X7X",
"7X7X7X7X7Xp.p.Y + @ @ = D.h = 1 2 3 3 3 7 t t t t t t t t t t t 3 3 3 2 2 = = * % o o o .             (.6X6X3X3X3X3X3X3X3X3X3X3X3X3X3X3X3X3X3X3X5X5X5X6X.Xt 7 3 2 1 = = % % @ + .                   + # % % * = 1 1 3 7 7 7 t t t t Z K.z t t t } p.p.7X7X7X7X7X",
"7X7X7X7X7Xp.p.r.& @ % % r.:.1 1 3 3 t t t t i a p p p a i i t t t t 3 3 2 2 = = * * % o             + [.6X6X3X3X3X3X3X3X3X3X3X3X3X3X3X3X3X3X3X3X5X5X5X6X+Xg 7 7 3 2 1 = * % % @ X .                 @ % % * = 1 3 1 7 7 t t t t i i >.m.i p t a r.p.p.7X7X7X7X7X",
"7X7X7X7X7X7Xp.p.h @ * * S D.3 3 3 t t y p a a a a a a a a a a p t t t 3 3 2 2 = * % o @ .           $ OX6X3X3X3X3X3X3X3X3X3X3X3X3X3X3X3X3X3X3X3X5X5X5X6X*Xd 7 7 7 3 2 1 1 % % % o X             X @ # % * = 1 1 3 7 7 t t t p a a s C.&.a a a A p.p.7X7X7X7X7X7X",
"7X7X7X7X7X7Xp.p.I % * = 2 G.A 7 t t i p a a a s d s d s s s a a a p t t 7 2 2 2 = * * o o .         0 %X6X6X3X3X3X3X3X3X3X3X3X3X3X2X3X2X3X3X3X3X5X5X5X5X:Xo.t t 7 7 3 2 1 = % % # X             + # % % = = 1 3 7 7 t t p a a a s ) W.D s s s ..p.p.7X7X7X7X7X7X",
"7X7X7X7X7X7Xp.p.:.8 = 1 1 >.l.7 t p p a s s s d d d d d d d d a a a i t t 3 3 2 = = * @ o .         e ;X6X2X2X2X3X3X3X3X3X3X3X3X3X3X3X3X3X3X3X3X5X5X5X5X1X5.i i y 7 7 3 2 1 % % @ @ . .       . @ # % & 1 1 3 3 7 t t p p a d s s l.v.d d d D y.p.p.7X7X7X7X7X7X",
"7X7X7X7X7X7X7Xp.p.b = 1 2 b K.b t p a s d d d d d ^ ^ d d d d d s a p i t t 3 3 2 = * % % o X     O E 1X2X2X5X5X3X3X3X3X3X3X3X3X3X3X3X3X3X3X3X3X5X5X5X5X2Xf.i p y 7 7 7 2 1 1 * % # X .       X @ % % = 1 1 3 7 t t p a s d d d ( W.[ ^ x ^ ] p.p.7X7X7X7X7X7X7X",
"7X7X7X7X7X7X7Xp.p.:.1 1 3 7 z.,.p s s d d d ^ ^ / / / / / d ^ d d s a p t t 3 3 2 = = * % @ X       Q 2X2X2X5X2X3X3X3X3X3X3X3X3X3X3X3X3X3X3X3X3X5X5X5X5X2XM.f a p y 7 7 3 2 = % % % X .     . X # % * = 1 4 7 7 t p p s s z x x j.J.^ ^ ^ ^ ,.p.p.7X7X7X7X7X7X7X",
"7X7X7X7X7X7X7Xp.p.i.c 1 7 7 G L.d a d d d / / _ _ ` _ / _ / ^ d d d s a i t t 3 2 2 = * % o .     O h.6X2X2X5X2X3X3X3X3X3X3X3X3X3X3X3X3X3X3X3X3X5X5X5X6X6X_.f f p i t 7 3 2 1 1 % % X .     . X # % = 1 1 7 7 t t p a s x x x ( W.=./ _ _ ' i.p.p.7X7X7X7X7X7X7X",
"7X7X7X7X7X7X7X7Xp.p.} 2 7 t i v.y.a d ^ ^ ^ _ ` ` ` ` ` ` _ / / ^ d s a a t t 3 3 2 = = % @ o .     U.6X5X5X2X2X5X2X5X2X2X2X2X2X3X2X2X3X2X2X2X2X2X2X5X2X5X Xd s f i y t 7 3 1 = * % @ X     . # % % = = 3 3 7 t p a s d x x ^ 4.K.` ` ` O.>.p.p.7X7X7X7X7X7X7X7X",
"7X7X7X7X7X7X7X7Xp.p.i.c 7 t i K L.( d ^ / _ ` ` O.O.+.` ` _ / / ^ d d s a i t t 3 2 = * * o o .   o '.6X5X5X5X2X2X2X2X2X2X5X2X5X3X3X3X3X3X2X5X2X5X2X5X2X2X@Xx d s i i t 7 3 1 1 * % @ X .   X # % = = 1 3 7 t t p a s x x x ` Q.4.O.O.O.@.p.p.p.7X7X7X7X7X7X7X7X",
"7X7X7X7X7X7X7X7X7Xp.p.} t t i p v.v.d ^ / _ ` O.+.+.+.+.O.O.` _ ^ d d d a p t 3 3 2 2 = * @ o o   % XX6X5X5X5X2X5X5X5X2X5X5X5X2X3X3X3X3X5X3X5X2X5X2X2X5X5X$X/ s f f i t 7 3 2 = * % % o .   X @ % * = 1 3 7 t t p f d x ^ ^ c.Q.O.O.#.+.,.i.p.7X7X7X7X7X7X7X7X7X",
"7X7X7X7X7X7X7X7X7Xp.p.p.b t i a ( !.-.^ _ ` O.+.#.#.$.#.O.O.` _ / ^ d s a p t t 3 2 1 = * % @ .   < +X6X5X5X5X5X5X2X5X2X5X2X2X5X3X3X5X3X3X3X3X5X2X5X2X5X2X;Xo.d s p y t 7 3 2 1 * % % o . . X % % & = 3 3 7 t i a a d x ^ @.!.=.O.+.$.1.i.p.p.7X7X7X7X7X7X7X7X7X",
"7X7X7X7X7X7X7X7X7X7Xp.p...i i a s j.Z./ _ ` O.+.$.1.1.$.#.O.` _ / ^ d s a a i t 3 3 = = * % o X   0 ;X5X2X2X2X2X2X2X2X5X5X5X5X2X3X3X2X5X2X2X5X2X2X5X5X2X5X,Xe.d s f i y t 3 2 1 = % @ @ . . X @ % = = 2 7 7 t t a s d x ^ J.B.O.O.#.1.<.p.p.7X7X7X7X7X7X7X7X7X7X",
"7X7X7X7X7X7X7X7X7X7Xp.p.i.F i z d d L.k._ O.O.+.$.1.1.$.#.O.` ` / d d s a p t t 3 2 2 = * @ @ .   j :X5X2X2X5X2X2X2X2X2X5X5X2X5X5X2X3X2X2X2X2X2X2X2X2X2X5X1Xf.d s a i t t 3 2 1 = % % o . . X % % % = 2 3 7 t p a s d d <.W.O.O.O.$.3.i.p.p.7X7X7X7X7X7X7X7X7X7X",
"7X7X7X7X7X7X7X7X7X7X7Xp.p.>.a a d d -.!.%._ O.O.+.1.$.+.O.O.` _ _ d d d a a t t 3 3 2 = * % o o   E 1X5X5X5X2X5X2X5X5X2X5X5X5X5X2X3X3X2X5X2X2X3X5X2X5X3X2X2XM.d s a i t 7 3 2 1 * * % @ . . X @ % = = 2 7 7 t t a f d ` W.<.^ +.O.#.<.p.p.7X7X7X7X7X7X7X7X7X7X7X",
"7X7X7X7X7X7X7X7X7X7X7Xp.p.p.{ a s d d k.Q.` O.O.+.+.+.+.O.O.` / / ^ d s a p t t 3 3 = = % % o X O q.5X5X5X2X2X5X5X2X5X5X5X5X5X5X5X3X3X5X5X5X5X3X2X5X3X3X2X6XM.^ s a i t 7 3 2 1 * % @ o     X # % % = 2 3 7 t p a s z C.c.^ ` ^ O.,.p.p.p.7X7X7X7X7X7X7X7X7X7X7X",
"7X7X7X7X7X7X7X7X7X7X7X7Xp.p.p.A z s x ^ J.N.^ #.+.+.+.O.^ O.^ ^ x x d s p p t 7 7 1 1 = & % #     g.6X5X5X5X5X5X5X5X5X5X5X5X5X5X2X2X2X2X2X2X2X2X5X5X5X5X5X6X_.d s p i t 7 3 1 = % % % +     + @ % = = 1 3 7 t t a a <.K./ ^ ^ ` @.i.p.p.7X7X7X7X7X7X7X7X7X7X7X7X",
"7X7X7X7X7X7X7X7X7X7X7X7X7Xp.p.>.z s x x ' !.4.^ O.^ O.+.O.^ ^ ^ x d d a p t t 7 1 1 = = % @ +     T.6X5X5X5X5X5X5X5X5X5X5X5X5X5X2X2X2X2X2X2X2X2X5X5X5X5X5X6X Xs a i t t 7 3 1 = * % # X   + + @ % % = 1 3 3 7 t t  .!.] x x ^ _ ,.p.p.7X7X7X7X7X7X7X7X7X7X7X7X7X",
"7X7X7X7X7X7X7X7X7X7X7X7X7Xp.p.p.[ z s x x &.~.&.^ ^ O.^ ^ ^ ^ ^ d d s a p t t 7 4 1 = * % # +     {.6X5X5X5X5X5X5X5X5X5X5X5X5X5X2X3X2X2X2X3X2X2X5X5X5X5X5X6X@Xs p i t 7 3 2 1 = % % + +     + + # % - 1 2 3 7 t F L...s x x x ..p.p.p.7X7X7X7X7X7X7X7X7X7X7X7X7X",
"7X7X7X7X7X7X7X7X7X7X7X7X7X7Xp.p.i.F f z x x <.^.@.^ ^ ^ ^ ^ ^ ^ d d a p t t 7 7 1 = = * % #     + OX6X6X6X5X6X5X5X5X5X5X5X5X5X6X3X6X3X6X3X6X6X6X5X5X5X5X6X6X=XH i i t 7 3 1 1 * % % + +       + @ % = = : 3 7 a H.,.a s d d ) i.p.p.7X7X7X7X7X7X7X7X7X7X7X7X7X7X",
"7X7X7X7X7X7X7X7X7X7X7X7X7X7X7Xp.p.a.z z z x x 4.W.' x x ^ x z z s a a i t t 7 3 1 1 * % # @     ; oX:X;X;X>X;X;X>X;X>X:X>X>X:X;X:X:X:X:X:X:X:X:X:X:X:X:X:X:X$XP t t 7 7 3 1 = * % @ +         + @ % % = 1 2 8 C.y.p p a s D r.p.p.7X7X7X7X7X7X7X7X7X7X7X7X7X7X7X",
"7X7X7X7X7X7X7X7X7X7X7X7X7X7X7X7Xp.p.>.z f s s x l.K.( x x x z f f a p t t 7 3 1 1 = % % @ #       0 e e j h v v n H L L P P { { o.o.o.o.o.X.*.&.X.X.o.o.{ { ] a t 7 7 3 1 1 * % # # +           @ @ % = = 7 m.p.7 t t p a >.p.p.p.7X7X7X7X7X7X7X7X7X7X7X7X7X7X7X",
"7X7X7X7X7X7X7X7X7X7X7X7X7X7X7X7Xp.p.p.:.s s s z z c.K.D s s f f a i t t 7 3 4 1 = * % % @ +             X % % * * 1 1 3 3 t t i i p a f s s d f s f f a p i t t 7 7 3 1 1 * % % # #               @ % % 2 n.y.7 7 7 t i } p.p.p.7X7X7X7X7X7X7X7X7X7X7X7X7X7X7X7X",
"7X7X7X7X7X7X7X7X7X7X7X7X7X7X7X7X7Xp.p.p.{ a p a a z l.L.x p p i t t t 7 7 1 1 = = % % #                 X @ % % * 1 3 3 3 7 t t i i a f a f a f f a a a i t t t 7 3 3 1 1 * % % + +               @ # 4 n.r.2 3 7 8 7 ] p.p.p.7X7X7X7X7X7X7X7X7X7X7X7X7X7X7X7X7X",
"7X7X7X7X7X7X7X7X7X7X7X7X7X7X7X7X7X7Xp.p.i.{ i i i p i ,.L.G i i t t 7 7 2 1 = = * % @ +                 + @ # % = = 1 2 2 3 7 t t t i i i f a p a i i t t t t 3 7 2 1 1 * * % # +                   6 m.:.= = 1 1 7 J p.p.p.7X7X7X7X7X7X7X7X7X7X7X7X7X7X7X7X7X7X",
"7X7X7X7X7X7X7X7X7X7X7X7X7X7X7X7X7X7X7Xp.p.p.U i i i i i :.L.{ 7 7 7 3 1 1 1 = * % @ @ +                   @ @ @ % & = = 2 2 3 3 7 t t t t t t t t t t t t 7 7 3 2 1 = * * % @ #                   h F.Y % * & = 1 S i.p.p.7X7X7X7X7X7X7X7X7X7X7X7X7X7X7X7X7X7X7X",
"7X7X7X7X7X7X7X7X7X7X7X7X7X7X7X7X7X7X7X7Xp.p.p.K t t 7 7 7 G K.>.7 2 1 1 1 = * % @ @ +                       @ + % % * * = 2 2 3 3 3 7 7 7 t t t t 7 7 7 3 3 1 1 1 = = % % % + +               + I F.v X + % % * S i.p.p.7X7X7X7X7X7X7X7X7X7X7X7X7X7X7X7X7X7X7X7X",
"7X7X7X7X7X7X7X7X7X7X7X7X7X7X7X7X7X7X7X7X7Xp.p.p.K 7 7 7 7 2 c D.m.u 1 = = * % @ @ @         . $ 0 < .           o & r r r 2 1 2 3 3 3 3 y g 7 3 7 3 7 3 1 3 g 9 = * * % # + +           O   $ a.p.>     # # * J p.p.p.7X7X7X7X7X7X7X7X7X7X7X7X7X7X7X7X7X7X7X7X7X",
"7X7X7X7X7X7X7X7X7X7X7X7X7X7X7X7X7X7X7X7X7X7Xp.p.i.;.7 2 1 2 1 3 :.P.U * * @ @ @ +           . (.XX[./.$         X B +X}.oXA.: 1 1 1 3 1 9._.3 2 1 7 1 1 4 Y.oX.Xq.% % # + +               j F.T @         % I p.p.p.7X7X7X7X7X7X7X7X7X7X7X7X7X7X7X7X7X7X7X7X7X7X",
"7X7X7X7X7X7X7X7X7X7X7X7X7X7X7X7X7X7X7X7X7X7X7Xp.p.p.:.9 1 1 1 = * c D.p.6 @ @ + + +         + [.~ e +Xj O         E oX6 8.@X2 * = = = * 0.}.2 1 1 1 1 = 5.@XB W ).> # # X           O < 7.D.h           $ Y p.p.p.7X7X7X7X7X7X7X7X7X7X7X7X7X7X7X7X7X7X7X7X7X7X7X",
"7X7X7X7X7X7X7X7X7X7X7X7X7X7X7X7X7X7X7X7X7X7X7X7Xp.p.p.>.c * * * * @ = Y F.;.-               + [./.h.OX0           V $XA.{.U.% % * * * * 0.].= = = * * * A./.% % - # +           O $ I D.T $ O         , ;.p.p.p.7X7X7X7X7X7X7X7X7X7X7X7X7X7X7X7X7X7X7X7X7X7X7X7X",
"7X7X7X7X7X7X7X7X7X7X7X7X7X7X7X7X7X7X7X7X7X7X7X7X7Xp.p.p.i.S = * * % % # 5 r.D.I + O         + [.{.A.C             C $Xh.].U.% % * * * * 0.].1 = = = = * s.`.% > Q - #         # m D.a.>   +       . h t.p.p.p.7X7X7X7X7X7X7X7X7X7X7X7X7X7X7X7X7X7X7X7X7X7X7X7X7X",
"7X7X7X7X7X7X7X7X7X7X7X7X7X7X7X7X7X7X7X7X7X7X7X7X7X7X7Xp.p.p.;.9 * * * % % @ h r.D.I $   +   + [.W O               E XX% q.|.: = * = = = s.}.2 1 2 1 1 * n oXg.`.`.: # #   & J n.p.e             - U p.p.p.p.7X7X7X7X7X7X7X7X7X7X7X7X7X7X7X7X7X7X7X7X7X7X7X7X7X7X",
"7X7X7X7X7X7X7X7X7X7X7X7X7X7X7X7X7X7X7X7X7X7X7X7X7X7X7X7Xp.p.p.a.S 2 * * * % % @ h r.F.;., +   Q k O             X e 9.= v s.2 = 1 1 2 2 P 0.3 2 3 2 2 2 1 R M.g.9 % % 6 ;.D.a.r             + h 7.x.p.p.7X7X7X7X7X7X7X7X7X7X7X7X7X7X7X7X7X7X7X7X7X7X7X7X7X7X7X7X",
"7X7X7X7X7X7X7X7X7X7X7X7X7X7X7X7X7X7X7X7X7X7X7X7X7X7X7X7X7Xp.p.p.p.:.c = * * % @ # + , T D.a.I -               # # % % % % = = 1 3 3 3 3 3 3 7 7 7 7 3 3 3 1 2 2 8 Y x.F.6.6 @           + > Y p.p.p.p.7X7X7X7X7X7X7X7X7X7X7X7X7X7X7X7X7X7X7X7X7X7X7X7X7X7X7X7X7X",
"7X7X7X7X7X7X7X7X7X7X7X7X7X7X7X7X7X7X7X7X7X7X7X7X7X7X7X7X7X7X7Xp.p.p.i.| 8 = * % @ # +   $ h 7.D.p.R 6 $       X % % * = 1 1 3 7 3 3 7 t t 7 t t 7 7 7 7 t H 5.M.G.z.J 4 # @ @         - J a.p.p.p.7X7X7X7X7X7X7X7X7X7X7X7X7X7X7X7X7X7X7X7X7X7X7X7X7X7X7X7X7X7X7X",
"7X7X7X7X7X7X7X7X7X7X7X7X7X7X7X7X7X7X7X7X7X7X7X7X7X7X7X7X7X7X7X7Xp.p.p.p.a.U 9 = % @ # +       @ h ;.d.D.p.| m r 4 = = = 1 1 3 7 3 t t t t t g s F  .e.b.K.G.y.{ y 1 = = * % @ #   $ m r.p.p.p.p.7X7X7X7X7X7X7X7X7X7X7X7X7X7X7X7X7X7X7X7X7X7X7X7X7X7X7X7X7X7X7X7X",
"7X7X7X7X7X7X7X7X7X7X7X7X7X7X7X7X7X7X7X7X7X7X7X7X7X7X7X7X7X7X7X7X7X7Xp.p.p.p.a.Y 8 * @ +             + ; c ;.p.m.D.D.n.p.y.r.>.>.e.e.y.c.v.C.Z.L.K.C.j...H i 7 3 3 1 1 = * * & 5 J r.p.p.p.p.7X7X7X7X7X7X7X7X7X7X7X7X7X7X7X7X7X7X7X7X7X7X7X7X7X7X7X7X7X7X7X7X7X7X",
"7X7X7X7X7X7X7X7X7X7X7X7X7X7X7X7X7X7X7X7X7X7X7X7X7X7X7X7X7X7X7X7X7X7X7X7Xp.p.p.p.a.;.c > +                 X % : 7 b G } :.,.,.l.k.j.j.e.e.-.) ( z a i i i t t t 7 3 2 : 4 h Y r.p.p.p.p.7X7X7X7X7X7X7X7X7X7X7X7X7X7X7X7X7X7X7X7X7X7X7X7X7X7X7X7X7X7X7X7X7X7X7X7X",
"7X7X7X7X7X7X7X7X7X7X7X7X7X7X7X7X7X7X7X7X7X7X7X7X7X7X7X7X7X7X7X7X7X7X7X7X7X7Xp.p.p.p.i.:.J 5 @   O     + # % % * = 1 1 3 3 7 y t i p i f f f s s s s s s a p t t t y b K >.p.x.p.p.p.7X7X7X7X7X7X7X7X7X7X7X7X7X7X7X7X7X7X7X7X7X7X7X7X7X7X7X7X7X7X7X7X7X7X7X7X7X7X",
"7X7X7X7X7X7X7X7X7X7X7X7X7X7X7X7X7X7X7X7X7X7X7X7X7X7X7X7X7X7X7X7X7X7X7X7X7X7X7X7Xp.p.p.p.p.a.7.J 9 : + @ @ @ * = 1 3 7 7 t i p a f f z z x x x x x x d f s a Z G } r.p.p.p.p.p.p.7X7X7X7X7X7X7X7X7X7X7X7X7X7X7X7X7X7X7X7X7X7X7X7X7X7X7X7X7X7X7X7X7X7X7X7X7X7X7X7X",
"7X7X7X7X7X7X7X7X7X7X7X7X7X7X7X7X7X7X7X7X7X7X7X7X7X7X7X7X7X7X7X7X7X7X7X7X7X7X7X7X7X7X7Xp.p.p.p.p.p.r.;.Y c 9 5 2 1 2 7 7 t i p s s d x x x ^ x ^ D ( ) ] ..>.i.p.p.p.p.p.p.7X7X7X7X7X7X7X7X7X7X7X7X7X7X7X7X7X7X7X7X7X7X7X7X7X7X7X7X7X7X7X7X7X7X7X7X7X7X7X7X7X7X7X",
"7X7X7X7X7X7X7X7X7X7X7X7X7X7X7X7X7X7X7X7X7X7X7X7X7X7X7X7X7X7X7X7X7X7X7X7X7X7X7X7X7X7X7X7X7X7Xx.p.p.p.p.p.p.i.a.:.;.} o.K G A F F F ( ) ] ..,.>.>.>.p.p.p.p.p.p.p.p.p.7X7X7X7X7X7X7X7X7X7X7X7X7X7X7X7X7X7X7X7X7X7X7X7X7X7X7X7X7X7X7X7X7X7X7X7X7X7X7X7X7X7X7X7X7X7X",
"7X7X7X7X7X7X7X7X7X7X7X7X7X7X7X7X7X7X7X7X7X7X7X7X7X7X7X7X7X7X7X7X7X7X7X7X7X7X7X7X7X7X7X7X7X7X7X7X7Xa.p.p.p.p.p.p.p.p.p.p.i.p.i.p.p.p.p.p.p.p.p.p.p.p.p.p.p.p.i.7X7X7X7X7X7X7X7X7X7X7X7X7X7X7X7X7X7X7X7X7X7X7X7X7X7X7X7X7X7X7X7X7X7X7X7X7X7X7X7X7X7X7X7X7X7X7X7X7X",
"7X7X7X7X7X7X7X7X7X7X7X7X7X7X7X7X7X7X7X7X7X7X7X7X7X7X7X7X7X7X7X7X7X7X7X7X7X7X7X7X7X7X7X7X7X7X7X7X7X7X7X7X7X7Xp.a.p.p.x.p.p.p.p.p.p.p.i.p.p.n.p.p.a.p.7X7X7X7X7X7X7X7X7X7X7X7X7X7X7X7X7X7X7X7X7X7X7X7X7X7X7X7X7X7X7X7X7X7X7X7X7X7X7X7X7X7X7X7X7X7X7X7X7X7X7X7X7X7X",
"7X7X7X7X7X7X7X7X7X7X7X7X7X7X7X7X7X7X7X7X7X7X7X7X7X7X7X7X7X7X7X7X7X7X7X7X7X7X7X7X7X7X7X7X7X7X7X7X7X7X7X7X7X7X7X7X7X7X7X7X7X7X7X7X7X7X7X7X7X7X7X7X7X7X7X7X7X7X7X7X7X7X7X7X7X7X7X7X7X7X7X7X7X7X7X7X7X7X7X7X7X7X7X7X7X7X7X7X7X7X7X7X7X7X7X7X7X7X7X7X7X7X7X7X7X7X7X7X",
"7X7X7X7X7X7X7X7X7X7X7X7X7X7X7X7X7X7X7X7X7X7X7X7X7X7X7X7X7X7X7X7X7X7X7X7X7X7X7X7X7X7X7X7X7X7X7X7X7X7X7X7X7X7X7X7X7X7X7X7X7X7X7X7X7X7X7X7X7X7X7X7X7X7X7X7X7X7X7X7X7X7X7X7X7X7X7X7X7X7X7X7X7X7X7X7X7X7X7X7X7X7X7X7X7X7X7X7X7X7X7X7X7X7X7X7X7X7X7X7X7X7X7X7X7X7X7X7X",
"7X7X7X7X7X7X7X7X7X7X7X7X7X7X7X7X7X7X7X7X7X7X7X7X7X7X7X7X7X7X7X7X7X7X7X7X7X7X7X7X7X7X7X7X7X7X7X7X7X7X7X7X7X7X7X7X7X7X7X7X7X7X7X7X7X7X7X7X7X7X7X7X7X7X7X7X7X7X7X7X7X7X7X7X7X7X7X7X7X7X7X7X7X7X7X7X7X7X7X7X7X7X7X7X7X7X7X7X7X7X7X7X7X7X7X7X7X7X7X7X7X7X7X7X7X7X7X7X"
};
