/* XPM */
static char *bitcoin16[] = {
/* columns rows colors chars-per-pixel */
"16 16 178 2 ",
"   c #1ABD04183319",
".  c #1C0D05FC3315",
"X  c #1C6E063733DE",
"o  c #1C9F0640346E",
"O  c #1D9906B336C1",
"+  c #1DEE072736D0",
"@  c #1E1506003A25",
"#  c #1EBC07A13879",
"$  c #1F4A07FF3981",
"%  c #1FA307313CAB",
"&  c #1FAA080F3AB3",
"*  c #204408993B7A",
"=  c #20D609BC3AB0",
"-  c #23150CA13B81",
";  c #1FC907C33BCC",
":  c #20B708E03C5F",
">  c #217109263E48",
",  c #21F409823F28",
"<  c #224909C93F9C",
"1  c #22A109E6408D",
"2  c #233E0A3241F7",
"3  c #24330AFF4375",
"4  c #24EA0B7D44A8",
"5  c #25870BEB45B4",
"6  c #263D0C4F4748",
"7  c #27060DB146AD",
"8  c #269D0B554AF9",
"9  c #26A50C824851",
"0  c #289E0DC74C0A",
"q  c #297A0E5B4D94",
"w  c #2A280F744C21",
"e  c #2A2F0EAD4F4E",
"r  c #2A2F1134442F",
"t  c #2C66153645D8",
"y  c #297F10A24845",
"u  c #2BB511A54D6B",
"i  c #2E25150B4C68",
"p  c #302C15264F67",
"a  c #31EF1BDB49FB",
"s  c #2ADB0F33505C",
"d  c #2BAF0FBF51F1",
"f  c #2C5810195363",
"g  c #2CC6105B544E",
"h  c #2D6F10C7558D",
"j  c #2EC4118F5868",
"k  c #2F3F11E75925",
"l  c #324815B05717",
"z  c #32B615FC57CD",
"x  c #318B17E252A6",
"c  c #336017E05231",
"v  c #38F71EA85532",
"b  c #3061129B5B66",
"n  c #310813B159DE",
"m  c #335216F05B3F",
"M  c #32EC14E45D7F",
"N  c #323A13B65F34",
"B  c #33BE17125C4A",
"V  c #34FE17FE5951",
"C  c #38431A265F89",
"Z  c #3CD71F325DBD",
"A  c #38891FAF581D",
"S  c #3E6422345BE4",
"D  c #3F7321725F97",
"F  c #3EF325BB5F83",
"G  c #324D12B861D0",
"H  c #3303142D60E4",
"J  c #35C116A3632C",
"K  c #34F1156064B3",
"L  c #357C159F65E8",
"P  c #3687166C6797",
"I  c #370F18EA6364",
"U  c #3A321B646330",
"Y  c #39CD1D0062F9",
"T  c #3BC31E836636",
"R  c #3DAF1E3866E6",
"E  c #36D51618696E",
"W  c #396018DC6A77",
"Q  c #3C9E1CDB6815",
"!  c #3CFC1D1768C4",
"~  c #3F5E1F5269F1",
"^  c #38C917CB6C2E",
"/  c #39D118286ED6",
"(  c #3BC91A626F20",
")  c #3AEF190670A9",
"_  c #3CA11A2773EA",
"`  c #3D9E1ADC7580",
"'  c #3F311B9F7933",
"]  c #3F6E20D162D0",
"[  c #3EE722F36610",
"{  c #40541C7F7B12",
"}  c #40351B587D68",
"|  c #42C824AB6548",
" . c #426D25706767",
".. c #45AC269064D6",
"X. c #439D23656B35",
"o. c #41312577684C",
"O. c #44AC240A6D5A",
"+. c #46D526106E08",
"@. c #4893288E69FE",
"#. c #4B872B026C97",
"$. c #4A5C29786E11",
"%. c #4B2F2A386EEA",
"&. c #446F2432718A",
"*. c #44532199778E",
"=. c #49C927337796",
"-. c #4F7B2E3F7046",
";. c #4E462CB87202",
":. c #49B029B774B2",
">. c #4B0E28AE766F",
",. c #4F922D6F74F3",
"<. c #461822C87AC1",
"1. c #46DD23357C68",
"2. c #484B24DB7BAE",
"3. c #4FCD2BA07FD8",
"4. c #50422EBA71CF",
"5. c #514C2EF27514",
"6. c #50872D7D79C3",
"7. c #53A12F717FC6",
"8. c #535530A677D8",
"9. c #51A53968714F",
"0. c #539D2FF07CFE",
"q. c #54452FCE7FD1",
"w. c #5664327A7E49",
"e. c #43551E4F813C",
"r. c #45A51FCE858F",
"t. c #463E20398694",
"y. c #49E4245F85C2",
"u. c #4B3C25E78547",
"i. c #4A7A24C586C7",
"p. c #49E622728DFC",
"a. c #49D622588E20",
"s. c #4F0328498C93",
"d. c #51782CA18351",
"f. c #50672B4984CC",
"g. c #54A62EAC893E",
"h. c #55D02F5D8BB9",
"j. c #5514305682AC",
"k. c #581B3396816F",
"l. c #57E732A48568",
"z. c #59623E5A804F",
"x. c #5C7F35D18B84",
"c. c #5AC2340D8C26",
"v. c #4B2723389083",
"b. c #52E12B6290DD",
"n. c #53DC2B3E9658",
"m. c #5F44373793FA",
"M. c #5D5E34159A8D",
"N. c #6137393693AC",
"B. c #611C37C29AC7",
"V. c #796166A48E34",
"C. c #7E186AEE943C",
"Z. c #7FE56D929422",
"A. c #839D716897CB",
"S. c #872F6FF3A7C8",
"D. c #88DC73BCA474",
"F. c #8BD77743A64B",
"G. c #8C1C73F8AF33",
"H. c #989E8723AC5D",
"J. c #A1A58D6EBC93",
"K. c #A3AC8EB8C088",
"L. c #A5B99008C47C",
"P. c #AEF89E2EC272",
"I. c #B362A2C3C6B9",
"U. c #B968A553D585",
"Y. c #BC67A8F3D730",
"T. c #C98FB9E2DBFF",
"R. c #CEB9BD97E504",
"E. c #DBE9CCECEDD7",
"W. c #DCB3CD89EF1D",
"Q. c #E8BDDA48FA2F",
"!. c #E8EADA95FA12",
"~. c #E951DAECFAA7",
"^. c #E9BBDB4EFB29",
"/. c #E9FDDBB9FB0F",
"(. c #EA63DBF7FBDA",
"). c #ECB0DEC5FD13",
"_. c #ED67DF3BFE71",
"`. c None",
/* pixels */
"`.`.`.`.`.`.4.,.0.j.`.`.`.`.`.`.",
"`.`.`.`.7.D c ! 2.2.O.@.`.`.`.`.",
"`.`.`.M.<.0 4 / p.t.J p O.`.`.`.",
"`.`.g.i.E 1 1 G } ' h : z d.`.`.",
"`.%.U b 0 + - 9.z.B 1 . : C 6.`.",
"`.] B N s = Z.W.W.D.6 + : m =.`.",
"8.! { t.E v T.^.^.R.o.: s ` b.N.",
";.! e.p./ x I.^.^.Y.T : f { n.m.",
"#.V K ^ j @ V.!.^.S.8 @ 6 H *.l.",
"-.c d h 6   A.!.^.F.$   # 0 T w.",
"`.o.) ` N : H.).^.J.s @ 9 W f.`.",
"`.j.s.v.) u P._.).U.U 1 h u.B.`.",
"`.`.h.i.K r C.J.L.G.m = l d.`.`.",
"`.`.`.:.V t a ] Y [ i r D `.`.`.",
"`.`.`.`.%.D v | &.:.| ..`.`.`.`.",
"`.`.`.`.`.`.5.7.c.x.`.`.`.`.`.`."
};
