/* XPM */
static char *bitcoin64[] = {
/* columns rows colors chars-per-pixel */
"64 64 175 2 ",
"   c #1805020A2EFD",
".  c #1C47060433DB",
"X  c #1EA6083E366B",
"o  c #1E6707023917",
"O  c #1F1807D63948",
"+  c #216809903CD2",
"@  c #24AB0B5B440B",
"#  c #28550E9E46F2",
"$  c #270C0CB64943",
"%  c #29170E0F4CFC",
"&  c #29BC11AF4343",
"*  c #2D8017E0448F",
"=  c #2D2712BE4C14",
"-  c #31D416F94D22",
";  c #33761C784C96",
":  c #2AF50F1C510D",
">  c #2D170F1F585F",
",  c #2CF7108F545A",
"<  c #2F1011A9593E",
"1  c #30B2152652FA",
"2  c #350E198553EF",
"3  c #39C11DEC567D",
"4  c #315B135F5CA6",
"5  c #36C51A1D5C1D",
"6  c #39CA1CD75C57",
"7  c #355820324BBF",
"8  c #3A59245E52D5",
"9  c #3CDE21D55D4D",
"0  c #3EDD2A0D5513",
"q  c #3499152D63E1",
"w  c #3769185F6314",
"e  c #3ACC1BE66412",
"r  c #370E1682695A",
"t  c #381917306B4E",
"y  c #39E318B46D5A",
"u  c #39D117777088",
"i  c #3C971A2973AD",
"p  c #3EFD1B9178D1",
"a  c #3F32225D64DD",
"s  c #410123175F48",
"d  c #426C2C705B3D",
"f  c #481F334D5EE8",
"g  c #40791F706D42",
"h  c #405D1EB773C1",
"j  c #413A1D0A7CE3",
"k  c #433124C36340",
"l  c #457E291F64B4",
"z  c #480528526779",
"x  c #432822EA6BF8",
"c  c #47B727B468FA",
"v  c #4ACC2B526BC1",
"b  c #4DE6395E6413",
"n  c #4B7D33AB68E7",
"m  c #52573D9E689D",
"M  c #43D322257308",
"N  c #483D262C7662",
"B  c #4C502B06731E",
"V  c #458B22937A9B",
"C  c #49A326077C5F",
"Z  c #4CAB29E77A6A",
"A  c #510B2F4C7568",
"S  c #516A2ECF7BE1",
"D  c #4ED330277DF0",
"F  c #530131E67497",
"G  c #556132CA7B4E",
"H  c #5A13361C7E68",
"J  c #52CF3A9C7277",
"K  c #53ED3FE96980",
"L  c #594044FF6F36",
"P  c #59FF41AC7A24",
"I  c #5A2E43887591",
"U  c #62C04D157C1E",
"Y  c #657451AA7AFA",
"T  c #442D1EDB82CA",
"R  c #460A202685E6",
"E  c #4ACB25C483F1",
"W  c #4EDB2AD58414",
"Q  c #473E20C588D2",
"!  c #49CC22AF8C72",
"~  c #4F1628BE8911",
"^  c #51B22D6C8412",
"/  c #53142D1489EF",
"(  c #55E031E18331",
")  c #5A23360983C8",
"_  c #5DA139108498",
"`  c #573F31478BE3",
"'  c #5B9535BE8B28",
"]  c #5E4F390A8B97",
"[  c #4CA52427936B",
"{  c #4F4225B598EA",
"}  c #548D2C4F94C7",
"|  c #509C26979B66",
" . c #542529D69DC9",
".. c #591D2F609D4C",
"X. c #5C14348E93A2",
"o. c #5FA538949438",
"O. c #5CDF33799C83",
"+. c #636B3D098C37",
"@. c #637A3C589414",
"#. c #6004365C9F6A",
"$. c #64503BBA9B59",
"%. c #68313F819E42",
"&. c #531A2809A0C0",
"*. c #5DE532F1A430",
"=. c #61863763A202",
"-. c #65D23BBFA34E",
";. c #691E3F32A3DE",
":. c #6A483DEAAEB8",
">. c #66724E0D87CC",
",. c #673340898D43",
"<. c #692541FB8FEF",
"1. c #651B4AB28AE6",
"2. c #6BDF566A85DB",
"3. c #6B3143569395",
"4. c #67CE495E97EA",
"5. c #6D39442D9ADD",
"6. c #70B047279C77",
"7. c #754A4BA99D63",
"8. c #781B4E1E9FBB",
"9. c #6D48501D9AA5",
"0. c #72B45AA992AF",
"q. c #7AD868418F6B",
"w. c #7A0463E395EF",
"e. c #7C2E655B9A11",
"r. c #6C7B4272A58B",
"t. c #6F1043EEAB2E",
"y. c #77C24D99A053",
"u. c #782E4DF7A0B1",
"i. c #705644B5ADC3",
"p. c #75605946A0AA",
"a. c #6FBC4282B45E",
"s. c #72E54641B301",
"d. c #818D6C039C0D",
"f. c #88EC76619E2A",
"g. c #87E674869D5D",
"h. c #85C26C60AB7A",
"j. c #8A6A7662A252",
"k. c #8DF67BECA265",
"l. c #8E4A7939A9FB",
"z. c #91217EEDA625",
"x. c #90567A7EAE0A",
"c. c #8F0D77C8B03B",
"v. c #93247C3CB39B",
"b. c #96D17E9ABAAF",
"n. c #94818193AA82",
"m. c #9735832AB111",
"M. c #98228459B170",
"N. c #9CE28819B8EA",
"B. c #9DCD89C2B814",
"V. c #A02D8AAABE2C",
"C. c #A4CD93A7B882",
"Z. c #A48F8E31C4E8",
"A. c #AE939B28C863",
"S. c #B3BC9F09D0FA",
"D. c #B1EEA119C5AD",
"F. c #BADDAA6CCE43",
"G. c #B5CBA51EC96C",
"H. c #BCD9AB1FD382",
"J. c #BE8FAB35D92F",
"K. c #C2C9AF99DD51",
"L. c #C5BAB430DC73",
"P. c #C8B8B805DD96",
"I. c #CBA4BBD3DE89",
"U. c #C124B12FD3BD",
"Y. c #CE57BDD6E30E",
"T. c #D318C37FE5F0",
"R. c #D34AC279E91D",
"E. c #DB06CBC6ED87",
"W. c #DE21CEBFF125",
"Q. c #E000D089F358",
"!. c #E6B9D827F84F",
"~. c #E6E5D856F878",
"^. c #E700D874F88E",
"/. c #E969DB09FAB1",
"(. c None",
/* pixels */
"(.(.(.(.(.(.(.(.(.(.(.(.(.(.(.(.(.(.(.(.(.(.(.(.(.(.(.(.(.(.(.(.(.(.(.(.(.(.(.(.(.(.(.(.(.(.(.(.(.(.(.(.(.(.(.(.(.(.(.(.(.(.(.(.",
"(.(.(.(.(.(.(.(.(.(.(.(.(.(.(.(.(.(.(.(.(.(.(.(.(.(.(.(.(.7.7.7.8.7.7.(.(.(.(.(.(.(.(.(.(.(.(.(.(.(.(.(.(.(.(.(.(.(.(.(.(.(.(.(.",
"(.(.(.(.(.(.(.(.(.(.(.(.(.(.(.(.(.(.(.(.(.(.(.(.8.8.6.<.+.+.H ) ) _ +.3.3.6.7.7.(.(.(.(.(.(.(.(.(.(.(.(.(.(.(.(.(.(.(.(.(.(.(.(.",
"(.(.(.(.(.(.(.(.(.(.(.(.(.(.(.(.(.(.(.(.(.u.7.+.F s - & # @ % % , , < 4 e g B ) 3.6.7.(.(.(.(.(.(.(.(.(.(.(.(.(.(.(.(.(.(.(.(.(.",
"(.(.(.(.(.(.(.(.(.(.(.(.(.(.(.(.(.(.(.7.3.F 3 + .   X # 2 e x N B Z N h e q 4 , 4 a F 3.7.(.(.(.(.(.(.(.(.(.(.(.(.(.(.(.(.(.(.(.",
"(.(.(.(.(.(.(.(.(.(.(.(.(.(.(.(.(.7.3.B 1 + . @ 3 z F G G G S W ^ ` X.$.$.@.' Z w : $ = z ,.8.(.(.(.(.(.(.(.(.(.(.(.(.(.(.(.(.(.",
"(.(.(.(.(.(.(.(.(.(.(.(.(.(.(.7.5.( y : = 6 A n k - = % : < q r u i p p p V E ` ] ' x & + @ z 3.7.(.(.(.(.(.(.(.(.(.(.(.(.(.(.(.",
"(.(.(.(.(.(.(.(.(.(.(.(.(.(.7.@.C y q B _ S 1 O   + @ = < q r i p T T T T j i y r M G ) k +   = _ 7.(.(.(.(.(.(.(.(.(.(.(.(.(.(.",
"(.(.(.(.(.(.(.(.(.(.(.(.7.7.X.R p E @.( w $ @ o o O $ , < q i p T T [ ! ! T T p t q < 4 B G ; + # B 6.7.(.(.(.(.(.(.(.(.(.(.(.(.",
"(.(.(.(.(.(.(.(.(.(.(.7.6.O.[ ! *.4.V q , = @ O o + $ , q r i p T ! { { { T T p u q 4 % @ = B v % % x 3.u.(.(.(.(.(.(.(.(.(.(.(.",
"(.(.(.(.(.(.(.(.(.(.8.6.*.&...i.X.p t q < % @ O X + # , 4 t i p T [  .&. .[ T j i q 4 , $ O . k ) 6 > M 3.7.(.(.(.(.(.(.(.(.(.(.",
"(.(.(.(.(.(.(.(.(.7.5.} { =.s.} T p y q < : @ O o + % , 4 r i T T [ { { { [ T p i q 4 , $ + o O 3 ] M q V 3.7.(.(.(.(.(.(.(.(.(.",
"(.(.(.(.(.(.(.(.7.5./ ! *.s.} T T i t q , % + o o + % , 4 r i p T [ [ [ [ Q T p y q 4 : @ + . + @ 4 +.Z r V 5.7.(.(.(.(.(.(.(.(.",
"(.(.(.(.(.(.(.(.6.W j } t.[ T T p y r < , % @ X X O @ : < q y i T T Q Q Q T j i r q < % @ O . O @ $ q ] Z i W 6.(.(.(.(.(.(.(.(.",
"(.(.(.(.(.(.(.7.( i E r.E T j p i t 4 < : $ O X X o @ % , < r y p p T T j p i y q 4 , $ @ O . . + # : r @.V i ` 7.(.(.(.(.(.(.(.",
"(.(.(.(.(.(.7.+.w y $.E i i i u t q 4 , % + o . . o O $ , < 4 r y u i i i i y q 4 < % @ O . . . + @ % , x @.y i +.7.(.(.(.(.(.(.",
"(.(.(.(.(.(.3.e < ( ^ q y r r q q < , % @ + . . . . X @ # , < < q r t t t r q 4 < : @ @ . . . . . + @ % , Z ' q M 3.(.(.(.(.(.(.",
"(.(.(.(.(.7.A % a ' 4 q q q q 4 , , % @ @ . . . . . . X @ # : : < 4 q 4 4 4 < , % & @ X . . . . . + + % % , ' M q G 7.(.(.(.(.(.",
"(.(.(.(.(.+.= @ ) 5 : , , , , , % $ @ + X . . . . . . X o O 1 a a w < : < , , # $ + X . . .   . . . + + @ $ 5 _ < 4 3.7.(.(.(.(.",
"(.(.(.(.8.z . 9 B @ $ % % % % $ $ @ + o . . . . . . . X b n.F.Y.T.H.n.P , $ @ @ + O . . . . . . . . . o @ @ @ B x $ B 7.(.(.(.(.",
"(.(.(.(.<.# + G , $ = : : , : % % @ + O . . . . . . * f.E./././.!.^./.E.M.a $ $ @ O O . . . . . . . . + @ @ $ 4 _ , 5 3.(.(.(.(.",
"(.(.(.8.F + 6 A : , < < 4 < < , , : $ @ O . . .   * C./.^.!.!.!.!.!.!././.A.a : % @ O o . . . . . . + @ % : , > ( N , ) 8.(.(.(.",
"(.(.(.7.6 + G e , < q q r q q q 4 < , $ @ O . . X k./.^.^.^.^.^.^.^.!.^.^./.N.< , % $ O X . . . . + @ % : , 4 q V ] q M 6.(.(.(.",
"(.(.(.+.# - _ 4 q q r y i i i t q 4 < : $ + . . b E.^.!.^.^.!.^.!.!.^.!.^.^.W.1.< , % @ O . . . + @ @ , 4 q r y y $.V i 3.(.(.(.",
"(.(.8.G @ x Z 4 q y i p p T p p i r 4 < % @ O . k./.!.!.^.!.^.^.^.^.^.!.^.^./.B.q < , $ O O . . + @ % < q q u i j X./ p ] u.(.(.",
"(.(.7.c @ G M q y i j R T T T p i y q 4 , $ + & F./.!.!.^.!.^.!.^.!.^.!.^.!./.L.M < , % @ O X O @ % > 4 q i p T T } -.j / 7.(.(.",
"(.(.6.3 % ' r r i p T ! [ ! ! T j i r q , = @ ; I./.!.!.!.^.^.^.^.!.^.^.!.!./.R.D q < : @ O X O @ % < q y i j T ! [ t.! / 6.(.(.",
"(.(.3.= 1 _ q y i T Q [ { { [ Q T i r q , $ @ 2 I./.!.!.^.^.!.!.!.^.^.!.!.!./.R.^ q 4 : $ O X O @ : 4 q y j T ! [ | s.} ! 6.(.(.",
"(.(.+.# 6 ( q r p T ! {  .&.{ ! T p y q < % @ & F./.!.!.!.!.!.^.^.!.!.^.!.!./.Y.C q 4 , @ @ . + $ , 4 q u j T [ { &.s...! 5.(.(.",
"(.u.+.@ e G q y i T Q [ { { [ ! j p y q < = @ o n./.!.!.^.!.^.^.^.^.^.^.!.!.!.Z.i q 4 : $ + . + @ : 4 q u p T ! [ { :.*.R @.8.(.",
"(.u.H @ x Z 4 r i j R ! { { ! T j i r q < % @ . b E.^.!.^.^.!.!.!.^.^.!.!.^.Q.9.t q 4 : @ + . + @ : < q y p T T [ [ =.#.T @.7.(.",
"(.u.G + c B < r i i T R T Q T T p i q 4 : $ @ . O n./.!.!.^.^.^.!.^.!.^.!.^.Z.p r q , % @ o . o @ % , 4 r i j T T T O.O.p +.8.(.",
"(.8.G O a N , q r i p p p R p i i r 4 < = & X .   ; D./.^.!.!.^.^.!.^.!./.J.^ t q 4 , # + o . . + # % < q r i p p j X.X.u ] p.(.",
"(.8.G X 9 B : < q t y i i i i i r q < , # + X . . . f./.^.^.^.^.^.^.^.!./.N.r r q , % @ + . . . + @ % , < r r i i i ` / r ] y.(.",
"(.u.H X 2 B # , < 4 r r t r t q 4 < , % @ O . . . X B./.!.^.^.!.!.!.^.^./.A.q < , % # + o . . . o + $ % , < q r r r ` W q +.y.(.",
"(.(.,.O * A @ % , < < < 4 q < < < , % $ + O . . . X D./.^.!.!.^.^.^.!.^./.F.w , % % + O . . . . . o + $ % , , < q < ` a 4 @.(.(.",
"(.(.3.+ X F @ @ & % : , , < , : % $ @ O X   X . . + U./.^.!.^.^.^.!.!.^./.P.9 $ @ + + . .   . . . . O + @ % % , , , ' 5 1 3.(.(.",
"(.(.6.; X A + O + $ $ % % % % $ @ @ O O . . . . . 7 T./.^.!.^.!.!.^.^.^./.R.a @ + O . . . . . . . . . o + @ @ % % , ) % 6 6.(.(.",
"(.(.8.s   c 2 + $ % : : , , , = % @ @ O X X . .   f E.^.!.^.^.^.^.^.^.^.^.W.K $ @ + X . . . . . . . o + @ # % , , e G % x 7.(.(.",
"(.(.8.F . 9 v $ : , < < 4 < < < , , % @ X . . .   K Q.^.^.^.!.!.^.!.^.^.^.Q.1.% % @ + X . . . . . . + @ % % , < < S Z 4 ) 7.(.(.",
"(.(.(.,.# = ) , < q q q r r r q < < , # @ O . .   Y ^.^.^.^.^.^.^.^.!.^.^.^.e.> , % $ + o . . . . + @ % , 4 4 q q @.h r <.(.(.(.",
"(.(.(.6.3 @ ( a < r r i y i y t r q < , $ @ X .   q./.^.^.^.^.^.!.^.^.!././.c.q < , % @ + . . . o @ % , 4 q r y C $.i C 6.(.(.(.",
"(.(.(.8.G % x ' r y i p p p p i i r q < % $ O X . n./.^.^.^.^.^.^.^.^.!././.Z.t q , % % + O . o + @ % 4 4 r i i X.` p ] 8.(.(.(.",
"(.(.(.(.3.5 4 @.p p p T Q R R R i t q < , $ + . X C./.^.^.^.^.^.!.!.^.^.Q./.S.p r q , % + o . o @ % , q q i j R t.! ! 5.(.(.(.(.",
"(.(.(.(.7.Z 4 ^ X.p R Q [ ! ! R p i r q , % @ o + G./.^.^.^.^.^.^.!.^.!.^./.J.V y q < % $ O . O @ : < q y i j $.=.[ X.7.(.(.(.(.",
"(.(.(.(.(.3.y y 5.! Q { { { { Q R i t q < % @ o * U./.^.^.^.^.^.^.^.!.^.^.^.R.^ y r < , $ + o + @ : 4 q y p ! i.{  .6.7.(.(.(.(.",
"(.(.(.(.(.7.G y ~ r.! { &.&.{ Q R i t q < : @ o 8 T.^.^.^.^.^.^.!.!.^.^.^./.E.X.y r < , $ + o O @ : 4 q y j ;.O.{ #.7.(.(.(.(.(.",
"(.(.(.(.(.(.3.V p $.O.[ | { [ Q R p t q < % @ . b E.^.^.^.^.^.^.^.^.^.!.^.^.Q.4.u r < , $ O o O @ : 4 q i / -.! } 6.(.(.(.(.(.(.",
"(.(.(.(.(.(.7.+.j j r. .! ! ! R j u r q > % @ . K !.!.!.^.^.^.^.~.~.~.~.^.^.!.8.y q 4 : + + . + @ : < q V 5.R ! $.8.(.(.(.(.(.(.",
"(.(.(.(.(.(.(.7.( i ~ r.[ R R j j y q 4 : % + . 2././././.^./././././././././.h.q 4 > # + + . . @ % , r $.C i ` 7.(.(.(.(.(.(.(.",
"(.(.(.(.(.(.(.(.6.W i / ;.E j j u r 4 4 % @ + . f g.f.l.l.c.c.b.b.b.b.b.N.b.b.<.q 4 , # + + . + + @ 1 +.N r C 6.(.(.(.(.(.(.(.(.",
"(.(.(.(.(.(.(.(.8.3.V y ^ %.V r q q 4 : % + + . . . + @ % < < q r u u u u t q q 4 > # + + + . . O = ' x , g 5.8.(.(.(.(.(.(.(.(.",
"(.(.(.(.(.(.(.(.(.7.3.h q Z @.V 4 4 : % + + . + . . + + # % , < 4 r r r r q q 1 > % @ @ +   .   = G 6 % e +.7.(.(.(.(.(.(.(.(.(.",
"(.(.(.(.(.(.(.(.(.(.7.3.g > e ] B : $ @ + . . + ; +   + & s e : < 4 t 4 4 4 4 g % @ + + . + . 8 F - + 2 +.8.(.(.(.(.(.(.(.(.(.(.",
"(.(.(.(.(.(.(.(.(.(.(.8.3.x : 4 S G - + +     L g.Y   . d j.d.2 % 1 0.9 : : 2.w.n + +   . + v z + . ; <.8.(.(.(.(.(.(.(.(.(.(.(.",
"(.(.(.(.(.(.(.(.(.(.(.(.7.6.v % @ 6 F f + .   Y f.m     d n.g.- $ : w.5 % % d.d 8 + . + s F 2 . X s 3.8.(.(.(.(.(.(.(.(.(.(.(.(.",
"(.(.(.(.(.(.(.(.(.(.(.(.(.(.7.) 6 @ $ a F k & b 0 . . . 8 I U 1 % , >.w , , P w.n = z F s + . & F 7.(.(.(.(.(.(.(.(.(.(.(.(.(.(.",
"(.(.(.(.(.(.(.(.(.(.(.(.(.(.(.7.3.B 1 @ @ 3 F F s * + + @ $ = , < < 4 4 4 w a D ) G 6 +   + l <.7.(.(.(.(.(.(.(.(.(.(.(.(.(.(.(.",
"(.(.(.(.(.(.(.(.(.(.(.(.(.(.(.(.(.7.3.v = + . + 3 z F G B B Z Z Z ^ ( ] o.o.) N e % @ = d +.7.(.(.(.(.(.(.(.(.(.(.(.(.(.(.(.(.(.",
"(.(.(.(.(.(.(.(.(.(.(.(.(.(.(.(.(.(.7.7.<.A - + . . + 1 a M Z ^ / / / E V y r q 4 g A <.7.8.(.(.(.(.(.(.(.(.(.(.(.(.(.(.(.(.(.(.",
"(.(.(.(.(.(.(.(.(.(.(.(.(.(.(.(.(.(.(.(.(.7.7.+.A s 2 1 1 q q r i i j T R C ^ ' 3.6.8.(.(.(.(.(.(.(.(.(.(.(.(.(.(.(.(.(.(.(.(.(.",
"(.(.(.(.(.(.(.(.(.(.(.(.(.(.(.(.(.(.(.(.(.(.(.(.7.7.5.3.,.+.' ' ] o.3.3.4.7.7.7.(.(.(.(.(.(.(.(.(.(.(.(.(.(.(.(.(.(.(.(.(.(.(.(.",
"(.(.(.(.(.(.(.(.(.(.(.(.(.(.(.(.(.(.(.(.(.(.(.(.(.(.(.(.(.u.7.6.6.6.8.(.(.(.(.(.(.(.(.(.(.(.(.(.(.(.(.(.(.(.(.(.(.(.(.(.(.(.(.(.",
"(.(.(.(.(.(.(.(.(.(.(.(.(.(.(.(.(.(.(.(.(.(.(.(.(.(.(.(.(.(.(.(.(.(.(.(.(.(.(.(.(.(.(.(.(.(.(.(.(.(.(.(.(.(.(.(.(.(.(.(.(.(.(.(."
};
